; generated by Slic3r 1.2.9 on 2015-08-17 at 16:43:58

; external perimeters extrusion width = 0.55mm
; perimeters extrusion width = 0.55mm
; infill extrusion width = 0.55mm
; solid infill extrusion width = 0.55mm
; top infill extrusion width = 0.55mm

M201 X750 Y750 E100
G28 X10.0 Y10.0
G28 Z
G92 E0.0
G1 Y60.0 E2.0  F1000.0
G1 Y100.0 E4.5  F1000.0
G92 Z0.35
G92 E0.0
G21 ; set units to millimeters
G90 ; use absolute coordinates
M83 ; use relative distances for extrusion
G1 E-2.50000 F1200.00000
G1 Z0.250 F6000.000
G1 X62.642 Y100.325 F6000.000
G1 E2.50000 F1200.00000
G1 X105.088 Y83.619 E0.85047 F2400.000
G1 X106.921 Y83.619 E0.03418
G1 X149.358 Y100.325 E0.85032 F2400.000
G1 X150.486 Y101.211 E0.02674
G1 X167.189 Y124.877 E0.54007
G1 X167.645 Y126.202 E0.02612
G1 X167.317 Y127.563 E0.02612
G1 X166.308 Y128.536 E0.02612
G1 X165.151 Y128.823 E0.02224
G1 X126.144 Y128.914 E0.72727
G1 X85.856 Y128.914 E0.75113
G1 X46.849 Y128.823 E0.72727
G1 X45.505 Y128.427 E0.02612
G1 X44.584 Y127.372 E0.02612
G1 X44.375 Y125.987 E0.02612
G1 X44.811 Y124.877 E0.02224
G1 X61.514 Y101.211 E0.54007
G1 X62.595 Y100.362 E0.02562
G1 F4800
G1 X71.898 Y96.696 E-2.37500
G1 E-0.12500 F1200.00000
G1 X85.222 Y125.639 F6000.000
G1 E2.50000 F1200.00000
G1 X50.443 Y125.557 E0.64030 F1920.000
G1 X52.443 Y124.561 E0.04114
G1 X55.898 Y122.271 E0.07632
G1 X59.047 Y119.574 E0.07632
G1 X61.826 Y116.526 E0.07595
G1 X62.267 Y115.966 E0.01312
G1 X62.791 Y115.174 E0.01749
G1 X63.671 Y113.537 E0.03422
G1 X64.347 Y111.792 E0.03444
G1 X64.803 Y109.978 E0.03444
G1 X65.033 Y108.121 E0.03444
G1 X65.033 Y106.250 E0.03444
G1 X64.803 Y104.392 E0.03448
G1 X64.588 Y103.559 E0.01583
G1 X67.099 Y103.870 E0.04658
G1 X74.426 Y104.095 E0.13496
G1 X81.726 Y103.419 E0.13496
G1 X85.338 Y102.743 E0.06765
G1 X86.911 Y102.550 E0.02918
G1 X89.927 Y101.889 E0.05686
G1 X92.851 Y100.859 E0.05707
G1 X95.626 Y99.478 E0.05707
G1 X98.209 Y97.765 E0.05707
G1 X100.563 Y95.749 E0.05707
G1 X102.652 Y93.458 E0.05707
G1 X104.442 Y90.928 E0.05707
G1 X105.905 Y88.205 E0.05690
G1 X106.020 Y87.928 E0.00553
G1 X106.782 Y89.585 E0.03360
G1 X108.414 Y92.221 E0.05707 F1920.000
G1 X110.357 Y94.636 E0.05707
G1 X112.583 Y96.793 E0.05707
G1 X115.056 Y98.661 E0.05707
G1 X117.740 Y100.211 E0.05707
G1 X120.595 Y101.419 E0.05707
G1 X123.576 Y102.268 E0.05707
G1 X133.908 Y103.869 E0.19248
G1 X141.247 Y104.095 E0.13518
G1 X147.389 Y103.526 E0.11356
G1 X147.054 Y105.319 E0.03357
G1 X146.938 Y107.186 E0.03444
G1 X147.054 Y109.053 E0.03444
G1 X147.397 Y110.892 E0.03444
G1 X147.964 Y112.675 E0.03444
G1 X148.746 Y114.374 E0.03444
G1 X149.732 Y115.967 E0.03448
G1 X151.516 Y118.091 E0.05107
G1 X154.486 Y120.971 E0.07617
G1 X157.794 Y123.469 E0.07632
G1 X161.420 Y125.557 E0.07703
G1 X126.788 Y125.639 E0.63760
G1 X126.457 Y124.323 E0.02497
G1 X125.916 Y122.926 E0.02758
G1 X125.207 Y121.606 E0.02758
G1 X124.342 Y120.384 E0.02758
G1 X123.329 Y119.273 E0.02767
G1 X122.063 Y118.215 E0.03039
G1 X120.946 Y117.474 E0.02467
G1 X119.605 Y116.807 E0.02758
G1 X118.192 Y116.309 E0.02758
G1 X116.729 Y115.988 E0.02758
G1 X115.237 Y115.850 E0.02758
G1 X113.739 Y115.896 E0.02758
G1 X112.264 Y116.125 E0.02749
G1 X110.723 Y116.542 E0.02940
G1 X109.447 Y121.346 E0.09151
G1 X109.076 Y119.875 E0.02793
G1 X102.924 Y119.875 E0.11325
G1 X102.553 Y121.346 E0.02793
G1 X101.281 Y116.557 E0.09123
G1 X100.451 Y116.305 E0.01598
G1 X99.004 Y115.988 E0.02727
G1 X97.513 Y115.850 E0.02758
G1 X96.015 Y115.896 E0.02758
G1 X95.774 Y115.933 E0.00449
G1 X94.535 Y116.126 E0.02309
G1 X93.094 Y116.536 E0.02758
G1 X91.714 Y117.120 E0.02758
G1 X90.417 Y117.869 E0.02758
G1 X89.221 Y118.772 E0.02758
G1 X88.146 Y119.815 E0.02758
G1 X87.207 Y120.982 E0.02758
G1 X86.418 Y122.255 E0.02758
G1 X85.792 Y123.616 E0.02758
G1 X85.339 Y125.041 E0.02752
G1 X85.233 Y125.580 E0.01011
G1 X85.720 Y125.675 F6000.000
G1 X85.630 Y126.136 E0.00865 F1920.000
G1 X48.291 Y126.048 E0.68745
G1 X48.543 Y125.949 E0.00499
G1 X52.194 Y124.130 E0.07510
G1 X55.599 Y121.874 E0.07519
G1 X58.700 Y119.217 E0.07519
G1 X61.447 Y116.204 E0.07506
G1 X61.865 Y115.675 E0.01241
G1 X62.365 Y114.919 E0.01668
G1 X63.219 Y113.329 E0.03324
G1 X63.873 Y111.641 E0.03332
G1 X64.314 Y109.886 E0.03332
G1 X64.536 Y108.091 E0.03332
G1 X64.536 Y106.281 E0.03332
G1 X64.314 Y104.484 E0.03333
G1 X63.925 Y102.977 E0.02867
G1 X67.137 Y103.374 E0.05958
G1 X74.411 Y103.598 E0.13398
G1 X81.657 Y102.927 E0.13398
G1 X85.262 Y102.252 E0.06752
G1 X86.827 Y102.060 E0.02904
G1 X89.791 Y101.411 E0.05586
G1 X92.657 Y100.401 E0.05594
G1 X95.377 Y99.047 E0.05594
G1 X97.910 Y97.369 E0.05594
G1 X100.217 Y95.392 E0.05594
G1 X102.264 Y93.146 E0.05594
G1 X104.020 Y90.666 E0.05594
G1 X105.456 Y87.992 E0.05588
G1 X105.996 Y86.688 E0.02599
G1 X107.220 Y89.350 E0.05395
G1 X108.820 Y91.933 E0.05594 F1920.000
G1 X110.725 Y94.301 E0.05594
G1 X112.906 Y96.416 E0.05594
G1 X115.331 Y98.247 E0.05594
G1 X117.962 Y99.766 E0.05594
G1 X120.760 Y100.950 E0.05594
G1 X123.683 Y101.782 E0.05594
G1 X133.954 Y103.374 E0.19136
G1 X141.232 Y103.598 E0.13405
G1 X148.065 Y102.965 E0.12634
G1 X147.879 Y103.604 E0.01226
G1 X147.547 Y105.380 E0.03325
G1 X147.436 Y107.186 E0.03332
G1 X147.547 Y108.992 E0.03332
G1 X147.880 Y110.771 E0.03332
G1 X148.428 Y112.495 E0.03332
G1 X149.184 Y114.139 E0.03331
G1 X150.135 Y115.675 E0.03326
G1 X151.879 Y117.752 E0.04994
G1 X154.809 Y120.594 E0.07514
G1 X158.069 Y123.055 E0.07519
G1 X161.605 Y125.097 E0.07518
G1 X163.817 Y126.048 E0.04433
G1 X126.377 Y126.136 E0.68929
G1 X126.333 Y125.862 E0.00510
G1 X125.983 Y124.474 E0.02636
G1 X125.464 Y123.134 E0.02645
G1 X124.785 Y121.868 E0.02645
G1 X123.954 Y120.695 E0.02645
G1 X122.985 Y119.632 E0.02649
G1 X121.766 Y118.613 E0.02926
G1 X120.697 Y117.905 E0.02360
G1 X119.411 Y117.265 E0.02645
G1 X118.056 Y116.787 E0.02645
G1 X116.652 Y116.480 E0.02645
G1 X115.221 Y116.347 E0.02645
G1 X113.785 Y116.391 E0.02645
G1 X112.367 Y116.611 E0.02642
G1 X111.129 Y116.946 E0.02362
G1 X109.434 Y123.326 E0.12153
G1 X108.689 Y120.372 E0.05610
G1 X103.311 Y120.372 E0.09901
G1 X102.566 Y123.326 E0.05610
G1 X100.873 Y116.952 E0.12143
G1 X100.326 Y116.786 E0.01052
G1 X98.928 Y116.480 E0.02634
G1 X97.497 Y116.347 E0.02645
G1 X96.061 Y116.391 E0.02645
G1 X95.850 Y116.424 E0.00392
G1 X94.641 Y116.612 E0.02253
G1 X93.259 Y117.005 E0.02645
G1 X91.936 Y117.565 E0.02645
G1 X90.691 Y118.283 E0.02645
G1 X89.545 Y119.149 E0.02645
G1 X88.513 Y120.150 E0.02645
G1 X87.612 Y121.269 E0.02645
G1 X86.856 Y122.491 E0.02645
G1 X86.255 Y123.796 E0.02645
G1 X85.820 Y125.164 E0.02643
G1 X85.732 Y125.616 E0.00848
G1 X85.342 Y125.805 F6000.000
G1 F4800
G1 X85.630 Y126.136 E-0.12579
G1 F4800
G1 X76.160 Y126.114 E-2.24921
G1 E-0.12500 F1200.00000
G1 X102.215 Y118.548 F6000.000
G1 E2.50000 F1200.00000
G1 X103.182 Y119.514 E0.02520 F1920.000
G1 X103.885 Y119.514 E0.01296
G1 X101.961 Y117.590 E0.05016
G1 X101.707 Y116.633 F6000.000
G1 X104.588 Y119.514 E0.07513 F1920.000
G1 X105.291 Y119.514 E0.01296
G1 X88.359 Y102.582 E0.44153
G1 X88.936 Y102.456 E0.01089
G1 X105.994 Y119.514 E0.44483
G1 X106.697 Y119.514 E0.01296
G1 X89.512 Y102.329 E0.44812
G1 X90.075 Y102.189 E0.01070
G1 X107.400 Y119.514 E0.45177
G1 X108.103 Y119.514 E0.01296
G1 X90.595 Y102.006 E0.45655
G1 X91.115 Y101.823 E0.01016
G1 X108.806 Y119.514 E0.46133
G1 X109.509 Y119.514 E0.01296
G1 X91.635 Y101.640 E0.46610
G1 X92.155 Y101.457 E0.01016
G1 X109.716 Y119.018 E0.45793
G1 X109.863 Y118.462 E0.01060
G1 X92.675 Y101.273 E0.44822
G1 X93.168 Y101.064 E0.00989
G1 X110.011 Y117.907 E0.43919
G1 X110.158 Y117.351 E0.01060
G1 X93.638 Y100.831 E0.43080
G1 X94.107 Y100.597 E0.00967
G1 X110.306 Y116.796 E0.42241
G1 X110.473 Y116.260 E0.01035
G1 X94.576 Y100.363 E0.41453
G1 X95.046 Y100.130 E0.00967
G1 X111.026 Y116.110 E0.41672
G1 X111.580 Y115.961 E0.01057
G1 X95.515 Y99.896 E0.41892
G1 X95.962 Y99.639 E0.00950
G1 X112.133 Y115.811 E0.42170
G1 X112.728 Y115.703 E0.01115
G1 X96.384 Y99.359 E0.42619
G1 X96.807 Y99.079 E0.00935
G1 X113.337 Y115.608 E0.43103
G1 X113.962 Y115.531 E0.01163
G1 X97.230 Y98.799 E0.43632
G1 X97.653 Y98.519 E0.00935
G1 X114.644 Y115.510 E0.44308
G1 X115.326 Y115.489 E0.01258
G1 X98.076 Y98.238 E0.44984
G1 X98.487 Y97.946 E0.00930
G1 X116.097 Y115.557 E0.45922
G1 X116.872 Y115.629 E0.01435
G1 X98.866 Y97.622 E0.46955
G1 X99.244 Y97.298 E0.00919
G1 X117.767 Y115.820 E0.48301
G1 X118.717 Y116.067 E0.01810
G1 X99.623 Y96.973 E0.49791
G1 X100.001 Y96.649 E0.00919
G1 X119.802 Y116.450 E0.51634
G1 F4800
G1 X112.731 Y109.379 E-2.37500
G1 E-0.12500 F1200.00000
G1 X121.177 Y117.121 F6000.000
G1 E2.50000 F1200.00000
G1 X100.380 Y96.324 E0.54230 F1920.000
G1 X100.759 Y96.000 E0.00919
G1 X130.029 Y125.270 E0.76327
G1 X130.730 Y125.269 E0.01293
G1 X101.097 Y95.635 E0.77274
G1 X101.432 Y95.267 E0.00918
G1 X131.432 Y125.267 E0.78229
G1 X132.133 Y125.265 E0.01293
G1 X101.767 Y94.900 E0.79184
G1 X102.103 Y94.532 E0.00918
G1 X132.834 Y125.264 E0.80139
G1 X133.536 Y125.262 E0.01293
G1 X102.438 Y94.164 E0.81093
G1 X102.773 Y93.796 E0.00918
G1 X134.237 Y125.260 E0.82048
G1 X134.939 Y125.259 E0.01293
G1 X103.082 Y93.403 E0.83070
G1 X103.374 Y92.991 E0.00930
G1 X135.640 Y125.257 E0.84139
G1 X136.341 Y125.255 E0.01293
G1 X103.665 Y92.579 E0.85209
G1 X103.957 Y92.168 E0.00930
G1 X137.043 Y125.254 E0.86278
G1 X137.744 Y125.252 E0.01293
G1 X104.248 Y91.756 E0.87347
G1 X104.539 Y91.344 E0.00930
G1 X138.445 Y125.250 E0.88416
G1 X139.147 Y125.249 E0.01293
G1 X104.816 Y90.918 E0.89525
G1 X105.061 Y90.460 E0.00957
G1 X139.848 Y125.247 E0.90713
G1 X140.550 Y125.246 E0.01293
G1 X112.883 Y97.579 E0.72145
G1 F4800
G1 X119.954 Y104.650 E-2.37500
G1 E-0.12500 F1200.00000
G1 X115.308 Y99.301 F6000.000
G1 E2.50000 F1200.00000
G1 X141.251 Y125.244 E0.67651 F1920.000
G1 X141.952 Y125.242 E0.01293
G1 X116.971 Y100.261 E0.65143
G1 F4800
G1 X124.042 Y107.332 E-2.37500
G1 E-0.12500 F1200.00000
G1 X118.312 Y100.899 F6000.000
G1 E2.50000 F1200.00000
G1 X142.654 Y125.241 E0.63476 F1920.000
G1 X143.355 Y125.239 E0.01293
G1 X119.531 Y101.415 E0.62126
G1 F4800
G1 X126.602 Y108.486 E-2.37500
G1 E-0.12500 F1200.00000
G1 X120.669 Y101.850 F6000.000
G1 E2.50000 F1200.00000
G1 X144.056 Y125.237 E0.60986 F1920.000
G1 X144.758 Y125.236 E0.01293
G1 X121.652 Y102.130 E0.60253
G1 X122.634 Y102.409 E0.01884
G1 X145.459 Y125.234 E0.59520
G1 X146.161 Y125.232 E0.01293
G1 X123.579 Y102.651 E0.58885
G1 X124.411 Y102.780 E0.01552
G1 X146.862 Y125.231 E0.58544
G1 X147.563 Y125.229 E0.01293
G1 X125.243 Y102.909 E0.58203
G1 X126.075 Y103.038 E0.01552
G1 X148.265 Y125.227 E0.57863
G1 X148.966 Y125.226 E0.01293
G1 X126.907 Y103.167 E0.57522
G1 X127.739 Y103.296 E0.01552
G1 X149.668 Y125.224 E0.57181
G1 X150.369 Y125.222 E0.01293
G1 X128.571 Y103.425 E0.56841
G1 X129.403 Y103.554 E0.01552
G1 X151.070 Y125.221 E0.56500
G1 X151.772 Y125.219 E0.01293
G1 X130.235 Y103.683 E0.56160
G1 X131.067 Y103.812 E0.01552
G1 X152.473 Y125.218 E0.55819
G1 X153.174 Y125.216 E0.01293
G1 X131.899 Y103.941 E0.55478
G1 X132.731 Y104.070 E0.01552
G1 X153.876 Y125.214 E0.55138
G1 X154.577 Y125.213 E0.01293
G1 X133.563 Y104.199 E0.54797
G1 X134.314 Y104.246 E0.01387
G1 X155.279 Y125.211 E0.54669
G1 X155.980 Y125.209 E0.01293
G1 X135.039 Y104.269 E0.54606
G1 X135.765 Y104.291 E0.01338
G1 X156.681 Y125.208 E0.54544
G1 F4800
G1 X149.610 Y118.137 E-2.37500
G1 E-0.12500 F1200.00000
G1 X157.046 Y123.463 F6000.000
G1 E2.50000 F1200.00000
G1 X158.785 Y125.203 E0.04536 F1920.000
G1 X158.866 Y124.580 E0.01157
G1 X159.487 Y125.201 E0.01619
G1 F4800
G1 X158.866 Y124.580 E-0.20849
G1 F4800
G1 X158.785 Y125.203 E-0.14905
G1 F4800
G1 X157.046 Y123.463 E-0.58421
G1 E-1.55824 F1200.00000
G1 X154.175 Y121.295 F6000.000
G1 E2.50000 F1200.00000
G1 X158.084 Y125.204 E0.10195 F1920.000
G1 X157.383 Y125.206 E0.01293
G1 X136.490 Y104.313 E0.54481
G1 X137.215 Y104.336 E0.01338
G1 X150.675 Y117.795 E0.35097
G1 F4800
G1 X143.604 Y110.724 E-2.37500
G1 E-0.12500 F1200.00000
G1 X148.694 Y115.111 F6000.000
G1 E2.50000 F1200.00000
G1 X137.941 Y104.358 E0.28040 F1920.000
G1 X138.666 Y104.380 E0.01338
G1 X147.974 Y113.688 E0.24272
G1 F4800
G1 X140.903 Y106.617 E-2.37500
G1 E-0.12500 F1200.00000
G1 X147.492 Y112.503 F6000.000
G1 E2.50000 F1200.00000
G1 X139.392 Y104.403 E0.21124 F1920.000
G1 X140.117 Y104.425 E0.01338
G1 X147.164 Y111.472 E0.18377
G1 X146.944 Y110.549 E0.01749
G1 X140.842 Y104.447 E0.15912
G1 X141.521 Y104.423 E0.01253
G1 X146.783 Y109.685 E0.13720
G1 X146.674 Y108.873 E0.01510
G1 X142.165 Y104.364 E0.11759
G1 X142.808 Y104.304 E0.01191
G1 X146.628 Y108.124 E0.09961
G1 X146.582 Y107.374 E0.01384
G1 X143.451 Y104.244 E0.08162
G1 X144.095 Y104.185 E0.01191
G1 X146.613 Y106.703 E0.06566
G1 X146.654 Y106.040 E0.01223
G1 X144.738 Y104.125 E0.04994
G1 X145.382 Y104.066 E0.01191
G1 X146.694 Y105.378 E0.03423
G1 X146.804 Y104.785 E0.01113
G1 X146.025 Y104.006 E0.02031
G1 X146.668 Y103.946 E0.01191
G1 X146.915 Y104.192 E0.00642
G1 F4800
G1 X146.668 Y103.946 E-0.08266
G1 F4800
G1 X146.025 Y104.006 E-0.15346
G1 F4800
G1 X146.804 Y104.785 E-0.26158
G1 F4800
G1 X146.694 Y105.378 E-0.14335
G1 F4800
G1 X145.382 Y104.066 E-0.44091
G1 F4800
G1 X144.738 Y104.125 E-0.15346
G1 F4800
G1 X146.654 Y106.040 E-0.64330
G1 F4800
G1 X146.613 Y106.703 E-0.15757
G1 F4800
G1 X145.604 Y105.694 E-0.33872
G1 E-0.12500 F1200.00000
G1 X125.718 Y121.663 F6000.000
G1 E2.50000 F1200.00000
G1 X129.327 Y125.272 E0.09412 F1920.000
G1 X128.626 Y125.274 E0.01293
G1 X126.398 Y123.045 E0.05810
G1 F4800
G1 X128.626 Y125.274 E-0.74837
G1 F4800
G1 X129.327 Y125.272 E-0.16658
G1 F4800
G1 X125.718 Y121.663 E-1.21226
G1 E-0.37280 F1200.00000
G1 X126.821 Y124.172 F6000.000
G1 E2.50000 F1200.00000
G1 X127.925 Y125.275 E0.02877 F1920.000
G1 F4800
G1 X126.821 Y124.172 E-0.37058
G1 E-2.12942 F1200.00000
G1 X101.188 Y116.115 F6000.000
G1 E2.50000 F1200.00000
G1 X87.782 Y102.708 E0.34959 F1920.000
G1 X87.205 Y102.835 E0.01089
G1 X100.233 Y115.862 E0.33971
G1 X99.333 Y115.665 E0.01699
G1 X86.607 Y102.939 E0.33185
G1 X85.980 Y103.016 E0.01163
G1 X98.537 Y115.572 E0.32742
G1 X97.762 Y115.500 E0.01435
G1 X85.354 Y103.092 E0.32355
G1 X84.759 Y103.201 E0.01115
G1 X97.064 Y115.506 E0.32088
G1 X96.382 Y115.527 E0.01258
G1 X84.167 Y103.311 E0.31853
G1 X83.575 Y103.422 E0.01111
G1 X95.741 Y115.588 E0.31725
G1 X95.132 Y115.683 E0.01136
G1 X82.983 Y103.533 E0.31682
G1 X82.391 Y103.644 E0.01111
G1 X94.525 Y115.779 E0.31644
G1 X93.978 Y115.935 E0.01049
G1 X81.798 Y103.755 E0.31761
G1 X81.165 Y103.824 E0.01175
G1 X93.431 Y116.090 E0.31986
G1 X92.899 Y116.262 E0.01030
G1 X80.521 Y103.884 E0.32277
G1 X79.878 Y103.944 E0.01191
G1 X92.405 Y116.471 E0.32667
G1 X91.911 Y116.680 E0.00989
G1 X79.235 Y104.003 E0.33057
G1 X78.591 Y104.063 E0.01191
G1 X91.436 Y116.908 E0.33496
G1 X90.990 Y117.165 E0.00949
G1 X77.948 Y104.122 E0.34011
G1 X77.304 Y104.182 E0.01191
G1 X90.545 Y117.422 E0.34527
G1 X90.116 Y117.697 E0.00939
G1 X76.661 Y104.242 E0.35086
G1 X76.018 Y104.301 E0.01191
G1 X89.715 Y117.999 E0.35719
G1 X89.315 Y118.301 E0.00926
G1 X75.374 Y104.361 E0.36353
G1 X74.731 Y104.420 E0.01191
G1 X88.926 Y118.616 E0.37017
G1 X88.569 Y118.962 E0.00917
G1 X74.056 Y104.449 E0.37846
G1 X73.330 Y104.426 E0.01338
G1 X88.212 Y119.308 E0.38807
G1 X87.861 Y119.660 E0.00917
G1 X72.605 Y104.404 E0.39784
G1 X71.880 Y104.381 E0.01338
G1 X87.548 Y120.050 E0.40858
G1 X87.234 Y120.439 E0.00922
G1 X71.154 Y104.359 E0.41932
G1 X70.429 Y104.337 E0.01338
G1 X86.922 Y120.830 E0.43010
G1 X86.653 Y121.264 E0.00942
G1 X69.703 Y104.314 E0.44200
G1 X68.978 Y104.292 E0.01338
G1 X86.385 Y121.699 E0.45391
G1 X86.116 Y122.133 E0.00942
G1 X68.253 Y104.270 E0.46581
G1 X67.527 Y104.247 E0.01338
G1 X85.893 Y122.614 E0.47893
G1 X85.672 Y123.095 E0.00977
G1 X66.785 Y104.208 E0.49250
G1 X65.983 Y104.109 E0.01491
G1 X85.453 Y123.579 E0.50771
G1 X85.283 Y124.112 E0.01032
G1 X65.181 Y104.010 E0.52421
G1 X65.226 Y104.758 E0.01382
G1 X85.114 Y124.646 E0.51861
G1 X84.959 Y125.194 E0.01051
G1 X65.325 Y105.560 E0.51199
G1 X65.394 Y106.332 E0.01429
G1 X84.337 Y125.275 E0.49398
G1 X83.632 Y125.274 E0.01299
G1 X65.394 Y107.035 E0.47560
G1 X65.394 Y107.738 E0.01296
