; generated by Slic3r 1.2.9 on 2015-08-17 at 16:43:45

; external perimeters extrusion width = 0.55mm
; perimeters extrusion width = 0.55mm
; infill extrusion width = 0.55mm
; solid infill extrusion width = 0.55mm
; top infill extrusion width = 0.55mm

M201 X750 Y750 E100
G28 X10.0 Y10.0
G28 Z
G92 E0.0
G1 Y60.0 E2.0  F1000.0
G1 Y100.0 E4.5  F1000.0
G92 Z0.35
G92 E0.0
G21 ; set units to millimeters
G90 ; use absolute coordinates
M83 ; use relative distances for extrusion
M106 S255
G1 E-2.50000 F1200.00000
G1 Z0.250 F6000.000
G1 X89.414 Y96.475 F6000.000
G1 E2.50000 F1200.00000
G1 X90.383 Y95.606 E0.02428 F2400.000
G1 X91.407 Y94.849 E0.02374
G1 X92.489 Y94.194 E0.02357
G1 X93.612 Y93.652 E0.02326
G1 X94.786 Y93.219 E0.02332
G1 X95.990 Y92.901 E0.02322
G1 X97.210 Y92.703 E0.02304
G1 X98.163 Y92.629 E0.01783
G1 X99.411 Y92.641 E0.02327
G1 X100.663 Y92.770 E0.02347 F2400.000
G1 X100.952 Y92.818 E0.00544
G1 X101.918 Y93.024 E0.01843
G1 X102.870 Y93.297 E0.01846
G1 X103.783 Y93.631 E0.01813
G1 X104.992 Y94.192 E0.02484
G1 X106.152 Y94.867 E0.02503
G1 X125.392 Y108.850 E0.44345
G1 X126.363 Y110.042 E0.02867
G1 X126.629 Y111.280 E0.02360
G1 X126.629 Y116.374 E0.09498
G1 X126.236 Y117.861 E0.02867
G1 X125.159 Y118.958 E0.02867
G1 X123.624 Y119.380 E0.02968
G1 X98.766 Y119.380 E0.46346
G1 X97.335 Y119.306 E0.02673
G1 X96.346 Y119.168 E0.01861
G1 X95.122 Y118.894 E0.02339
G1 X94.847 Y118.816 E0.00532
G1 X93.665 Y118.404 E0.02334
G1 X92.789 Y118.013 E0.01789
G1 X91.698 Y117.407 E0.02326
G1 X90.680 Y116.708 E0.02303
G1 X90.450 Y116.529 E0.00544
G1 X89.516 Y115.709 E0.02317
G1 X88.661 Y114.801 E0.02326
G1 X88.057 Y114.039 E0.01813
G1 X87.353 Y112.980 E0.02371
G1 X86.869 Y112.101 E0.01870
G1 X86.464 Y111.232 E0.01788
G1 X86.024 Y110.042 E0.02365
G1 X85.691 Y108.816 E0.02369
G1 X85.634 Y108.546 E0.00514
G1 X85.441 Y107.288 E0.02372
G1 X85.377 Y106.323 E0.01803
G1 X85.397 Y105.095 E0.02290
G1 X85.536 Y103.853 E0.02330
G1 X85.797 Y102.630 E0.02331
G1 X86.170 Y101.449 E0.02309
G1 X86.658 Y100.298 E0.02331
G1 X86.786 Y100.039 E0.00539
G1 X87.406 Y98.954 E0.02329
G1 X88.112 Y97.941 E0.02303
G1 X88.723 Y97.201 E0.01788
G1 X89.371 Y96.518 E0.01757
G1 X89.724 Y96.875 F6000.000
G1 X90.686 Y96.007 E0.02415 F2400.000
G1 X91.672 Y95.276 E0.02288
G1 X92.712 Y94.644 E0.02269
G1 X93.792 Y94.122 E0.02236
G1 X94.919 Y93.703 E0.02243
G1 X96.076 Y93.397 E0.02230
G1 X97.249 Y93.204 E0.02216
G1 X98.202 Y93.130 E0.01783
G1 X99.401 Y93.144 E0.02235
G1 X100.847 Y93.309 E0.02713 F2400.000
G1 X101.813 Y93.516 E0.01843
G1 X102.727 Y93.779 E0.01772
G1 X103.802 Y94.184 E0.02142
G1 X104.777 Y94.646 E0.02012
G1 X105.894 Y95.299 E0.02413
G1 X125.096 Y109.256 E0.44259
G1 X125.953 Y110.364 E0.02612
G1 X126.127 Y111.280 E0.01737
G1 X126.127 Y116.374 E0.09498
G1 X125.735 Y117.719 E0.02612
G1 X124.682 Y118.643 E0.02612
G1 X123.624 Y118.877 E0.02019
G1 X98.766 Y118.877 E0.46346
G1 X97.404 Y118.808 E0.02543
G1 X96.415 Y118.670 E0.01861
G1 X95.236 Y118.405 E0.02253
G1 X93.870 Y117.945 E0.02688
G1 X92.994 Y117.554 E0.01789
G1 X91.947 Y116.971 E0.02234
G1 X90.777 Y116.148 E0.02667
G1 X89.878 Y115.361 E0.02227
G1 X89.055 Y114.488 E0.02237
G1 X88.451 Y113.726 E0.01813
G1 X87.775 Y112.706 E0.02283
G1 X87.312 Y111.863 E0.01793
G1 X86.921 Y111.023 E0.01728
G1 X86.497 Y109.872 E0.02287
G1 X86.130 Y108.464 E0.02711
G1 X85.942 Y107.255 E0.02281
G1 X85.879 Y106.290 E0.01803
G1 X85.899 Y105.108 E0.02204
G1 X86.035 Y103.915 E0.02240
G1 X86.287 Y102.741 E0.02238
G1 X86.647 Y101.606 E0.02220
G1 X87.119 Y100.500 E0.02242
G1 X87.820 Y99.238 E0.02691
G1 X88.502 Y98.258 E0.02226
G1 X89.090 Y97.545 E0.01724
G1 X89.682 Y96.917 E0.01608
G1 F4800
G1 X90.686 Y96.007 E-0.32187
G1 F4800
G1 X91.672 Y95.276 E-0.29147
G1 F4800
G1 X92.712 Y94.644 E-0.28905
G1 F4800
G1 X93.792 Y94.122 E-0.28484
G1 F4800
G1 X94.919 Y93.703 E-0.28566
G1 F4800
G1 X96.076 Y93.397 E-0.28411
G1 F4800
G1 X97.249 Y93.204 E-0.28228
G1 F4800
G1 X98.202 Y93.130 E-0.22712
G1 F4800
G1 X98.659 Y93.135 E-0.10861
G1 E-0.12500 F1200.00000
G1 X93.813 Y97.801 F6000.000
G1 E2.50000 F1200.00000
G1 X94.200 Y97.561 E0.00838 F1920.000
G1 X94.994 Y97.167 E0.01632
G1 X95.826 Y96.850 E0.01640
G1 X96.672 Y96.616 E0.01617
G1 X97.538 Y96.466 E0.01617
G1 X98.417 Y96.398 E0.01624
G1 X99.296 Y96.416 E0.01619
G1 X100.200 Y96.519 E0.01673 F1920.000
G1 X101.100 Y96.711 E0.01695
G1 X101.767 Y96.910 E0.01282
G1 X102.430 Y97.158 E0.01304
G1 X103.343 Y97.589 E0.01859
G1 X104.185 Y98.091 E0.01804
G1 X104.957 Y98.663 E0.01769
G1 X105.656 Y99.299 E0.01740
G1 X106.280 Y99.994 E0.01720
G1 X106.828 Y100.746 E0.01713
G1 X107.297 Y101.551 E0.01714
G1 X107.683 Y102.405 E0.01726
G1 X107.987 Y103.303 E0.01746
G1 X108.204 Y104.261 E0.01808
G1 X108.779 Y107.477 E0.06015
G1 X109.128 Y108.582 E0.02134
G1 X109.489 Y109.441 E0.01715
G1 X109.827 Y110.062 E0.01301
G1 X110.222 Y110.626 E0.01268
G1 X110.532 Y110.981 E0.00868
G1 X110.877 Y111.299 E0.00864
G1 X111.263 Y111.574 E0.00871
G1 X111.692 Y111.797 E0.00891
G1 X112.172 Y111.959 E0.00934
G1 X112.875 Y112.051 E0.01304
G1 X122.853 Y112.051 E0.18370
G1 X122.853 Y115.603 E0.06539
G1 X98.783 Y115.603 E0.44313
G1 X97.820 Y115.560 E0.01776
G1 X96.902 Y115.432 E0.01706
G1 X96.018 Y115.225 E0.01670
G1 X95.171 Y114.940 E0.01646
G1 X94.363 Y114.579 E0.01629
G1 X93.600 Y114.144 E0.01617
G1 X92.882 Y113.640 E0.01616
G1 X92.213 Y113.065 E0.01623
G1 X91.598 Y112.425 E0.01635
G1 X91.039 Y111.720 E0.01656
G1 X90.537 Y110.949 E0.01695
G1 X90.207 Y110.334 E0.01285
G1 X89.911 Y109.689 E0.01306
G1 X89.588 Y108.794 E0.01752
G1 X89.354 Y107.897 E0.01707
G1 X89.207 Y107.002 E0.01670
G1 X89.148 Y106.110 E0.01646
G1 X89.171 Y105.231 E0.01618
G1 X89.279 Y104.354 E0.01627
G1 X89.473 Y103.497 E0.01617
G1 X89.747 Y102.660 E0.01621
G1 X90.103 Y101.845 E0.01638
G1 X90.541 Y101.060 E0.01656
G1 X91.062 Y100.299 E0.01697
G1 X91.501 Y99.760 E0.01279
G1 X91.986 Y99.241 E0.01308
G1 X92.689 Y98.598 E0.01754
G1 X93.427 Y98.040 E0.01703
G1 X93.762 Y97.832 E0.00726
G1 X93.500 Y97.411 F6000.000
G1 X93.958 Y97.127 E0.00992 F1920.000
G1 X94.795 Y96.712 E0.01718
G1 X95.671 Y96.377 E0.01727
G1 X96.564 Y96.131 E0.01705
G1 X97.476 Y95.973 E0.01705
G1 X98.403 Y95.901 E0.01712
G1 X99.330 Y95.920 E0.01706
G1 X100.280 Y96.028 E0.01760 F1920.000
G1 X101.223 Y96.230 E0.01776
G1 X101.925 Y96.439 E0.01349
G1 X102.624 Y96.700 E0.01373
G1 X103.577 Y97.151 E0.01941
G1 X104.460 Y97.678 E0.01893
G1 X105.272 Y98.279 E0.01860
G1 X106.009 Y98.949 E0.01832
G1 X106.666 Y99.681 E0.01813
G1 X107.244 Y100.475 E0.01806
G1 X107.738 Y101.323 E0.01808
G1 X108.145 Y102.223 E0.01818
G1 X108.465 Y103.168 E0.01838
G1 X108.691 Y104.162 E0.01876
G1 X109.262 Y107.358 E0.05976
G1 X109.595 Y108.411 E0.02033
G1 X109.937 Y109.226 E0.01628
G1 X110.250 Y109.800 E0.01204
G1 X110.613 Y110.320 E0.01168
G1 X110.888 Y110.634 E0.00769
G1 X111.190 Y110.913 E0.00757
G1 X111.522 Y111.149 E0.00750
G1 X111.887 Y111.339 E0.00757
G1 X112.285 Y111.474 E0.00774
G1 X112.907 Y111.555 E0.01155
G1 X123.349 Y111.555 E0.19224
G1 X123.349 Y116.099 E0.08367
G1 X98.772 Y116.099 E0.45247
G1 X97.774 Y116.055 E0.01840
G1 X96.811 Y115.921 E0.01791
G1 X95.882 Y115.703 E0.01755
G1 X94.991 Y115.403 E0.01732
G1 X94.139 Y115.023 E0.01718
G1 X93.334 Y114.564 E0.01705
G1 X92.577 Y114.032 E0.01704
G1 X91.872 Y113.426 E0.01711
G1 X91.224 Y112.752 E0.01722
G1 X90.636 Y112.011 E0.01743
G1 X90.110 Y111.202 E0.01776
G1 X89.762 Y110.555 E0.01352
G1 X89.452 Y109.877 E0.01373
G1 X89.114 Y108.941 E0.01832
G1 X88.868 Y108.000 E0.01790
G1 X88.713 Y107.059 E0.01756
G1 X88.651 Y106.120 E0.01733
G1 X88.675 Y105.194 E0.01704
G1 X88.790 Y104.269 E0.01717
G1 X88.994 Y103.365 E0.01706
G1 X89.283 Y102.483 E0.01708
G1 X89.658 Y101.625 E0.01726
G1 X90.119 Y100.798 E0.01742
G1 X90.664 Y100.002 E0.01776
G1 X91.126 Y99.434 E0.01348
G1 X91.636 Y98.888 E0.01375
G1 X92.371 Y98.216 E0.01833
G1 X93.146 Y97.630 E0.01788
G1 X93.449 Y97.442 E0.00658
G1 X93.853 Y97.600 F6000.000
G1 F4800
G1 X93.958 Y97.127 E-0.14219
G1 F4800
G1 X94.795 Y96.712 E-0.22169
G1 F4800
G1 X95.671 Y96.377 E-0.22285
G1 F4800
G1 X96.564 Y96.131 E-0.21992
G1 F4800
G1 X97.476 Y95.973 E-0.21991
G1 F4800
G1 X98.403 Y95.901 E-0.22082
G1 F4800
G1 X99.330 Y95.920 E-0.22014
G1 E-1.03250 F1200.00000
G1 X96.210 Y97.093 F6000.000
G1 E2.50000 F1200.00000
G1 X109.549 Y110.432 E0.35331 F1920.000
G1 F4800
G1 X102.478 Y103.360 E-2.37500
G1 E-0.12500 F1200.00000
G1 X108.880 Y109.048 F6000.000
G1 E2.50000 F1200.00000
G1 X96.778 Y96.947 E0.32053 F1920.000
G1 X97.387 Y96.842 E0.01157
G1 X108.519 Y107.973 E0.29485
G1 X108.316 Y107.057 E0.01758
G1 X98.040 Y96.781 E0.27218
G1 X98.741 Y96.768 E0.01313
G1 X108.161 Y106.187 E0.24950
G1 X108.006 Y105.318 E0.01654
G1 X99.503 Y96.816 E0.22521
G1 X100.346 Y96.944 E0.01596
G1 X107.850 Y104.448 E0.19876
G1 X107.638 Y103.522 E0.01778
G1 X101.299 Y97.183 E0.16792
G1 F4800
G1 X107.638 Y103.522 E-2.12933
G1 F4800
G1 X107.850 Y104.448 E-0.22544
G1 F4800
G1 X107.789 Y104.388 E-0.02023
G1 E-0.12500 F1200.00000
G1 X102.464 Y97.634 F6000.000
G1 E2.50000 F1200.00000
G1 X107.224 Y102.394 E0.12607 F1920.000
G1 F4800
G1 X102.464 Y97.634 E-1.59865
G1 E-0.90135 F1200.00000
G1 X106.251 Y100.707 F6000.000
G1 E2.50000 F1200.00000
G1 X104.199 Y98.655 E0.05434 F1920.000
G1 F4800
G1 X106.251 Y100.707 E-0.68905
G1 E-1.81095 F1200.00000
G1 X111.061 Y111.944 F6000.000
G1 E2.50000 F1200.00000
G1 X114.359 Y115.242 E0.08735 F1920.000
G1 X113.645 Y115.242 E0.01337
G1 X95.667 Y97.264 E0.47619
G1 X95.150 Y97.461 E0.01036
G1 X112.931 Y115.242 E0.47097
G1 X112.217 Y115.242 E0.01337
G1 X94.667 Y97.692 E0.46485
G1 X94.200 Y97.939 E0.00990
G1 X111.503 Y115.242 E0.45831
G1 X110.788 Y115.242 E0.01337
G1 X93.759 Y98.212 E0.45107
G1 X93.339 Y98.506 E0.00960
G1 X110.074 Y115.242 E0.44329
G1 X109.360 Y115.242 E0.01337
G1 X92.932 Y98.814 E0.43515
G1 X92.555 Y99.151 E0.00947
G1 X108.646 Y115.242 E0.42622
G1 X107.932 Y115.242 E0.01337
G1 X92.197 Y99.507 E0.41678
G1 X91.840 Y99.864 E0.00946
G1 X107.218 Y115.242 E0.40732
G1 X106.504 Y115.242 E0.01337
G1 X91.512 Y100.250 E0.39709
G1 X91.205 Y100.657 E0.00955
G1 X105.790 Y115.242 E0.38631
G1 X105.076 Y115.242 E0.01337
G1 X90.915 Y101.081 E0.37509
G1 X90.649 Y101.530 E0.00976
G1 X104.361 Y115.242 E0.36320
G1 X103.647 Y115.242 E0.01337
G1 X90.397 Y101.992 E0.35097
G1 X90.180 Y102.489 E0.01016
G1 X102.933 Y115.242 E0.33781
G1 X102.219 Y115.242 E0.01337
G1 X89.984 Y103.007 E0.32407
G1 X89.811 Y103.547 E0.01063
G1 X101.505 Y115.242 E0.30976
G1 X100.791 Y115.242 E0.01337
G1 X89.679 Y104.130 E0.29433
G1 X89.582 Y104.748 E0.01171
G1 X100.077 Y115.242 E0.27797
G1 X99.363 Y115.242 E0.01337
G1 X89.525 Y105.404 E0.26058
G1 X89.517 Y106.110 E0.01323
G1 X98.637 Y115.230 E0.24156
G1 X97.881 Y115.188 E0.01418
G1 X89.571 Y106.879 E0.22010
G1 X89.718 Y107.739 E0.01634
G1 X97.046 Y115.068 E0.19412
G1 X96.092 Y114.828 E0.01842
G1 X89.994 Y108.729 E0.16154
G1 F4800
G1 X96.092 Y114.828 E-2.04835
G1 F4800
G1 X97.046 Y115.068 E-0.23358
G1 F4800
G1 X96.769 Y114.791 E-0.09307
G1 E-0.12500 F1200.00000
G1 X90.476 Y109.925 F6000.000
G1 E2.50000 F1200.00000
G1 X94.930 Y114.380 E0.11799 F1920.000
G1 F4800
G1 X90.476 Y109.925 E-1.49617
G1 E-1.00383 F1200.00000
G1 X92.840 Y113.003 F6000.000
G1 E2.50000 F1200.00000
G1 X91.826 Y111.990 E0.02684 F1920.000
G1 F4800
G1 X92.840 Y113.003 E-0.34036
G1 E-2.15964 F1200.00000
G1 X112.169 Y112.338 F6000.000
G1 E2.50000 F1200.00000
G1 X115.073 Y115.242 E0.07692 F1920.000
G1 X115.787 Y115.242 E0.01337
G1 X112.958 Y112.412 E0.07495
G1 X113.672 Y112.412 E0.01337
G1 X116.501 Y115.242 E0.07495
G1 X117.215 Y115.242 E0.01337
G1 X114.386 Y112.412 E0.07495
G1 X115.100 Y112.412 E0.01337
G1 X117.929 Y115.242 E0.07495
G1 X118.644 Y115.242 E0.01337
G1 X115.814 Y112.412 E0.07495
G1 X116.528 Y112.412 E0.01337
G1 X119.358 Y115.242 E0.07495
G1 X120.072 Y115.242 E0.01337
G1 X117.242 Y112.412 E0.07495
G1 X117.956 Y112.412 E0.01337
G1 X120.786 Y115.242 E0.07495
G1 X121.500 Y115.242 E0.01337
G1 X118.671 Y112.412 E0.07495
G1 X119.385 Y112.412 E0.01337
G1 X122.214 Y115.242 E0.07495
G1 X122.492 Y114.805 E0.00969
G1 X120.099 Y112.412 E0.06338
G1 X120.813 Y112.412 E0.01337
G1 X122.492 Y114.091 E0.04447
G1 X122.492 Y113.377 E0.01337
G1 X121.527 Y112.412 E0.02555
G1 X122.241 Y112.412 E0.01337
G1 X122.492 Y112.663 E0.00664
M104 S285 ; set temperature
M140 S100 ; wait for bed temperature to be reached
G1 F4800
G1 X122.241 Y112.412 E-0.08417
G1 F4800
G1 X121.527 Y112.412 E-0.16960
G1 F4800
G1 X122.492 Y113.377 E-0.32402
G1 F4800
G1 X122.492 Y114.091 E-0.16960
G1 F4800
G1 X120.813 Y112.412 E-0.56387
G1 F4800
G1 X120.099 Y112.412 E-0.16960
G1 F4800
G1 X122.492 Y114.805 E-0.80372
G1 F4800
G1 X122.287 Y115.127 E-0.09043
G1 E-0.12500 F1200.00000
G1 Z0.450 F6000.000
G1 X89.290 Y104.355 F6000.000
G1 E2.50000 F1200.00000
G1 X89.483 Y103.500 E0.01320 F2400.000
G1 X89.757 Y102.664 E0.01323
G1 X90.113 Y101.850 E0.01337
G1 X90.551 Y101.065 E0.01352
G1 X91.071 Y100.306 E0.01385
G1 X91.509 Y99.767 E0.01044
G1 X91.993 Y99.249 E0.01068
G1 X92.695 Y98.606 E0.01432
G1 X93.433 Y98.049 E0.01391
G1 X94.205 Y97.570 E0.01367
G1 X94.987 Y97.183 E0.01313
G1 X95.830 Y96.860 E0.01359
G1 X96.675 Y96.626 E0.01319
G1 X97.539 Y96.476 E0.01320
G1 X98.417 Y96.408 E0.01325
G1 X99.283 Y96.427 E0.01303
G1 X100.198 Y96.529 E0.01386 F2400.000
G1 X101.097 Y96.721 E0.01383
G1 X101.764 Y96.920 E0.01046
G1 X102.426 Y97.167 E0.01064
G1 X103.338 Y97.599 E0.01518
G1 X104.179 Y98.100 E0.01473
G1 X104.950 Y98.671 E0.01444
G1 X105.648 Y99.306 E0.01421
G1 X106.272 Y100.001 E0.01404
G1 X106.819 Y100.752 E0.01399
G1 X107.287 Y101.556 E0.01399
G1 X107.673 Y102.409 E0.01409
G1 X107.976 Y103.306 E0.01425
G1 X108.193 Y104.263 E0.01476
G1 X108.768 Y107.479 E0.04916
G1 X109.118 Y108.586 E0.01746
G1 X109.480 Y109.446 E0.01404
G1 X109.818 Y110.067 E0.01065
G1 X110.213 Y110.633 E0.01038
G1 X110.524 Y110.989 E0.00711
G1 X110.870 Y111.308 E0.00708
G1 X111.257 Y111.583 E0.00714
G1 X111.687 Y111.807 E0.00730
G1 X112.170 Y111.970 E0.00766
G1 X112.874 Y112.062 E0.01069
G1 X122.842 Y112.062 E0.14999
G1 X122.842 Y115.592 E0.05312
G1 X98.784 Y115.592 E0.36200
G1 X97.820 Y115.549 E0.01451
G1 X96.904 Y115.422 E0.01393
G1 X96.021 Y115.215 E0.01363
G1 X95.175 Y114.930 E0.01343
G1 X94.368 Y114.570 E0.01330
G1 X93.606 Y114.135 E0.01320
G1 X92.889 Y113.631 E0.01319
G1 X92.221 Y113.058 E0.01325
G1 X91.606 Y112.418 E0.01335
G1 X91.048 Y111.714 E0.01352
G1 X90.547 Y110.943 E0.01384
G1 X90.216 Y110.329 E0.01049
G1 X89.921 Y109.685 E0.01066
G1 X89.599 Y108.790 E0.01431
G1 X89.365 Y107.894 E0.01393
G1 X89.218 Y107.001 E0.01363
G1 X89.159 Y106.109 E0.01344
G1 X89.181 Y105.245 E0.01302
G1 X89.283 Y104.415 E0.01258
G1 X88.780 Y104.353 F6000.000
G1 X88.994 Y103.365 E0.01522 F2400.000
G1 X89.283 Y102.483 E0.01396
G1 X89.658 Y101.625 E0.01410
G1 X90.119 Y100.798 E0.01424
G1 X90.664 Y100.002 E0.01452
G1 X91.126 Y99.434 E0.01102
G1 X91.636 Y98.888 E0.01124
G1 X92.371 Y98.216 E0.01498
G1 X93.146 Y97.630 E0.01462
G1 X93.958 Y97.127 E0.01438
G1 X94.783 Y96.718 E0.01385
G1 X95.671 Y96.377 E0.01432
G1 X96.564 Y96.131 E0.01393
G1 X97.476 Y95.973 E0.01393
G1 X98.403 Y95.901 E0.01399
G1 X99.317 Y95.920 E0.01375
G1 X100.280 Y96.028 E0.01458 F2400.000
G1 X101.223 Y96.230 E0.01451
G1 X101.925 Y96.439 E0.01103
G1 X102.624 Y96.700 E0.01122
G1 X103.577 Y97.151 E0.01586
G1 X104.460 Y97.678 E0.01548
G1 X105.272 Y98.279 E0.01520
G1 X106.009 Y98.949 E0.01498
G1 X106.666 Y99.681 E0.01482
G1 X107.244 Y100.475 E0.01476
G1 X107.738 Y101.323 E0.01478
G1 X108.145 Y102.223 E0.01486
G1 X108.465 Y103.168 E0.01502
G1 X108.691 Y104.162 E0.01533
G1 X109.262 Y107.358 E0.04884
G1 X109.595 Y108.411 E0.01662
G1 X109.937 Y109.226 E0.01330
G1 X110.250 Y109.800 E0.00984
G1 X110.613 Y110.320 E0.00954
G1 X110.888 Y110.634 E0.00628
G1 X111.190 Y110.913 E0.00619
G1 X111.522 Y111.149 E0.00613
G1 X111.887 Y111.339 E0.00619
G1 X112.285 Y111.474 E0.00632
G1 X112.907 Y111.555 E0.00944
G1 X123.349 Y111.555 E0.15712
G1 X123.349 Y116.099 E0.06838
G1 X98.772 Y116.099 E0.36980
G1 X97.774 Y116.055 E0.01503
G1 X96.811 Y115.921 E0.01464
G1 X95.882 Y115.703 E0.01435
G1 X94.991 Y115.403 E0.01416
G1 X94.139 Y115.023 E0.01404
