; generated by Slic3r 1.2.9 on 2015-08-17 at 16:43:34

; external perimeters extrusion width = 0.55mm
; perimeters extrusion width = 0.55mm
; infill extrusion width = 0.55mm
; solid infill extrusion width = 0.55mm
; top infill extrusion width = 0.55mm

M201 X750 Y750 E100
G28 X10.0 Y10.0
G28 Z
G92 E0.0
G1 Y60.0 E2.0  F1000.0
G1 Y100.0 E4.5  F1000.0
G92 Z0.35
G92 E0.0
G21 ; set units to millimeters
G90 ; use absolute coordinates
M83 ; use relative distances for extrusion
G1 E-2.50000 F1200.00000
G1 Z0.250 F6000.000
G1 X59.192 Y93.980 F6000.000
G1 E2.50000 F1200.00000
G1 X60.249 Y93.746 E0.02019 F2400.000
G1 X151.751 Y93.746 E1.70600
G1 X153.096 Y94.138 E0.02612
G1 X154.019 Y95.191 E0.02612 F2400.000
G1 X154.253 Y96.249 E0.02019
G1 X154.253 Y115.751 E0.36362
G1 X153.861 Y117.096 E0.02612
G1 X152.808 Y118.020 E0.02612
G1 X151.751 Y118.254 E0.02019
G1 X60.249 Y118.254 E1.70600
G1 X58.904 Y117.862 E0.02612
G1 X57.981 Y116.809 E0.02612
G1 X57.747 Y115.751 E0.02019
G1 X57.747 Y96.249 E0.36362
G1 X58.139 Y94.904 E0.02612
G1 X59.147 Y94.020 E0.02500
G1 F4800
G1 X60.249 Y93.746 E-0.26981
G1 F4800
G1 X69.113 Y93.746 E-2.10519
G1 E-0.12500 F1200.00000
G1 X61.976 Y114.980 F6000.000
G1 E2.50000 F1200.00000
G1 X61.021 Y114.980 E0.01759 F1920.000
G1 X61.021 Y97.020 E0.33066
G1 X150.979 Y97.020 E1.65620
G1 X150.979 Y114.980 E0.33066
G1 X62.036 Y114.980 E1.63750 F1920.000
G1 X62.036 Y115.476 F6000.000
G1 X60.524 Y115.476 E0.02783 F1920.000
G1 X60.524 Y96.524 E0.34894
G1 X151.476 Y96.524 E1.67447
G1 X151.476 Y115.476 E0.34894
G1 X62.096 Y115.476 E1.64553 F1920.000
G1 X61.836 Y115.130 F6000.000
G1 F4800
G1 X60.524 Y115.476 E-0.37332
G1 F4800
G1 X60.524 Y107.048 E-2.00168
G1 E-0.12500 F1200.00000
G1 X61.382 Y114.369 F6000.000
G1 E2.50000 F1200.00000
G1 X61.632 Y114.619 E0.00656 F1920.000
G1 X62.339 Y114.619 E0.01309
G1 X61.382 Y113.662 E0.02508
G1 X61.382 Y112.956 E0.01309
G1 X63.045 Y114.619 E0.04359
G1 X63.752 Y114.619 E0.01309
G1 X61.382 Y112.249 E0.06210
G1 X61.382 Y111.543 E0.01309
G1 X64.458 Y114.619 E0.08062
G1 X65.165 Y114.619 E0.01309
G1 X61.382 Y110.836 E0.09913
G1 X61.382 Y110.130 E0.01309
G1 X65.871 Y114.619 E0.11765
G1 X66.578 Y114.619 E0.01309
G1 X61.382 Y109.423 E0.13616
G1 X61.382 Y108.717 E0.01309
G1 X67.284 Y114.619 E0.15467
G1 X67.991 Y114.619 E0.01309
G1 X61.382 Y108.010 E0.17319
G1 X61.382 Y107.304 E0.01309
G1 X68.697 Y114.619 E0.19170
G1 X69.404 Y114.619 E0.01309
G1 X61.382 Y106.597 E0.21021
G1 X61.382 Y105.891 E0.01309
G1 X70.110 Y114.619 E0.22873
G1 X70.817 Y114.619 E0.01309
G1 X61.382 Y105.184 E0.24724
G1 X61.382 Y104.478 E0.01309
G1 X71.523 Y114.619 E0.26576
G1 X72.230 Y114.619 E0.01309
G1 X61.382 Y103.771 E0.28427
G1 X61.382 Y103.065 E0.01309
G1 X72.936 Y114.619 E0.30278
G1 X73.643 Y114.619 E0.01309
G1 X61.382 Y102.358 E0.32130
G1 X61.382 Y101.652 E0.01309
G1 X74.349 Y114.619 E0.33981
G1 X75.056 Y114.619 E0.01309
G1 X61.382 Y100.945 E0.35832
G1 X61.382 Y100.239 E0.01309
G1 X75.762 Y114.619 E0.37684
G1 X76.468 Y114.619 E0.01309
G1 X61.382 Y99.532 E0.39535
G1 X61.382 Y98.826 E0.01309
G1 X77.175 Y114.619 E0.41386
G1 X77.881 Y114.619 E0.01309
G1 X61.382 Y98.119 E0.43238
G1 X61.386 Y97.417 E0.01302
G1 X78.588 Y114.619 E0.45079
G1 X79.294 Y114.619 E0.01309
G1 X62.056 Y97.381 E0.45173
G1 X62.763 Y97.381 E0.01309
G1 X80.001 Y114.619 E0.45173
G1 X80.707 Y114.619 E0.01309
G1 X63.469 Y97.381 E0.45173
G1 X64.176 Y97.381 E0.01309
G1 X81.414 Y114.619 E0.45173
G1 X82.120 Y114.619 E0.01309
G1 X64.882 Y97.381 E0.45173
G1 X65.589 Y97.381 E0.01309
G1 X82.827 Y114.619 E0.45173
G1 X83.533 Y114.619 E0.01309
G1 X66.295 Y97.381 E0.45173
G1 X67.002 Y97.381 E0.01309
G1 X84.240 Y114.619 E0.45173
G1 X84.946 Y114.619 E0.01309
G1 X67.708 Y97.381 E0.45173
G1 X68.415 Y97.381 E0.01309
G1 X85.653 Y114.619 E0.45173
G1 X86.359 Y114.619 E0.01309
G1 X69.121 Y97.381 E0.45173
G1 X69.828 Y97.381 E0.01309
G1 X87.066 Y114.619 E0.45173
G1 X87.772 Y114.619 E0.01309
G1 X70.534 Y97.381 E0.45173
G1 X71.241 Y97.381 E0.01309
G1 X88.479 Y114.619 E0.45173
G1 X89.185 Y114.619 E0.01309
G1 X71.947 Y97.381 E0.45173
G1 X72.654 Y97.381 E0.01309
G1 X89.892 Y114.619 E0.45173
G1 X90.598 Y114.619 E0.01309
G1 X73.360 Y97.381 E0.45173
G1 X74.067 Y97.381 E0.01309
G1 X91.305 Y114.619 E0.45173
G1 X92.011 Y114.619 E0.01309
G1 X74.773 Y97.381 E0.45173
G1 X75.480 Y97.381 E0.01309
G1 X92.718 Y114.619 E0.45173
G1 X93.424 Y114.619 E0.01309
G1 X76.186 Y97.381 E0.45173
G1 X76.893 Y97.381 E0.01309
G1 X94.131 Y114.619 E0.45173
G1 X94.837 Y114.619 E0.01309
G1 X77.599 Y97.381 E0.45173
G1 X78.306 Y97.381 E0.01309
G1 X95.544 Y114.619 E0.45173
G1 X96.250 Y114.619 E0.01309
G1 X79.012 Y97.381 E0.45173
G1 X79.719 Y97.381 E0.01309
G1 X96.957 Y114.619 E0.45173
G1 X97.663 Y114.619 E0.01309
G1 X80.425 Y97.381 E0.45173
G1 X81.132 Y97.381 E0.01309
G1 X98.370 Y114.619 E0.45173
G1 X99.076 Y114.619 E0.01309
G1 X81.838 Y97.381 E0.45173
G1 X82.545 Y97.381 E0.01309
G1 X99.783 Y114.619 E0.45173
G1 X100.489 Y114.619 E0.01309
G1 X83.251 Y97.381 E0.45173
G1 X83.958 Y97.381 E0.01309
G1 X101.196 Y114.619 E0.45173
G1 X101.902 Y114.619 E0.01309
G1 X84.664 Y97.381 E0.45173
G1 X85.371 Y97.381 E0.01309
G1 X102.609 Y114.619 E0.45173
G1 X103.315 Y114.619 E0.01309
G1 X86.077 Y97.381 E0.45173
G1 X86.784 Y97.381 E0.01309
G1 X104.022 Y114.619 E0.45173
G1 X104.728 Y114.619 E0.01309
G1 X87.490 Y97.381 E0.45173
G1 X88.197 Y97.381 E0.01309
G1 X105.435 Y114.619 E0.45173
G1 X106.141 Y114.619 E0.01309
G1 X88.903 Y97.381 E0.45173
G1 X89.610 Y97.381 E0.01309
G1 X106.848 Y114.619 E0.45173
G1 X107.554 Y114.619 E0.01309
G1 X90.316 Y97.381 E0.45173
G1 X91.022 Y97.381 E0.01309
G1 X108.261 Y114.619 E0.45173
G1 X108.967 Y114.619 E0.01309
G1 X91.729 Y97.381 E0.45173
G1 X92.435 Y97.381 E0.01309
G1 X109.674 Y114.619 E0.45173
G1 X110.380 Y114.619 E0.01309
G1 X93.142 Y97.381 E0.45173
G1 X93.848 Y97.381 E0.01309
G1 X111.087 Y114.619 E0.45173
G1 X111.793 Y114.619 E0.01309
G1 X94.555 Y97.381 E0.45173
G1 X95.261 Y97.381 E0.01309
G1 X112.500 Y114.619 E0.45173
G1 X113.206 Y114.619 E0.01309
G1 X95.968 Y97.381 E0.45173
G1 X96.674 Y97.381 E0.01309
G1 X113.912 Y114.619 E0.45173
G1 X114.619 Y114.619 E0.01309
G1 X97.381 Y97.381 E0.45173
G1 X98.087 Y97.381 E0.01309
G1 X115.325 Y114.619 E0.45173
G1 X116.032 Y114.619 E0.01309
G1 X98.794 Y97.381 E0.45173
G1 X99.500 Y97.381 E0.01309
G1 X116.738 Y114.619 E0.45173
G1 X117.445 Y114.619 E0.01309
G1 X100.207 Y97.381 E0.45173
G1 X100.913 Y97.381 E0.01309
G1 X118.151 Y114.619 E0.45173
G1 X118.858 Y114.619 E0.01309
G1 X101.620 Y97.381 E0.45173
G1 X102.326 Y97.381 E0.01309
G1 X119.564 Y114.619 E0.45173
G1 X120.271 Y114.619 E0.01309
G1 X103.033 Y97.381 E0.45173
G1 X103.739 Y97.381 E0.01309
G1 X120.977 Y114.619 E0.45173
G1 X121.684 Y114.619 E0.01309
G1 X104.446 Y97.381 E0.45173
G1 X105.152 Y97.381 E0.01309
G1 X122.390 Y114.619 E0.45173
G1 X123.097 Y114.619 E0.01309
G1 X105.859 Y97.381 E0.45173
G1 X106.565 Y97.381 E0.01309
G1 X123.803 Y114.619 E0.45173
G1 X124.510 Y114.619 E0.01309
G1 X107.272 Y97.381 E0.45173
G1 X107.978 Y97.381 E0.01309
G1 X125.216 Y114.619 E0.45173
G1 X125.923 Y114.619 E0.01309
G1 X108.685 Y97.381 E0.45173
G1 X109.391 Y97.381 E0.01309
G1 X126.629 Y114.619 E0.45173
G1 X127.336 Y114.619 E0.01309
G1 X110.098 Y97.381 E0.45173
G1 X110.804 Y97.381 E0.01309
G1 X128.042 Y114.619 E0.45173
G1 X128.749 Y114.619 E0.01309
G1 X111.511 Y97.381 E0.45173
G1 X112.217 Y97.381 E0.01309
G1 X129.455 Y114.619 E0.45173
G1 X130.162 Y114.619 E0.01309
G1 X112.924 Y97.381 E0.45173
G1 X113.630 Y97.381 E0.01309
G1 X130.868 Y114.619 E0.45173
G1 X131.575 Y114.619 E0.01309
G1 X114.337 Y97.381 E0.45173
G1 X115.043 Y97.381 E0.01309
G1 X132.281 Y114.619 E0.45173
G1 X132.988 Y114.619 E0.01309
G1 X115.750 Y97.381 E0.45173
G1 X116.456 Y97.381 E0.01309
G1 X133.694 Y114.619 E0.45173
G1 X134.401 Y114.619 E0.01309
G1 X117.163 Y97.381 E0.45173
G1 X117.869 Y97.381 E0.01309
G1 X135.107 Y114.619 E0.45173
G1 X135.814 Y114.619 E0.01309
G1 X118.576 Y97.381 E0.45173
G1 X119.282 Y97.381 E0.01309
G1 X136.520 Y114.619 E0.45173
G1 X137.227 Y114.619 E0.01309
G1 X119.989 Y97.381 E0.45173
G1 X120.695 Y97.381 E0.01309
G1 X137.933 Y114.619 E0.45173
G1 X138.640 Y114.619 E0.01309
G1 X121.402 Y97.381 E0.45173
G1 X122.108 Y97.381 E0.01309
G1 X139.346 Y114.619 E0.45173
G1 X140.053 Y114.619 E0.01309
G1 X122.815 Y97.381 E0.45173
G1 X123.521 Y97.381 E0.01309
G1 X140.759 Y114.619 E0.45173
G1 X141.466 Y114.619 E0.01309
G1 X124.228 Y97.381 E0.45173
G1 X124.934 Y97.381 E0.01309
G1 X142.172 Y114.619 E0.45173
G1 X142.879 Y114.619 E0.01309
G1 X125.641 Y97.381 E0.45173
G1 X126.347 Y97.381 E0.01309
G1 X143.585 Y114.619 E0.45173
G1 X144.292 Y114.619 E0.01309
G1 X127.054 Y97.381 E0.45173
G1 X127.760 Y97.381 E0.01309
G1 X144.998 Y114.619 E0.45173
G1 X145.705 Y114.619 E0.01309
G1 X128.466 Y97.381 E0.45173
G1 X129.173 Y97.381 E0.01309
G1 X146.411 Y114.619 E0.45173
G1 X147.118 Y114.619 E0.01309
G1 X129.879 Y97.381 E0.45173
G1 X130.586 Y97.381 E0.01309
G1 X147.824 Y114.619 E0.45173
G1 X148.531 Y114.619 E0.01309
G1 X131.292 Y97.381 E0.45173
G1 X131.999 Y97.381 E0.01309
G1 X149.237 Y114.619 E0.45173
G1 X149.944 Y114.619 E0.01309
G1 X132.705 Y97.381 E0.45173
G1 X133.412 Y97.381 E0.01309
G1 X150.614 Y114.583 E0.45079
G1 X150.618 Y113.881 E0.01301
G1 X134.118 Y97.381 E0.43238
G1 X134.825 Y97.381 E0.01309
G1 X150.618 Y113.174 E0.41387
G1 X150.618 Y112.468 E0.01309
G1 X135.531 Y97.381 E0.39535
G1 X136.238 Y97.381 E0.01309
G1 X150.618 Y111.761 E0.37684
G1 X150.618 Y111.055 E0.01309
G1 X136.944 Y97.381 E0.35833
G1 X137.651 Y97.381 E0.01309
G1 X150.618 Y110.348 E0.33981
G1 X150.618 Y109.642 E0.01309
G1 X138.357 Y97.381 E0.32130
G1 X139.064 Y97.381 E0.01309
G1 X150.618 Y108.935 E0.30279
G1 X150.618 Y108.229 E0.01309
G1 X139.770 Y97.381 E0.28427
G1 X140.477 Y97.381 E0.01309
G1 X150.618 Y107.522 E0.26576
G1 X150.618 Y106.816 E0.01309
G1 X141.183 Y97.381 E0.24724
G1 X141.890 Y97.381 E0.01309
G1 X150.618 Y106.109 E0.22873
G1 X150.618 Y105.403 E0.01309
G1 X142.596 Y97.381 E0.21022
G1 X143.303 Y97.381 E0.01309
G1 X150.618 Y104.696 E0.19170
G1 X150.618 Y103.990 E0.01309
G1 X144.009 Y97.381 E0.17319
G1 X144.716 Y97.381 E0.01309
G1 X150.618 Y103.283 E0.15468
G1 X150.618 Y102.577 E0.01309
G1 X145.422 Y97.381 E0.13616
G1 X146.129 Y97.381 E0.01309
G1 X150.618 Y101.870 E0.11765
G1 X150.618 Y101.164 E0.01309
G1 X146.835 Y97.381 E0.09914
G1 X147.542 Y97.381 E0.01309
G1 X150.618 Y100.458 E0.08062
G1 X150.618 Y99.751 E0.01309
G1 X148.248 Y97.381 E0.06211
G1 X148.955 Y97.381 E0.01309
G1 X150.618 Y99.045 E0.04359
G1 X150.618 Y98.338 E0.01309
G1 X149.661 Y97.381 E0.02508
G1 X150.368 Y97.381 E0.01309
G1 X150.618 Y97.632 E0.00657
M106 S255
M104 S285 ; set temperature
M140 S100 ; wait for bed temperature to be reached
G1 F4800
G1 X150.368 Y97.381 E-0.08417
G1 F4800
G1 X149.661 Y97.381 E-0.16779
G1 F4800
G1 X150.618 Y98.338 E-0.32146
G1 F4800
G1 X150.618 Y99.045 E-0.16779
G1 F4800
G1 X148.955 Y97.381 E-0.55875
G1 F4800
G1 X148.248 Y97.381 E-0.16779
G1 F4800
G1 X150.618 Y99.751 E-0.79604
G1 F4800
G1 X150.618 Y100.219 E-0.11121
G1 E-0.12500 F1200.00000
G1 Z0.450 F6000.000
G1 X148.913 Y114.969 F6000.000
G1 E2.50000 F1200.00000
G1 X61.031 Y114.969 E1.32235 F2400.000
G1 X61.031 Y97.031 E0.26992
G1 X150.969 Y97.031 E1.35328
G1 X150.969 Y114.969 E0.26992
G1 X148.973 Y114.969 E0.03002 F2400.000
G1 X148.973 Y115.476 F6000.000
G1 X60.524 Y115.476 E1.33088 F2400.000
G1 X60.524 Y96.524 E0.28518
G1 X151.476 Y96.524 E1.36854
G1 X151.476 Y115.476 E0.28518
G1 X149.033 Y115.476 E0.03675 F2400.000
G1 X148.773 Y115.130 F6000.000
G1 F4800
G1 X139.033 Y115.476 E-2.37500
G1 E-0.12500 F1200.00000
G1 X150.344 Y114.600 F6000.000
G1 E2.50000 F1200.00000
G1 X150.599 Y114.345 E0.00545 F2400.000
G1 X150.599 Y113.625 E0.01089
G1 X149.624 Y114.600 E0.02085
G1 X148.904 Y114.600 E0.01089
G1 X150.599 Y112.904 E0.03625
G1 X150.599 Y112.184 E0.01089
G1 X148.183 Y114.600 E0.05164
G1 X147.463 Y114.600 E0.01089
G1 X150.599 Y111.464 E0.06704
G1 X150.599 Y110.743 E0.01089
G1 X146.743 Y114.600 E0.08244
G1 X146.022 Y114.600 E0.01089
G1 X150.599 Y110.023 E0.09784
G1 X150.599 Y109.303 E0.01089
G1 X145.302 Y114.600 E0.11323
G1 X144.582 Y114.600 E0.01089
G1 X150.599 Y108.582 E0.12863
G1 X150.599 Y107.862 E0.01089
G1 X143.861 Y114.600 E0.14403
G1 X143.141 Y114.600 E0.01089
G1 X150.599 Y107.142 E0.15942
G1 X150.599 Y106.421 E0.01089
G1 X142.421 Y114.600 E0.17482
G1 X141.700 Y114.600 E0.01089
G1 X150.599 Y105.701 E0.19022
G1 X150.599 Y104.981 E0.01089
G1 X140.980 Y114.600 E0.20561
G1 X140.260 Y114.600 E0.01089
G1 X150.599 Y104.260 E0.22101
G1 X150.599 Y103.540 E0.01089
G1 X139.539 Y114.600 E0.23641
G1 X138.819 Y114.600 E0.01089
G1 X150.599 Y102.820 E0.25180
G1 X150.599 Y102.099 E0.01089
G1 X138.099 Y114.600 E0.26720
G1 X137.378 Y114.600 E0.01089
G1 X150.599 Y101.379 E0.28260
G1 X150.599 Y100.659 E0.01089
G1 X136.658 Y114.600 E0.29800
G1 X135.938 Y114.600 E0.01089
G1 X150.599 Y99.938 E0.31339
G1 X150.599 Y99.218 E0.01089
G1 X135.217 Y114.600 E0.32879
G1 X134.497 Y114.600 E0.01089
G1 X150.599 Y98.498 E0.34419
G1 X150.599 Y97.777 E0.01089
G1 X133.777 Y114.600 E0.35958
G1 X133.056 Y114.600 E0.01089
G1 X150.256 Y97.400 E0.36765
G1 X149.536 Y97.400 E0.01089
G1 X132.336 Y114.600 E0.36765
G1 X131.616 Y114.600 E0.01089
G1 X148.816 Y97.400 E0.36765
G1 X148.095 Y97.400 E0.01089
G1 X130.895 Y114.600 E0.36765
G1 X130.175 Y114.600 E0.01089
G1 X147.375 Y97.400 E0.36765
G1 X146.655 Y97.400 E0.01089
G1 X129.455 Y114.600 E0.36765
G1 X128.734 Y114.600 E0.01089
G1 X145.934 Y97.400 E0.36765
G1 X145.214 Y97.400 E0.01089
G1 X128.014 Y114.600 E0.36765
G1 X127.294 Y114.600 E0.01089
G1 X144.494 Y97.400 E0.36765
G1 X143.773 Y97.400 E0.01089
G1 X126.573 Y114.600 E0.36765
G1 X125.853 Y114.600 E0.01089
G1 X143.053 Y97.400 E0.36765
G1 X142.333 Y97.400 E0.01089
G1 X125.133 Y114.600 E0.36765
G1 X124.412 Y114.600 E0.01089
G1 X141.612 Y97.400 E0.36765
G1 X140.892 Y97.400 E0.01089
G1 X123.692 Y114.600 E0.36765
G1 X122.972 Y114.600 E0.01089
G1 X140.172 Y97.400 E0.36765
G1 X139.451 Y97.400 E0.01089
G1 X122.251 Y114.600 E0.36765
G1 X121.531 Y114.600 E0.01089
G1 X138.731 Y97.400 E0.36765
G1 X138.011 Y97.400 E0.01089
G1 X120.811 Y114.600 E0.36765
G1 X120.090 Y114.600 E0.01089
G1 X137.290 Y97.400 E0.36765
G1 X136.570 Y97.400 E0.01089
G1 X119.370 Y114.600 E0.36765
G1 X118.650 Y114.600 E0.01089
G1 X135.850 Y97.400 E0.36765
G1 X135.129 Y97.400 E0.01089
G1 X117.929 Y114.600 E0.36765
G1 X117.209 Y114.600 E0.01089
G1 X134.409 Y97.400 E0.36765
G1 X133.689 Y97.400 E0.01089
G1 X116.489 Y114.600 E0.36765
G1 X115.768 Y114.600 E0.01089
G1 X132.968 Y97.400 E0.36765
G1 X132.248 Y97.400 E0.01089
G1 X115.048 Y114.600 E0.36765
G1 X114.328 Y114.600 E0.01089
G1 X131.528 Y97.400 E0.36765
G1 X130.807 Y97.400 E0.01089
G1 X113.607 Y114.600 E0.36765
G1 X112.887 Y114.600 E0.01089
G1 X130.087 Y97.400 E0.36765
G1 X129.367 Y97.400 E0.01089
G1 X112.167 Y114.600 E0.36765
G1 X111.446 Y114.600 E0.01089
G1 X128.646 Y97.400 E0.36765
G1 X127.926 Y97.400 E0.01089
G1 X110.726 Y114.600 E0.36765
G1 X110.006 Y114.600 E0.01089
G1 X127.206 Y97.400 E0.36765
G1 X126.485 Y97.400 E0.01089
G1 X109.285 Y114.600 E0.36765
G1 X108.565 Y114.600 E0.01089
G1 X125.765 Y97.400 E0.36765
G1 X125.045 Y97.400 E0.01089
G1 X107.845 Y114.600 E0.36765
G1 X107.124 Y114.600 E0.01089
G1 X124.324 Y97.400 E0.36765
G1 X123.604 Y97.400 E0.01089
G1 X106.404 Y114.600 E0.36765
G1 X105.684 Y114.600 E0.01089
G1 X122.884 Y97.400 E0.36765
G1 X122.163 Y97.400 E0.01089
G1 X104.963 Y114.600 E0.36765
G1 X104.243 Y114.600 E0.01089
G1 X121.443 Y97.400 E0.36765
G1 X120.723 Y97.400 E0.01089
G1 X103.523 Y114.600 E0.36765
G1 X102.802 Y114.600 E0.01089
G1 X120.002 Y97.400 E0.36765
G1 X119.282 Y97.400 E0.01089
G1 X102.082 Y114.600 E0.36765
G1 X101.362 Y114.600 E0.01089
G1 X118.562 Y97.400 E0.36765
G1 X117.841 Y97.400 E0.01089
G1 X100.641 Y114.600 E0.36765
G1 X99.921 Y114.600 E0.01089
G1 X117.121 Y97.400 E0.36765
G1 X116.401 Y97.400 E0.01089
G1 X99.201 Y114.600 E0.36765
G1 X98.480 Y114.600 E0.01089
G1 X115.680 Y97.400 E0.36765
G1 X114.960 Y97.400 E0.01089
G1 X97.760 Y114.600 E0.36765
G1 X97.040 Y114.600 E0.01089
G1 X114.240 Y97.400 E0.36765
G1 X113.520 Y97.400 E0.01089
