; G-Code generated by Simplify3D(R) Version 3.0.2
; Jun 19, 2016 at 9:00:26 PM
; Settings Summary
;   processName,Process1
;   applyToModels,3DHubs_Marvin
;   profileName,MK2 0.1 PLA DETAIL (modified)
;   profileVersion,2016-06-18 17:56:33
;   baseProfile,Prusa Mendel (modified)
;   printMaterial,PLA
;   printQuality,NORMAL
;   printExtruders,
;   extruderName,Primary Extruder
;   extruderToolheadNumber,0
;   extruderDiameter,0.4
;   extruderAutoWidth,1
;   extruderWidth,0.48
;   extrusionMultiplier,1
;   extruderUseRetract,1
;   extruderRetractionDistance,0.8
;   extruderExtraRestartDistance,0
;   extruderRetractionZLift,0
;   extruderRetractionSpeed,1800
;   extruderUseCoasting,1
;   extruderCoastingDistance,0.2
;   extruderUseWipe,1
;   extruderWipeDistance,2
;   primaryExtruder,0
;   layerHeight,0.1
;   topSolidLayers,5
;   bottomSolidLayers,5
;   perimeterOutlines,2
;   printPerimetersInsideOut,1
;   startPointOption,2
;   startPointOriginX,0
;   startPointOriginY,0
;   startPointOriginZ,300
;   sequentialIslands,0
;   spiralVaseMode,0
;   firstLayerHeightPercentage,120
;   firstLayerWidthPercentage,120
;   firstLayerUnderspeed,0.6
;   useRaft,0
;   raftExtruder,0
;   raftLayers,3
;   raftOffset,3
;   raftSeparationDistance,0.14
;   raftInfill,85
;   disableRaftBaseLayers,0
;   useSkirt,1
;   skirtExtruder,0
;   skirtLayers,1
;   skirtOutlines,5
;   skirtOffset,0
;   usePrimePillar,0
;   primePillarExtruder,999
;   primePillarWidth,12
;   primePillarLocation,7
;   primePillarSpeedMultiplier,1
;   useOozeShield,0
;   oozeShieldExtruder,999
;   oozeShieldOffset,2
;   oozeShieldOutlines,1
;   oozeShieldSidewallShape,1
;   oozeShieldSidewallAngle,30
;   oozeShieldSpeedMultiplier,1
;   infillExtruder,0
;   internalInfillPattern,Grid
;   externalInfillPattern,Rectilinear
;   infillPercentage,20
;   outlineOverlapPercentage,21
;   infillExtrusionWidthPercentage,100
;   minInfillLength,2
;   infillLayerInterval,1
;   infillAngles,45,-45
;   overlapInfillAngles,1
;   generateSupport,0
;   supportExtruder,0
;   supportInfillPercentage,30
;   supportExtraInflation,1.4
;   denseSupportLayers,0
;   denseSupportInfillPercentage,70
;   supportLayerInterval,1
;   supportHorizontalPartOffset,0.2
;   supportUpperSeparationLayers,1
;   supportLowerSeparationLayers,1
;   supportType,0
;   supportGridSpacing,4
;   maxOverhangAngle,45
;   supportAngles,0
;   temperatureName,Primary Extruder,Heated Bed
;   temperatureNumber,0,1
;   temperatureSetpointCount,1,1
;   temperatureSetpointLayers,1,1
;   temperatureSetpointTemperatures,215,55
;   temperatureStabilizeAtStartup,1,1
;   temperatureHeatedBed,0,1
;   temperatureRelayBetweenLayers,0,0
;   temperatureRelayBetweenLoops,0,0
;   fanLayers,1,2
;   fanSpeeds,0,100
;   blipFanToFullPower,1
;   adjustSpeedForCooling,1
;   minSpeedLayerTime,15
;   minCoolingSpeedSlowdown,20
;   increaseFanForCooling,0
;   minFanLayerTime,45
;   maxCoolingFanSpeed,100
;   increaseFanForBridging,1
;   bridgingFanSpeed,100
;   use5D,1
;   relativeEdistances,1
;   allowEaxisZeroing,1
;   independentExtruderAxes,0
;   includeM10123,0
;   stickySupport,1
;   applyToolheadOffsets,0
;   gcodeXoffset,0
;   gcodeYoffset,0
;   gcodeZoffset,0
;   overrideMachineDefinition,1
;   machineTypeOverride,0
;   strokeXoverride,250
;   strokeYoverride,211
;   strokeZoverride,200
;   originOffsetXoverride,0
;   originOffsetYoverride,0
;   originOffsetZoverride,0
;   homeXdirOverride,-1
;   homeYdirOverride,-1
;   homeZdirOverride,-1
;   flipXoverride,1
;   flipYoverride,-1
;   flipZoverride,1
;   toolheadOffsets,0,0|0,0|0,0|0,0|0,0|0,0
;   overrideFirmwareConfiguration,0
;   firmwareTypeOverride,RepRap (Marlin/Repetier/Sprinter)
;   GPXconfigOverride,r2
;   baudRateOverride,250000
;   overridePrinterModels,1
;   printerModelsOverride
;   startingGcode,G28 W ; home all without mesh bed level,G80 ; mesh bed leveling,G1 Y-3.0 F1000.0 ; go outside pritn area,G1 X60.0 E9.0  F1000.0 ; intro line,G1 X100.0 E12.5  F1000.0 ; intro line
;   layerChangeGcode,
;   retractionGcode,
;   toolChangeGcode,
;   endingGcode,M104 S0 ; turn off temperature,M140 S0 ; turn off heatbed,M107 ; turn off fan,G1 X0 Y200; home X axis,M84 ; disable motors
;   createX3G,0
;   celebration,0
;   celebrationSong,Random Song
;   createMB5G,0
;   postProcessing,
;   defaultSpeed,2400
;   outlineUnderspeed,1
;   solidInfillUnderspeed,1
;   supportUnderspeed,0.8
;   rapidXYspeed,4800
;   rapidZspeed,1000
;   minBridgingArea,50
;   bridgingExtraInflation,1
;   bridgingExtrusionMultiplier,1
;   bridgingSpeedMultiplier,1
;   filamentDiameter,1.75
;   filamentPricePerKg,215
;   filamentDensity,1.25
;   useMinPrintHeight,0
;   minPrintHeight,0
;   useMaxPrintHeight,0
;   maxPrintHeight,0
;   useDiaphragm,0
;   diaphragmLayerInterval,20
;   robustSlicing,1
;   mergeAllIntoSolid,0
;   onlyRetractWhenCrossingOutline,0
;   retractBetweenLayers,1
;   useRetractionMinTravel,1
;   retractionMinTravel,3
;   retractWhileWiping,1
;   onlyWipeOutlines,1
;   avoidCrossingOutline,0
;   maxMovementDetourFactor,3
;   toolChangeRetractionDistance,12
;   toolChangeExtraRestartDistance,-0.5
;   toolChangeRetractionSpeed,600
;   allowThinWallGapFill,1
;   thinWallAllowedOverlapPercentage,10
;   horizontalSizeCompensation,0
G90
M83
M106 S0
M140 S55
M190 S55
M104 S215 T0
M109 S215 T0
G28 W ; home all without mesh bed level
G80 ; mesh bed leveling
G1 Y-3.0 F1000.0 ; go outside pritn area
G1 X60.0 E9.0  F1000.0 ; intro line
G1 X100.0 E12.5  F1000.0 ; intro line
G1 E-0.8000 F1800
G1 Z0.120 F1000
; layer 1, Z = 0.12
T0
; tool H0.120 W0.576
; skirt
G1 X116.178 Y98.852 F4800
G1 E0.8000 F540
G1 X116.267 Y98.760 E0.0037 F1009
G1 X116.600 Y98.452 E0.0130
G1 X116.703 Y98.368 E0.0038
G1 X117.288 Y97.947 E0.0207
G1 X117.454 Y97.849 E0.0055
G1 X118.161 Y97.512 E0.0225
G1 X118.331 Y97.448 E0.0052
G1 X118.910 Y97.283 E0.0173
G1 X119.095 Y97.247 E0.0054
G1 X119.863 Y97.167 E0.0222
G1 X120.031 Y97.163 E0.0048
G1 X120.493 Y97.188 E0.0133
G1 X120.658 Y97.209 E0.0048
G1 X121.397 Y97.364 E0.0217
G1 X121.554 Y97.409 E0.0047
G1 X121.994 Y97.573 E0.0135
G1 X122.147 Y97.644 E0.0049
G1 X122.896 Y98.067 E0.0247
G1 X123.070 Y98.189 E0.0061
G1 X123.719 Y98.748 E0.0246
G1 X123.825 Y98.853 E0.0043
G1 X124.176 Y99.251 E0.0152
G1 X124.261 Y99.363 E0.0040
G1 X124.789 Y100.149 E0.0272
G1 X124.871 Y100.292 E0.0047
G1 X124.996 Y100.561 E0.0085
G1 X125.424 Y99.801 E0.0251
G1 X125.524 Y99.653 E0.0051
G1 X126.114 Y98.920 E0.0270
G1 X126.215 Y98.811 E0.0043
G1 X126.571 Y98.476 E0.0140
G1 X126.692 Y98.378 E0.0045
G1 X127.417 Y97.870 E0.0254
G1 X127.612 Y97.761 E0.0064
G1 X128.387 Y97.429 E0.0243
G1 X128.594 Y97.364 E0.0062
G1 X129.348 Y97.208 E0.0221
G1 X129.511 Y97.187 E0.0047
G1 X129.943 Y97.165 E0.0124
G1 X130.055 Y97.165 E0.0032
G1 X130.469 Y97.186 E0.0119
G1 X130.581 Y97.198 E0.0032
G1 X130.993 Y97.263 E0.0120
G1 X131.121 Y97.291 E0.0038
G1 X131.648 Y97.442 E0.0157
G1 X131.770 Y97.485 E0.0037
G1 X132.171 Y97.653 E0.0125
G1 X132.300 Y97.718 E0.0041
G1 X132.888 Y98.063 E0.0196
G1 X133.002 Y98.141 E0.0040
G1 X133.364 Y98.421 E0.0131
G1 X133.469 Y98.514 E0.0040
G1 X134.032 Y99.081 E0.0230
G1 X134.141 Y99.209 E0.0048
G1 X134.615 Y99.865 E0.0233
G1 X134.677 Y99.960 E0.0033
G1 X134.914 Y100.373 E0.0137
G1 X134.960 Y100.462 E0.0029
G1 X135.292 Y101.190 E0.0230
G1 X135.328 Y101.278 E0.0027
G1 X135.508 Y101.788 E0.0155
G1 X135.536 Y101.879 E0.0027
G1 X135.788 Y102.859 E0.0291
G1 X135.811 Y102.973 E0.0033
G1 X135.961 Y104.012 E0.0302
G1 X135.971 Y104.111 E0.0029
G1 X136.018 Y105.003 E0.0257
G1 X136.019 Y105.077 E0.0021
G1 X136.008 Y105.703 E0.0180
G1 X136.003 Y105.793 E0.0026
G1 X135.886 Y106.955 E0.0336
G1 X135.872 Y107.048 E0.0027
G1 X135.758 Y107.649 E0.0176
G1 X135.741 Y107.726 E0.0023
G1 X135.536 Y108.493 E0.0228
G1 X135.499 Y108.606 E0.0034
G1 X135.122 Y109.576 E0.0299
G1 X135.054 Y109.718 E0.0045
G1 X134.559 Y110.591 E0.0288
G1 X134.468 Y110.726 E0.0047
G1 X133.990 Y111.333 E0.0222
G1 X133.906 Y111.428 E0.0037
G1 X133.560 Y111.775 E0.0141
G1 X133.442 Y111.877 E0.0045
G1 X132.732 Y112.408 E0.0255
G1 X132.545 Y112.520 E0.0063
G1 X131.807 Y112.868 E0.0235
G1 X131.638 Y112.931 E0.0052
G1 X131.084 Y113.086 E0.0165
G1 X130.903 Y113.121 E0.0053
G1 X130.119 Y113.202 E0.0226
G1 X129.915 Y113.203 E0.0059
G1 X129.250 Y113.146 E0.0192
G1 X129.104 Y113.123 E0.0042
G1 X128.678 Y113.027 E0.0125
G1 X128.547 Y112.989 E0.0039
G1 X127.991 Y112.786 E0.0170
G1 X127.868 Y112.732 E0.0039
G1 X127.470 Y112.528 E0.0129
G1 X127.339 Y112.450 E0.0044
G1 X126.713 Y112.008 E0.0220
G1 X126.601 Y111.917 E0.0041
G1 X126.256 Y111.597 E0.0135
G1 X126.161 Y111.497 E0.0040
G1 X125.621 Y110.851 E0.0242
G1 X125.521 Y110.709 E0.0050
G1 X125.015 Y109.856 E0.0285
G1 X124.993 Y109.812 E0.0014
G1 X124.816 Y110.171 E0.0115
G1 X124.754 Y110.280 E0.0036
G1 X124.441 Y110.765 E0.0166
G1 X124.362 Y110.873 E0.0038
G1 X123.837 Y111.500 E0.0235
G1 X123.742 Y111.599 E0.0039
G1 X123.398 Y111.918 E0.0135
G1 X123.287 Y112.008 E0.0041
G1 X122.649 Y112.458 E0.0224
G1 X122.493 Y112.549 E0.0052
G1 X121.934 Y112.817 E0.0178
G1 X121.810 Y112.868 E0.0039
G1 X121.409 Y113.002 E0.0121
G1 X121.304 Y113.031 E0.0031
G1 X120.892 Y113.124 E0.0121
G1 X120.745 Y113.147 E0.0042
G1 X120.077 Y113.204 E0.0193
G1 X119.872 Y113.202 E0.0059
G1 X119.094 Y113.120 E0.0225
G1 X118.915 Y113.086 E0.0052
G1 X118.362 Y112.931 E0.0165
G1 X118.192 Y112.868 E0.0052
G1 X117.452 Y112.518 E0.0235
G1 X117.265 Y112.406 E0.0063
G1 X116.554 Y111.874 E0.0255
G1 X116.437 Y111.772 E0.0045
G1 X116.092 Y111.426 E0.0140
G1 X116.008 Y111.331 E0.0037
G1 X115.544 Y110.742 E0.0215
G1 X115.476 Y110.644 E0.0034
G1 X115.191 Y110.185 E0.0155
G1 X115.131 Y110.075 E0.0036
G1 X114.709 Y109.180 E0.0284
G1 X114.667 Y109.077 E0.0032
G1 X114.483 Y108.551 E0.0160
G1 X114.458 Y108.472 E0.0024
G1 X114.254 Y107.705 E0.0228
G1 X114.231 Y107.597 E0.0032
G1 X114.047 Y106.441 E0.0336
G1 X114.035 Y106.318 E0.0035
G1 X113.981 Y105.118 E0.0345
G1 X113.982 Y105.014 E0.0030
G1 X114.028 Y104.119 E0.0257
G1 X114.035 Y104.047 E0.0021
G1 X114.101 Y103.497 E0.0159
G1 X114.114 Y103.413 E0.0024
G1 X114.315 Y102.405 E0.0295
G1 X114.346 Y102.287 E0.0035
G1 X114.657 Y101.318 E0.0292
G1 X114.703 Y101.200 E0.0037
G1 X115.041 Y100.461 E0.0233
G1 X115.087 Y100.371 E0.0029
G1 X115.319 Y99.967 E0.0134
G1 X115.361 Y99.900 E0.0023
G1 X115.623 Y99.514 E0.0134
G1 X115.695 Y99.419 E0.0034
G1 X116.048 Y99.005 E0.0157
G1 X116.178 Y98.852 F1009
G1 X116.534 Y99.174 F4800
G1 X116.603 Y99.102 E0.0029 F1009
G1 X116.915 Y98.814 E0.0122
G1 X116.995 Y98.749 E0.0030
G1 X117.551 Y98.349 E0.0197
G1 X117.680 Y98.273 E0.0043
G1 X118.350 Y97.953 E0.0213
G1 X118.482 Y97.904 E0.0041
G1 X119.021 Y97.750 E0.0161
G1 X119.165 Y97.722 E0.0042
G1 X119.894 Y97.647 E0.0210
G1 X120.024 Y97.644 E0.0038
G1 X120.450 Y97.666 E0.0122
G1 X120.578 Y97.683 E0.0037
G1 X121.281 Y97.830 E0.0207
G1 X121.403 Y97.865 E0.0036
G1 X121.808 Y98.016 E0.0124
G1 X121.928 Y98.072 E0.0038
G1 X122.639 Y98.473 E0.0235
G1 X122.775 Y98.569 E0.0048
G1 X123.393 Y99.101 E0.0234
G1 X123.476 Y99.183 E0.0033
G1 X123.805 Y99.557 E0.0143
G1 X123.872 Y99.643 E0.0031
G1 X124.381 Y100.401 E0.0262
G1 X124.444 Y100.513 E0.0037
G1 X124.853 Y101.386 E0.0277
G1 X124.888 Y101.472 E0.0027
G1 X125.005 Y101.815 E0.0104
G1 X125.094 Y101.524 E0.0087
G1 X125.125 Y101.438 E0.0026
G1 X125.334 Y100.950 E0.0153
G1 X125.374 Y100.868 E0.0026
G1 X125.833 Y100.053 E0.0269
G1 X125.911 Y99.938 E0.0040
G1 X126.478 Y99.234 E0.0260
G1 X126.556 Y99.150 E0.0033
G1 X126.887 Y98.838 E0.0131
G1 X126.981 Y98.761 E0.0035
G1 X127.672 Y98.277 E0.0242
G1 X127.823 Y98.193 E0.0050
G1 X128.554 Y97.880 E0.0228
G1 X128.715 Y97.829 E0.0048
G1 X129.427 Y97.682 E0.0209
G1 X129.554 Y97.665 E0.0037
G1 X129.955 Y97.645 E0.0115
G1 X130.043 Y97.645 E0.0025
G1 X130.431 Y97.665 E0.0112
G1 X130.518 Y97.674 E0.0025
G1 X130.903 Y97.735 E0.0112
G1 X131.003 Y97.757 E0.0029
G1 X131.502 Y97.899 E0.0149
G1 X131.597 Y97.933 E0.0029
G1 X131.970 Y98.089 E0.0116
G1 X132.070 Y98.140 E0.0032
G1 X132.631 Y98.469 E0.0187
G1 X132.721 Y98.529 E0.0031
G1 X133.058 Y98.791 E0.0123
G1 X133.139 Y98.863 E0.0031
G1 X133.679 Y99.406 E0.0220
G1 X133.763 Y99.506 E0.0038
G1 X134.219 Y100.136 E0.0224
G1 X134.267 Y100.210 E0.0025
G1 X134.492 Y100.602 E0.0130
G1 X134.528 Y100.672 E0.0023
G1 X134.851 Y101.379 E0.0223
G1 X134.879 Y101.448 E0.0021
G1 X135.052 Y101.938 E0.0149
G1 X135.074 Y102.009 E0.0021
G1 X135.320 Y102.966 E0.0284
G1 X135.337 Y103.054 E0.0026
G1 X135.485 Y104.070 E0.0295
G1 X135.492 Y104.147 E0.0022
G1 X135.538 Y105.020 E0.0251
G1 X135.539 Y105.078 E0.0017
G1 X135.529 Y105.685 E0.0174
G1 X135.524 Y105.755 E0.0020
G1 X135.409 Y106.897 E0.0330
G1 X135.399 Y106.969 E0.0021
G1 X135.288 Y107.550 E0.0170
G1 X135.275 Y107.611 E0.0018
G1 X135.075 Y108.357 E0.0222
G1 X135.047 Y108.444 E0.0026
G1 X134.681 Y109.386 E0.0290
G1 X134.628 Y109.496 E0.0035
G1 X134.151 Y110.338 E0.0278
G1 X134.080 Y110.443 E0.0036
G1 X133.622 Y111.025 E0.0213
G1 X133.556 Y111.099 E0.0028
G1 X133.232 Y111.423 E0.0132
G1 X133.141 Y111.503 E0.0035
G1 X132.464 Y112.009 E0.0243
G1 X132.319 Y112.096 E0.0049
G1 X131.621 Y112.425 E0.0222
G1 X131.489 Y112.474 E0.0040
G1 X130.974 Y112.618 E0.0154
G1 X130.833 Y112.645 E0.0041
G1 X130.092 Y112.722 E0.0214
G1 X129.933 Y112.723 E0.0046
G1 X129.307 Y112.669 E0.0181
G1 X129.194 Y112.652 E0.0033
G1 X128.799 Y112.562 E0.0116
G1 X128.697 Y112.532 E0.0031
G1 X128.170 Y112.340 E0.0161
G1 X128.074 Y112.298 E0.0030
G1 X127.704 Y112.109 E0.0120
G1 X127.602 Y112.048 E0.0034
G1 X127.003 Y111.625 E0.0211
G1 X126.916 Y111.554 E0.0032
G1 X126.593 Y111.255 E0.0126
G1 X126.519 Y111.177 E0.0031
G1 X126.002 Y110.558 E0.0232
G1 X125.924 Y110.448 E0.0039
G1 X125.435 Y109.623 E0.0276
G1 X125.392 Y109.539 E0.0027
G1 X125.187 Y109.083 E0.0144
G1 X125.158 Y109.010 E0.0022
G1 X125.006 Y108.566 E0.0135
G1 X124.995 Y108.600 E0.0010
G1 X124.818 Y109.071 E0.0144
G1 X124.786 Y109.146 E0.0024
G1 X124.391 Y109.946 E0.0256
G1 X124.344 Y110.031 E0.0028
G1 X124.046 Y110.493 E0.0158
G1 X123.984 Y110.576 E0.0030
G1 X123.478 Y111.180 E0.0226
G1 X123.405 Y111.257 E0.0031
G1 X123.084 Y111.555 E0.0126
G1 X122.997 Y111.625 E0.0032
G1 X122.389 Y112.054 E0.0214
G1 X122.268 Y112.125 E0.0040
G1 X121.740 Y112.378 E0.0168
G1 X121.643 Y112.418 E0.0030
G1 X121.268 Y112.543 E0.0114
G1 X121.186 Y112.566 E0.0024
G1 X120.802 Y112.652 E0.0113
G1 X120.688 Y112.670 E0.0033
G1 X120.058 Y112.724 E0.0182
G1 X119.899 Y112.722 E0.0046
G1 X119.165 Y112.645 E0.0212
G1 X119.025 Y112.618 E0.0041
G1 X118.511 Y112.474 E0.0154
G1 X118.379 Y112.425 E0.0040
G1 X117.679 Y112.095 E0.0222
G1 X117.533 Y112.007 E0.0049
G1 X116.856 Y111.500 E0.0243
G1 X116.765 Y111.421 E0.0035
G1 X116.442 Y111.097 E0.0131
G1 X116.376 Y111.023 E0.0028
G1 X115.930 Y110.456 E0.0208
G1 X115.876 Y110.379 E0.0027
G1 X115.606 Y109.944 E0.0147
G1 X115.559 Y109.858 E0.0028
G1 X115.149 Y108.987 E0.0277
G1 X115.116 Y108.907 E0.0025
G1 X114.939 Y108.401 E0.0154
G1 X114.920 Y108.339 E0.0019
G1 X114.721 Y107.593 E0.0222
G1 X114.703 Y107.509 E0.0025
G1 X114.523 Y106.379 E0.0329
G1 X114.513 Y106.284 E0.0027
G1 X114.461 Y105.108 E0.0338
G1 X114.462 Y105.027 E0.0023
G1 X114.507 Y104.152 E0.0252
G1 X114.512 Y104.096 E0.0016
G1 X114.576 Y103.563 E0.0154
G1 X114.586 Y103.498 E0.0019
G1 X114.784 Y102.513 E0.0289
G1 X114.807 Y102.421 E0.0027
G1 X115.110 Y101.479 E0.0284
G1 X115.146 Y101.386 E0.0028
G1 X115.473 Y100.670 E0.0226
G1 X115.509 Y100.601 E0.0023
G1 X115.731 Y100.214 E0.0128
G1 X115.763 Y100.162 E0.0018
G1 X116.013 Y99.794 E0.0128
G1 X116.069 Y99.720 E0.0027
G1 X116.404 Y99.327 E0.0149
G1 X116.534 Y99.174 F1009
G1 X116.890 Y99.497 F4800
G1 X116.939 Y99.445 E0.0021 F1009
G1 X117.230 Y99.177 E0.0114
G1 X117.287 Y99.130 E0.0021
G1 X117.814 Y98.752 E0.0186
G1 X117.906 Y98.697 E0.0031
G1 X118.538 Y98.395 E0.0201
G1 X118.633 Y98.360 E0.0029
G1 X119.133 Y98.217 E0.0149
G1 X119.235 Y98.197 E0.0030
G1 X119.924 Y98.126 E0.0199
G1 X120.018 Y98.124 E0.0027
G1 X120.406 Y98.144 E0.0112
G1 X120.498 Y98.156 E0.0027
G1 X121.165 Y98.296 E0.0196
G1 X121.252 Y98.321 E0.0026
G1 X121.623 Y98.459 E0.0114
