; generated by Slic3r 1.30.0.25-prusa3d-release_candidate_1_3 on 2016-07-03 at 15:15:57

; external perimeters extrusion width = 0.45mm
; perimeters extrusion width = 0.45mm
; infill extrusion width = 0.45mm
; solid infill extrusion width = 0.45mm
; top infill extrusion width = 0.40mm

; external perimeters extrusion width = 0.45mm
; perimeters extrusion width = 0.45mm
; infill extrusion width = 0.45mm
; solid infill extrusion width = 0.45mm
; top infill extrusion width = 0.45mm

M107
M83  ; extruder relative mode
M104 S210 ; set extruder temp
M140 S55 ; set bed temp
M190 S55 ; wait for bed temp
M109 S210 ; wait for extruder temp
G28 W ; home all without mesh bed level
G80 ; mesh bed leveling
G1 Y-3.0 F1000.0 ; go outside pritn area
G1 X60.0 E9.0  F1000.0 ; intro line
G1 X100.0 E12.5  F1000.0 ; intro line
G21 ; set units to millimeters
G90 ; use absolute coordinates
M83 ; use relative distances for extrusion
G1 E-0.80000 F2100.00000
G1 Z0.150 F7200.000
G1 X99.330 Y59.307 F7200.000
G1 E0.80000 F2100.00000
M204 S1000
G1 F1800
G1 X99.817 Y58.587 E0.02101
G1 X100.131 Y58.212 E0.01183
G1 X100.477 Y57.857 E0.01199
G1 X101.095 Y57.337 E0.01952
G1 X101.501 Y57.060 E0.01189
G1 X101.918 Y56.818 E0.01166
G1 X102.696 Y56.461 E0.02071
G1 X102.944 Y56.367 E0.00641
G1 X103.761 Y56.120 E0.02065
G1 X104.552 Y55.959 E0.01951
G1 X105.281 Y55.863 E0.01779
G1 X105.904 Y55.808 E0.01513
G1 X107.237 Y55.736 E0.03227
G1 X108.577 Y55.697 E0.03244
G1 X111.102 Y55.660 E0.06107
G1 X116.114 Y55.636 E0.12121
G1 X136.132 Y55.643 E0.48414
G1 X138.661 Y55.657 E0.06116
G1 X142.443 Y55.724 E0.09149
G1 X143.740 Y55.784 E0.03139
G1 X144.432 Y55.835 E0.01679
G1 X145.141 Y55.912 E0.01724
G1 X145.906 Y56.043 E0.01878
G1 X146.954 Y56.330 E0.02627
G1 X147.537 Y56.555 E0.01512
G1 X148.356 Y56.973 E0.02223
G1 X148.830 Y57.280 E0.01365
G1 X149.358 Y57.701 E0.01633
G1 X149.714 Y58.042 E0.01194
G1 X150.236 Y58.651 E0.01938
G1 X150.625 Y59.225 E0.01678
G1 X150.931 Y59.770 E0.01512
G1 X151.371 Y60.784 E0.02673
G1 X151.622 Y61.602 E0.02069
G1 X151.788 Y62.411 E0.01999
G1 X151.885 Y63.200 E0.01921
G1 X151.925 Y63.963 E0.01848
G1 X151.923 Y64.689 E0.01756
G1 X148.883 Y136.512 E1.73858
G1 X148.830 Y137.201 E0.01671
G1 X148.716 Y138.005 E0.01964
G1 X148.561 Y138.692 E0.01703
G1 X148.300 Y139.479 E0.02006
G1 X148.043 Y140.084 E0.01591
G1 X147.794 Y140.594 E0.01372
G1 X147.195 Y141.712 E0.03066
G1 X146.592 Y142.731 E0.02865
G1 X145.892 Y143.783 E0.03056
G1 X145.125 Y144.784 E0.03050
G1 X144.723 Y145.248 E0.01485
G1 X144.221 Y145.772 E0.01755
G1 X143.759 Y146.208 E0.01537
G1 X143.303 Y146.603 E0.01458
G1 X142.269 Y147.402 E0.03159
G1 X141.337 Y148.046 E0.02741
G1 X140.401 Y148.656 E0.02703
G1 X137.615 Y150.431 E0.07988
G1 X136.592 Y151.045 E0.02887
G1 X135.539 Y151.630 E0.02912
G1 X134.427 Y152.179 E0.03001
G1 X133.283 Y152.665 E0.03007
G1 X132.222 Y153.039 E0.02720
G1 X131.569 Y153.232 E0.01645
G1 X130.886 Y153.401 E0.01701
G1 X130.200 Y153.534 E0.01690
G1 X129.590 Y153.627 E0.01493
G1 X128.439 Y153.758 E0.02801
G1 X124.070 Y154.168 E0.10613
G1 X121.785 Y154.327 E0.05541
G1 X120.636 Y154.365 E0.02779
G1 X119.485 Y154.357 E0.02784
G1 X118.176 Y154.274 E0.03172
G1 X116.828 Y154.086 E0.03293
G1 X115.707 Y153.847 E0.02771
G1 X114.522 Y153.516 E0.02977
G1 X113.379 Y153.131 E0.02917
G1 X112.287 Y152.721 E0.02822
G1 X110.209 Y151.865 E0.05435
G1 X108.184 Y150.976 E0.05346
G1 X106.132 Y150.054 E0.05442
G1 X105.566 Y149.766 E0.01536
G1 X105.020 Y149.431 E0.01550
G1 X104.619 Y149.126 E0.01218
G1 X104.247 Y148.782 E0.01224
G1 X103.916 Y148.411 E0.01204
G1 X103.632 Y148.026 E0.01156
G1 X103.364 Y147.582 E0.01254
G1 X103.063 Y146.975 E0.01639
G1 X102.826 Y146.360 E0.01593
G1 X102.428 Y145.024 E0.03373
G1 X102.160 Y143.919 E0.02749
G1 X102.026 Y143.136 E0.01922
G1 X100.984 Y131.270 E0.28809
G1 X98.091 Y64.953 E1.60538
G1 X98.076 Y64.148 E0.01949
G1 X98.107 Y63.366 E0.01893
G1 X98.168 Y62.744 E0.01511
G1 X98.303 Y61.942 E0.01967
G1 X98.518 Y61.125 E0.02043
G1 X98.816 Y60.317 E0.02082
G1 X99.300 Y59.359 E0.02596
G1 F5760
G1 X99.673 Y58.784 E-0.23732
G1 F5760
G1 X99.817 Y58.587 E-0.08445
G1 F5760
G1 X100.012 Y58.348 E-0.10691
G1 F5760
G1 X100.012 Y58.347 E-0.00029
G1 F5760
G1 X100.015 Y58.344 E-0.00135
G1 F5760
G1 X100.131 Y58.212 E-0.06093
G1 F5760
G1 X100.345 Y57.985 E-0.10824
G1 F5760
G1 X100.477 Y57.857 E-0.06354
G1 F5760
G1 X100.684 Y57.668 E-0.09696
G1 E-0.04000 F2100.00000
G1 X106.089 Y123.725 F7200.000
G1 E0.80000 F2100.00000
G1 F720
G1 X106.661 Y125.322 E0.04101
G1 X106.948 Y126.204 E0.02244
G1 X107.236 Y127.194 E0.02494
G1 X107.428 Y127.965 E0.01920
G1 X107.594 Y128.773 E0.01997
G1 X107.734 Y129.685 E0.02230
G1 X107.842 Y130.801 E0.02711
G1 X106.522 Y130.797 E0.03193
G1 X106.293 Y130.762 E0.00560
G1 X106.092 Y130.690 E0.00517
G1 X105.919 Y130.570 E0.00509
G1 X105.773 Y130.409 E0.00524
G1 X105.638 Y130.207 E0.00588
G1 X105.364 Y129.673 E0.01452
G1 X105.238 Y129.328 E0.00889
G1 X105.137 Y128.937 E0.00976
G1 X105.077 Y128.522 E0.01014
G1 X105.047 Y128.090 E0.01046
G1 X105.038 Y127.222 E0.02100
G1 X105.059 Y126.412 E0.01960
G1 X105.102 Y126.007 E0.00984
G1 X105.185 Y125.610 E0.00983
G1 X105.313 Y125.219 E0.00995
G1 X105.478 Y124.841 E0.00997
G1 F720
G1 X106.060 Y123.778 E0.02931
G1 X106.089 Y123.725 F7200.000
G1 F5760
G1 X106.089 Y123.725 E-0.02078
G1 F5760
G1 X106.661 Y125.322 E-0.58725
G1 F5760
G1 X106.797 Y125.739 E-0.15197
G1 E-0.04000 F2100.00000
G1 X115.702 Y85.981 F7200.000
G1 E0.80000 F2100.00000
G1 F1440
G1 X115.510 Y85.932 E0.00478
G1 X114.251 Y85.375 E0.03330
G1 X113.102 Y84.617 E0.03330
G1 X112.093 Y83.680 E0.03330
G1 X111.255 Y82.588 E0.03330
G1 X110.609 Y81.372 E0.03330
G1 X110.191 Y80.121 E0.03191
G1 X106.941 Y66.770 E0.33231
G1 X106.869 Y66.318 E0.01108
G1 X106.876 Y65.798 E0.01256
G1 X106.962 Y65.303 E0.01215
G1 X107.131 Y64.820 E0.01239
G1 X107.377 Y64.370 E0.01239
G1 X107.694 Y63.968 E0.01239
G1 X108.072 Y63.622 E0.01239
G1 X108.502 Y63.343 E0.01239
G1 X108.972 Y63.138 E0.01239
G1 X109.468 Y63.013 E0.01239
G1 X109.922 Y62.976 E0.01102
G1 F1440
G1 X140.084 Y62.976 E0.72946
G1 X140.545 Y63.016 E0.01119
G1 X141.032 Y63.138 E0.01215
G1 X141.502 Y63.343 E0.01239
G1 X141.932 Y63.622 E0.01239
G1 X142.310 Y63.968 E0.01239
G1 X142.626 Y64.370 E0.01239
G1 X142.873 Y64.820 E0.01239
G1 X143.042 Y65.303 E0.01239
G1 X143.130 Y65.808 E0.01239
G1 X143.134 Y66.320 E0.01239
G1 X143.063 Y66.770 E0.01102
G1 X139.813 Y80.121 E0.33230
G1 X139.395 Y81.372 E0.03191
G1 X138.749 Y82.588 E0.03330
G1 X137.911 Y83.680 E0.03330
G1 X136.903 Y84.617 E0.03330
G1 X135.753 Y85.375 E0.03330
G1 X134.494 Y85.932 E0.03330
G1 X133.160 Y86.272 E0.03330
G1 X131.845 Y86.382 E0.03191
G1 X118.159 Y86.382 E0.33099
G1 X116.844 Y86.272 E0.03191
G1 X115.760 Y85.995 E0.02707
G1 X115.856 Y85.620 F7200.000
G1 F1440
G1 X115.637 Y85.564 E0.00545
G1 X114.437 Y85.033 E0.03173
G1 X113.342 Y84.311 E0.03173
G1 X112.381 Y83.418 E0.03173
G1 X111.582 Y82.377 E0.03173
G1 X110.966 Y81.219 E0.03173
G1 X110.564 Y80.013 E0.03073
G1 X107.321 Y66.694 E0.33153
G1 X107.258 Y66.289 E0.00991
G1 X107.263 Y65.834 E0.01101
G1 X107.338 Y65.401 E0.01062
G1 X107.487 Y64.978 E0.01084
G1 X107.702 Y64.585 E0.01085
G1 X107.979 Y64.232 E0.01084
G1 X108.310 Y63.930 E0.01084
G1 X108.686 Y63.686 E0.01085
G1 X109.097 Y63.507 E0.01084
G1 X109.532 Y63.397 E0.01084
G1 X109.938 Y63.364 E0.00986
G1 F1440
G1 X140.067 Y63.364 E0.72867
G1 X140.481 Y63.399 E0.01003
G1 X140.907 Y63.507 E0.01062
G1 X141.318 Y63.686 E0.01085
G1 X141.694 Y63.930 E0.01084
G1 X142.025 Y64.232 E0.01084
G1 X142.302 Y64.585 E0.01084
G1 X142.517 Y64.978 E0.01084
G1 X142.666 Y65.401 E0.01085
G1 X142.743 Y65.843 E0.01084
G1 X142.746 Y66.291 E0.01084
G1 X142.683 Y66.694 E0.00986
G1 X139.440 Y80.013 E0.33153
G1 X139.038 Y81.219 E0.03073
G1 X138.422 Y82.377 E0.03173
G1 X137.623 Y83.418 E0.03173
G1 X136.662 Y84.311 E0.03173
G1 X135.567 Y85.034 E0.03173
G1 X134.367 Y85.564 E0.03173
G1 X133.095 Y85.888 E0.03173
G1 X131.829 Y85.994 E0.03073
G1 X118.175 Y85.994 E0.33021
G1 X116.909 Y85.888 E0.03074
G1 X115.914 Y85.635 E0.02483
G1 X116.010 Y85.259 F7200.000
G1 F1440
G1 X115.765 Y85.196 E0.00612
G1 X114.624 Y84.692 E0.03017
G1 X113.582 Y84.005 E0.03017
G1 X112.669 Y83.156 E0.03017
G1 X111.909 Y82.167 E0.03017
G1 X111.324 Y81.065 E0.03017
G1 X110.937 Y79.906 E0.02956
G1 X107.702 Y66.618 E0.33075
G1 X107.646 Y66.261 E0.00873
G1 X107.650 Y65.870 E0.00947
G1 X107.715 Y65.499 E0.00910
G1 X107.842 Y65.137 E0.00930
G1 X108.027 Y64.799 E0.00930
G1 X108.264 Y64.497 E0.00930
G1 X108.548 Y64.238 E0.00930
G1 X108.871 Y64.028 E0.00930
G1 X109.223 Y63.875 E0.00930
G1 X109.596 Y63.781 E0.00930
G1 X109.954 Y63.751 E0.00870
G1 F1440
G1 X140.051 Y63.751 E0.72788
G1 X140.416 Y63.783 E0.00887
G1 X140.781 Y63.875 E0.00910
G1 X141.133 Y64.029 E0.00930
G1 X141.456 Y64.238 E0.00930
G1 X141.740 Y64.497 E0.00930
G1 X141.977 Y64.799 E0.00930
G1 X142.162 Y65.137 E0.00930
G1 X142.289 Y65.499 E0.00930
G1 X142.355 Y65.878 E0.00930
G1 X142.358 Y66.263 E0.00930
G1 X142.302 Y66.618 E0.00870
G1 X139.067 Y79.906 E0.33075
G1 X138.680 Y81.065 E0.02956
G1 X138.095 Y82.167 E0.03017
G1 X137.335 Y83.156 E0.03017
G1 X136.422 Y84.005 E0.03017
G1 X135.380 Y84.692 E0.03017
G1 X134.239 Y85.196 E0.03017
G1 X133.031 Y85.505 E0.03017
G1 X131.813 Y85.606 E0.02956
G1 X118.191 Y85.606 E0.32943
G1 X116.973 Y85.505 E0.02956
G1 X116.068 Y85.274 E0.02260
G1 X116.164 Y84.898 F7200.000
G1 F900
G1 X115.892 Y84.828 E0.00678
G1 X114.810 Y84.350 E0.02860
G1 X113.823 Y83.699 E0.02860
G1 X112.957 Y82.894 E0.02860
G1 X112.236 Y81.956 E0.02860
G1 X111.681 Y80.912 E0.02860
G1 X111.310 Y79.798 E0.02839
G1 X108.083 Y66.542 E0.32998
G1 X108.034 Y66.233 E0.00755
G1 X108.038 Y65.906 E0.00792
G1 X108.092 Y65.597 E0.00757
G1 X108.197 Y65.295 E0.00775
G1 X108.352 Y65.014 E0.00775
G1 X108.550 Y64.762 E0.00775
G1 X108.786 Y64.546 E0.00775
G1 X109.055 Y64.371 E0.00775
G1 X109.349 Y64.243 E0.00775
G1 X109.660 Y64.165 E0.00775
G1 X109.970 Y64.139 E0.00754
G1 F900
G1 X140.034 Y64.139 E0.72709
G1 X140.352 Y64.167 E0.00771
G1 X140.655 Y64.243 E0.00757
G1 X140.949 Y64.371 E0.00775
G1 X141.218 Y64.546 E0.00775
G1 X141.454 Y64.762 E0.00775
G1 X141.652 Y65.014 E0.00775
G1 X141.807 Y65.295 E0.00775
G1 X141.913 Y65.597 E0.00775
G1 X141.967 Y65.913 E0.00775
G1 X141.970 Y66.234 E0.00775
G1 X141.921 Y66.542 E0.00754
G1 X138.694 Y79.798 E0.32998
G1 X138.323 Y80.912 E0.02839
G1 X137.768 Y81.956 E0.02860
G1 X137.047 Y82.894 E0.02860
G1 X136.181 Y83.699 E0.02860
G1 X135.194 Y84.350 E0.02860
G1 X134.112 Y84.828 E0.02860
G1 X132.966 Y85.121 E0.02860
G1 X131.797 Y85.218 E0.02839
G1 X118.207 Y85.218 E0.32865
G1 X117.038 Y85.121 E0.02839
G1 X116.222 Y84.913 E0.02036
G1 X115.974 Y85.105 F7200.000
G1 F5760
G1 X115.892 Y84.828 E-0.11795
G1 F5760
G1 X114.810 Y84.350 E-0.40960
G1 F5760
G1 X114.250 Y83.981 E-0.23246
G1 E-0.04000 F2100.00000
G1 X141.118 Y119.466 F7200.000
G1 E0.80000 F2100.00000
G1 F1440
G1 X141.689 Y120.423 E0.02695
G1 X142.246 Y121.459 E0.02846
G1 X142.729 Y122.513 E0.02802
G1 X142.919 Y123.019 E0.01307
G1 X143.086 Y123.547 E0.01340
G1 X143.227 Y124.086 E0.01348
G1 X143.343 Y124.634 E0.01354
G1 X143.429 Y125.167 E0.01307
G1 X143.468 Y125.623 E0.01105
G1 X143.431 Y125.823 E0.00491
G1 X143.280 Y126.175 E0.00929
G1 X143.103 Y126.458 E0.00805
G1 X143.040 Y126.523 E0.00219
G1 X142.247 Y127.093 E0.02362
G1 X142.807 Y128.922 E0.04626
G1 X143.649 Y129.057 E0.02060
G1 X143.709 Y129.106 E0.00187
G1 X143.947 Y129.365 E0.00851
G1 X144.158 Y129.671 E0.00900
G1 X144.352 Y130.031 E0.00989
G1 X144.520 Y130.426 E0.01038
G1 X144.666 Y130.856 E0.01099
G1 X144.787 Y131.305 E0.01124
G1 X144.965 Y132.250 E0.02325
G1 X145.077 Y133.258 E0.02453
G1 X145.139 Y134.282 E0.02480
G1 X145.156 Y135.314 E0.02497
G1 X145.126 Y136.336 E0.02474
G1 X145.088 Y136.815 E0.01162
G1 X145.028 Y137.263 E0.01093
G1 X144.938 Y137.676 E0.01021
G1 X144.810 Y138.077 E0.01020
G1 X144.637 Y138.487 E0.01075
G1 X144.427 Y138.918 E0.01160
G1 X143.932 Y139.841 E0.02534
G1 X143.412 Y140.721 E0.02471
G1 X142.852 Y141.566 E0.02453
G1 X142.245 Y142.364 E0.02425
G1 X141.940 Y142.718 E0.01130
G1 X141.617 Y143.056 E0.01131
G1 X140.884 Y143.722 E0.02395
G1 X140.097 Y144.331 E0.02407
G1 X139.243 Y144.921 E0.02510
G1 X135.601 Y147.255 E0.10462
G1 X134.706 Y147.791 E0.02523
G1 X133.804 Y148.292 E0.02494
G1 X132.892 Y148.745 E0.02463
G1 X131.952 Y149.146 E0.02472
G1 X131.009 Y149.479 E0.02419
G1 X130.566 Y149.607 E0.01116
G1 X129.582 Y149.824 E0.02435
G1 X129.114 Y149.896 E0.01145
G1 X128.072 Y150.014 E0.02538
G1 X123.750 Y150.420 E0.10497
G1 X121.608 Y150.569 E0.05194
G1 X120.573 Y150.604 E0.02504
G1 X119.548 Y150.596 E0.02479
G1 X118.546 Y150.530 E0.02429
G1 X117.567 Y150.398 E0.02390
G1 X116.589 Y150.190 E0.02418
G1 X115.619 Y149.918 E0.02435
G1 X114.635 Y149.586 E0.02512
G1 X113.659 Y149.218 E0.02523
G1 X111.671 Y148.399 E0.05200
G1 X107.739 Y146.652 E0.10406
G1 X107.183 Y146.354 E0.01524
G1 X107.061 Y146.266 E0.00365
G1 X106.881 Y146.091 E0.00606
G1 X106.680 Y145.804 E0.00848
G1 X106.512 Y145.471 E0.00902
G1 X106.361 Y145.072 E0.01032
G1 X106.076 Y144.110 E0.02427
G1 X105.836 Y143.121 E0.02460
G1 X105.760 Y142.683 E0.01077
G1 X105.720 Y142.269 E0.01005
G1 X105.726 Y141.887 E0.00925
G1 X105.778 Y141.533 E0.00866
G1 X105.882 Y141.180 E0.00888
G1 X106.038 Y140.820 E0.00950
G1 X106.246 Y140.444 E0.01039
G1 X106.495 Y140.062 E0.01103
G1 X106.772 Y139.688 E0.01125
G1 X107.393 Y138.977 E0.02282
G1 X107.729 Y138.651 E0.01133
G1 X108.073 Y138.355 E0.01096
G1 X108.622 Y137.948 E0.01654
G1 X108.969 Y137.504 E0.01362
G1 X109.219 Y137.122 E0.01105
G1 X109.443 Y136.680 E0.01198
G1 X109.616 Y136.166 E0.01310
G1 X109.702 Y135.596 E0.01395
G1 X109.678 Y135.061 E0.01294
G1 X109.607 Y134.633 E0.01050
G1 X109.050 Y131.968 E0.06586
G1 X109.124 Y131.968 E0.00180
G1 X108.888 Y129.540 E0.05899
G1 X108.739 Y128.568 E0.02378
G1 X108.563 Y127.707 E0.02127
G1 X108.359 Y126.891 E0.02034
G1 X108.060 Y125.862 E0.02592
G1 X107.762 Y124.945 E0.02331
G1 X107.163 Y123.275 E0.04292
G1 X106.910 Y121.994 E0.03157
G1 X106.801 Y121.141 E0.02080
G1 X106.741 Y120.270 E0.02112
G1 X106.717 Y119.047 E0.02958
G1 X106.602 Y118.797 E0.00665
G1 X106.479 Y117.792 E0.02450
G1 X106.434 Y117.113 E0.01646
G1 X106.415 Y116.422 E0.01672
G1 X106.461 Y115.037 E0.03352
G1 X106.589 Y113.604 E0.03478
G1 X106.766 Y112.147 E0.03550
G1 X106.968 Y110.708 E0.03515
G1 X107.223 Y109.305 E0.03448
G1 X108.067 Y105.690 E0.08979
G1 X108.674 Y102.809 E0.07120
G1 X108.848 Y102.203 E0.01524
G1 X109.071 Y101.646 E0.01451
G1 X109.313 Y101.247 E0.01128
G1 X109.660 Y100.854 E0.01269
G1 X110.137 Y100.429 E0.01546
G1 X110.653 Y100.033 E0.01573
G1 X111.202 Y99.662 E0.01603
G1 X111.749 Y99.348 E0.01525
G1 X111.958 Y99.251 E0.00556
G1 X113.356 Y98.797 E0.03555
G1 X113.050 Y96.937 E0.04560
G1 X112.840 Y96.205 E0.01842
G1 X111.490 Y92.637 E0.09225
G1 X109.675 Y87.961 E0.12132
G1 X107.808 Y83.304 E0.12135
G1 X104.947 Y76.369 E0.18143
G1 X104.494 Y75.225 E0.02975
G1 X104.060 Y74.079 E0.02963
G1 X103.653 Y72.929 E0.02952
G1 X103.272 Y71.773 E0.02944
G1 X102.923 Y70.611 E0.02934
G1 X102.609 Y69.445 E0.02921
G1 X102.336 Y68.275 E0.02904
G1 X102.111 Y67.106 E0.02880
G1 X101.944 Y65.942 E0.02845
G1 X101.848 Y64.779 E0.02822
G1 X101.837 Y64.232 E0.01323
G1 X101.854 Y63.688 E0.01315
G1 X101.906 Y63.165 E0.01271
G1 X101.995 Y62.665 E0.01228
G1 X102.126 Y62.189 E0.01195
G1 X102.302 Y61.732 E0.01183
G1 X102.517 Y61.305 E0.01156
G1 X102.778 Y60.907 E0.01152
G1 X102.883 Y60.779 E0.00399
G1 X103.217 Y60.451 E0.01133
G1 X103.342 Y60.355 E0.00382
G1 X103.732 Y60.116 E0.01106
G1 X104.150 Y59.930 E0.01106
G1 X104.610 Y59.785 E0.01168
G1 X105.106 Y59.679 E0.01227
G1 X105.643 Y59.607 E0.01309
G1 X106.210 Y59.557 E0.01377
G1 X107.412 Y59.493 E0.02911
G1 X111.130 Y59.421 E0.08995
G1 X116.119 Y59.398 E0.12067
G1 X136.120 Y59.404 E0.48370
G1 F1440
G1 X141.099 Y59.452 E0.12042
G1 X143.541 Y59.540 E0.05910
G1 X144.691 Y59.648 E0.02793
G1 X145.191 Y59.736 E0.01229
G1 X145.666 Y59.864 E0.01190
G1 X146.103 Y60.033 E0.01133
G1 X146.492 Y60.242 E0.01068
G1 X146.831 Y60.492 E0.01019
G1 X147.127 Y60.788 E0.01013
