; generated by Slic3r 1.30.0-prusa3d-release_candidate_1_3 on 2016-05-18 at 20:11:14

; external perimeters extrusion width = 0.45mm
; perimeters extrusion width = 0.45mm
; infill extrusion width = 0.45mm
; solid infill extrusion width = 0.45mm
; top infill extrusion width = 0.40mm

M107
M83  ; extruder relative mode
M104 S210 ; set extruder temp
M140 S55 ; set bed temp
M190 S55 ; wait for bed temp
M109 S210 ; wait for extruder temp
G28 W ; home all without mesh bed level
G80 ; mesh bed leveling
G1 Y-3.0 F1000.0 ; go outside pritn area
G1 X60.0 E9.0  F1000.0 ; intro line
G1 X100.0 E12.5  F1000.0 ; intro line
G21 ; set units to millimeters
G90 ; use absolute coordinates
M83 ; use relative distances for extrusion
G1 E-1.50000 F2100.00000
G1 Z0.150 F7200.000
G1 X80.693 Y100.382 F7200.000
G1 E1.50000 F2100.00000
M204 S1000
G1 F1800
G1 X81.788 Y99.515 E0.03378
G1 X124.130 Y82.949 E1.09963
G1 X125.870 Y82.949 E0.04208
G1 X168.212 Y99.515 E1.09963
G1 X169.308 Y100.382 E0.03379
G1 X185.501 Y123.850 E0.68956
G1 X185.923 Y125.151 E0.03307
G1 X185.561 Y126.470 E0.03307
G1 X184.536 Y127.374 E0.03307
G1 X183.546 Y127.594 E0.02451
G1 X166.395 Y127.671 E0.41480
G1 X145.203 Y127.731 E0.51253
G1 X104.797 Y127.731 E0.97722
G1 X83.605 Y127.671 E0.51253
G1 X66.454 Y127.594 E0.41480
G1 X65.145 Y127.196 E0.03307
G1 X64.270 Y126.146 E0.03307
G1 X64.088 Y124.974 E0.02867
G1 X64.501 Y123.834 E0.02932
G1 X80.658 Y100.431 E0.68780
G1 F5760
G1 X81.788 Y99.515 E-0.50368
G1 F5760
G1 X84.265 Y98.545 E-0.92132
G1 E-0.07500 F2100.00000
G1 X127.994 Y118.979 F7200.000
G1 E1.50000 F2100.00000
G1 F1440
G1 X122.006 Y118.979 E0.14481
G1 X121.556 Y120.751 E0.04420
G1 X120.194 Y115.644 E0.12782
G1 X119.427 Y115.408 E0.01940
G1 X117.988 Y115.093 E0.03563
G1 X116.509 Y114.956 E0.03592
G1 X115.025 Y115.001 E0.03592
G1 X113.557 Y115.229 E0.03592
G1 X112.129 Y115.636 E0.03592
G1 X110.761 Y116.214 E0.03592
G1 X109.475 Y116.957 E0.03592
G1 X108.290 Y117.852 E0.03592
G1 X107.224 Y118.886 E0.03592
G1 X106.293 Y120.043 E0.03592
G1 X105.511 Y121.305 E0.03592
G1 X104.890 Y122.655 E0.03592
G1 X104.441 Y124.067 E0.03583
G1 X104.306 Y124.744 E0.01669
G1 X83.614 Y124.686 E0.50045
G1 X69.080 Y124.620 E0.35152
G1 X71.390 Y123.470 E0.06242
G1 X74.835 Y121.187 E0.09994
G1 X77.973 Y118.498 E0.09994
G1 X80.747 Y115.456 E0.09957
G1 X81.181 Y114.904 E0.01697
G1 X81.700 Y114.121 E0.02273
G1 X82.575 Y112.492 E0.04471
G1 X83.246 Y110.760 E0.04493
G1 X83.699 Y108.958 E0.04493
G1 X83.927 Y107.115 E0.04493
G1 X83.927 Y105.257 E0.04493
G1 X83.699 Y103.413 E0.04494
G1 X83.451 Y102.433 E0.02444
G1 X86.596 Y102.803 E0.07659
G1 X91.660 Y102.959 E0.12255
G1 X93.427 Y102.989 E0.04273
G1 X100.712 Y102.314 E0.17695
G1 X104.321 Y101.638 E0.08881
G1 X105.892 Y101.446 E0.03827
G1 X108.899 Y100.788 E0.07444
G1 X111.810 Y99.762 E0.07465
G1 X114.573 Y98.386 E0.07465
G1 X116.445 Y97.145 E0.05432
G1 X117.146 Y96.681 E0.02033
G1 X119.490 Y94.673 E0.07465
G1 X121.569 Y92.392 E0.07465
G1 X123.353 Y89.873 E0.07465
G1 X124.808 Y87.161 E0.07443
G1 X125.019 Y86.663 E0.01309
G1 X125.875 Y88.535 E0.04978
G1 X127.500 Y91.160 E0.07467
G1 X129.435 Y93.564 E0.07465
G1 X131.651 Y95.713 E0.07465
G1 X134.114 Y97.573 E0.07465
G1 X136.788 Y99.117 E0.07465
G1 X139.630 Y100.320 E0.07465
G1 X142.599 Y101.164 E0.07465
G1 X152.918 Y102.764 E0.25254
G1 X160.243 Y102.990 E0.17726
G1 X166.527 Y102.413 E0.15261
G1 X166.158 Y104.332 E0.04724
G1 X166.044 Y106.186 E0.04493
G1 X166.158 Y108.040 E0.04493
G1 X166.500 Y109.866 E0.04493
G1 X167.063 Y111.637 E0.04493
G1 X167.839 Y113.324 E0.04493
G1 X168.818 Y114.905 E0.04497
G1 X170.592 Y117.019 E0.06674
G1 X173.555 Y119.891 E0.09979
G1 X176.852 Y122.381 E0.09994
G1 X180.428 Y124.446 E0.09985
G1 X180.827 Y124.620 E0.01054
G1 X166.386 Y124.686 E0.34926
G1 X145.706 Y124.743 E0.50015
G1 X145.357 Y123.355 E0.03462
G1 X144.820 Y121.970 E0.03592
G1 X144.118 Y120.662 E0.03592
G1 X143.259 Y119.450 E0.03592
G1 X142.259 Y118.352 E0.03592
G1 X141.131 Y117.386 E0.03592
G1 X139.893 Y116.566 E0.03592
G1 X138.564 Y115.904 E0.03592
G1 X137.163 Y115.410 E0.03592
G1 X135.712 Y115.093 E0.03592
G1 X134.234 Y114.956 E0.03592
G1 X132.749 Y115.001 E0.03592
G1 X131.285 Y115.229 E0.03584
G1 X129.809 Y115.632 E0.03699
G1 X128.444 Y120.751 E0.12812
G1 X128.009 Y119.037 E0.04275
G1 X127.692 Y119.367 F7200.000
G1 F1080
G1 X122.308 Y119.367 E0.13022
G1 X121.565 Y122.289 E0.07292
G1 X119.875 Y115.951 E0.15864
G1 X119.328 Y115.783 E0.01382
G1 X117.929 Y115.477 E0.03466
G1 X116.497 Y115.344 E0.03476
G1 X115.061 Y115.388 E0.03476
G1 X113.641 Y115.609 E0.03476
G1 X112.258 Y116.002 E0.03476
G1 X111.294 Y116.410 E0.02532
G1 X110.935 Y116.562 E0.00944
G1 X109.690 Y117.281 E0.03476
G1 X108.543 Y118.147 E0.03476
G1 X107.511 Y119.148 E0.03476
G1 X106.610 Y120.267 E0.03476
G1 X105.853 Y121.489 E0.03476
G1 X105.253 Y122.795 E0.03476
G1 X104.817 Y124.163 E0.03473
G1 X104.625 Y125.132 E0.02389
G1 X83.613 Y125.074 E0.50818
G1 X67.425 Y125.000 E0.39150
G1 X71.196 Y123.133 E0.10176
G1 X74.601 Y120.877 E0.09879
G1 X77.702 Y118.219 E0.09878
G1 X80.451 Y115.205 E0.09865
G1 X80.866 Y114.677 E0.01625
G1 X81.367 Y113.922 E0.02191
G1 X82.222 Y112.330 E0.04370
G1 X82.876 Y110.642 E0.04377
G1 X83.317 Y108.887 E0.04377
G1 X83.539 Y107.091 E0.04377
G1 X83.539 Y105.281 E0.04377
G1 X83.317 Y103.484 E0.04378
G1 X82.936 Y101.982 E0.03748
G1 X86.624 Y102.415 E0.08981
G1 X91.670 Y102.571 E0.12208
G1 X93.412 Y102.601 E0.04215
G1 X100.658 Y101.930 E0.17600
G1 X104.262 Y101.255 E0.08867
G1 X105.827 Y101.063 E0.03813
G1 X108.792 Y100.414 E0.07342
G1 X111.658 Y99.404 E0.07349
G1 X114.378 Y98.050 E0.07349
G1 X116.912 Y96.371 E0.07349
G1 X119.219 Y94.394 E0.07349
G1 X121.266 Y92.148 E0.07349
G1 X123.022 Y89.668 E0.07349
G1 X124.458 Y86.994 E0.07342
G1 X125.005 Y85.700 E0.03397
G1 X126.218 Y88.351 E0.07052
G1 X127.817 Y90.935 E0.07350
G1 X129.723 Y93.303 E0.07349
G1 X131.904 Y95.418 E0.07349
G1 X134.329 Y97.249 E0.07349
G1 X136.961 Y98.769 E0.07349
G1 X139.759 Y99.953 E0.07349
G1 X142.682 Y100.785 E0.07349
G1 X152.953 Y102.377 E0.25138
G1 X160.232 Y102.601 E0.17610
G1 X167.056 Y101.975 E0.16574
G1 X166.876 Y102.603 E0.01579
G1 X166.544 Y104.379 E0.04370
G1 X166.433 Y106.186 E0.04377
G1 X166.544 Y107.992 E0.04377
G1 X166.877 Y109.771 E0.04377
G1 X167.425 Y111.496 E0.04377
G1 X168.182 Y113.141 E0.04377
G1 X169.133 Y114.677 E0.04371
G1 X170.877 Y116.754 E0.06558
G1 X173.808 Y119.596 E0.09873
G1 X177.067 Y122.057 E0.09878
G1 X180.603 Y124.099 E0.09875
G1 X182.641 Y125.000 E0.05388
G1 X166.387 Y125.074 E0.39309
G1 X145.381 Y125.132 E0.50804
G1 X145.336 Y124.863 E0.00661
G1 X144.986 Y123.473 E0.03465
G1 X144.467 Y122.133 E0.03476
G1 X143.787 Y120.867 E0.03476
G1 X142.957 Y119.694 E0.03476
G1 X141.989 Y118.631 E0.03476
G1 X140.897 Y117.696 E0.03476
G1 X139.699 Y116.902 E0.03476
G1 X138.412 Y116.262 E0.03476
G1 X137.057 Y115.784 E0.03476
G1 X135.653 Y115.477 E0.03476
G1 X134.222 Y115.344 E0.03476
G1 X132.785 Y115.388 E0.03476
G1 X131.366 Y115.608 E0.03473
G1 X130.127 Y115.947 E0.03107
G1 X128.435 Y122.289 E0.15875
G1 X127.707 Y119.425 E0.07147
G1 X127.394 Y119.100 F7200.000
G1 X128.452 Y119.405 F7200.000
G1 F1440
G1 X128.450 Y119.656 E0.00312
G1 F1440
G1 X128.449 Y119.906 E0.00170
G1 F5760
G1 X128.450 Y119.656 E-0.08672
G1 E-1.41328 F2100.00000
G1 X128.443 Y120.944 F7200.000
G1 E1.50000 F2100.00000
G1 F1440
G1 X128.441 Y121.195 E0.00312
G1 F1440
G1 X128.440 Y121.445 E0.00170
G1 F5760
G1 X128.441 Y121.195 E-0.08672
G1 E-1.41328 F2100.00000
G1 X121.560 Y121.445 F7200.000
G1 E1.50000 F2100.00000
G1 F1440
G1 X121.559 Y121.195 E0.00170
G1 F1440
G1 X121.557 Y120.944 E0.00312
G1 F5760
G1 X121.559 Y121.195 E-0.08672
G1 E-1.41328 F2100.00000
G1 X121.551 Y119.906 F7200.000
G1 E1.50000 F2100.00000
G1 F1440
G1 X121.550 Y119.656 E0.00170
G1 F1440
G1 X121.548 Y119.405 E0.00312
G1 X121.727 Y118.989 F7200.000
G1 F1440
G1 X121.290 Y118.551 E0.01500
G1 X121.982 Y118.694 F7200.000
G1 F1440
G1 X121.090 Y117.802 E0.03058
G1 X120.890 Y117.052 E0.01881
G1 X122.532 Y118.694 E0.05628
G1 X123.081 Y118.694 E0.01332
G1 X120.690 Y116.302 E0.08198
G1 F5760
G1 X123.081 Y118.694 E-1.17141
G1 F5760
G1 X122.532 Y118.694 E-0.19038
G1 F5760
G1 X122.403 Y118.565 E-0.06321
G1 E-0.07500 F2100.00000
G1 X137.838 Y115.312 F7200.000
G1 E1.50000 F2100.00000
G1 F1440
G1 X118.435 Y95.908 E0.66513
G1 X118.139 Y96.162 E0.00945
G1 X137.050 Y115.073 E0.64827
G1 X136.347 Y114.919 E0.01746
G1 X117.843 Y96.415 E0.63429
G1 X117.547 Y96.669 E0.00945
G1 X135.672 Y114.794 E0.62131
G1 X135.066 Y114.738 E0.01475
G1 X117.247 Y96.919 E0.61083
G1 X116.916 Y97.138 E0.00961
G1 X134.460 Y114.682 E0.60139
G1 X133.911 Y114.682 E0.01331
G1 X116.585 Y97.357 E0.59390
G1 X116.255 Y97.576 E0.00961
G1 X133.378 Y114.699 E0.58696
G1 X132.845 Y114.715 E0.01293
G1 X115.924 Y97.795 E0.58001
G1 X115.594 Y98.014 E0.00961
G1 X132.364 Y114.784 E0.57486
G1 X131.888 Y114.858 E0.01167
G1 X115.263 Y98.233 E0.56988
G1 X114.932 Y98.452 E0.00961
G1 X131.412 Y114.932 E0.56490
G1 X130.969 Y115.038 E0.01104
G1 X114.594 Y98.663 E0.56132
G1 X114.227 Y98.846 E0.00994
G1 X130.537 Y115.156 E0.55911
G1 X130.106 Y115.274 E0.01085
G1 X113.860 Y99.029 E0.55689
G1 X113.493 Y99.211 E0.00994
G1 X129.674 Y115.392 E0.55467
G1 X129.497 Y115.765 E0.01000
G1 X113.126 Y99.394 E0.56119
G1 X112.759 Y99.577 E0.00994
G1 X129.382 Y116.199 E0.56980
G1 X129.266 Y116.633 E0.01089
G1 X112.392 Y99.759 E0.57841
G1 X112.025 Y99.942 E0.00994
G1 X129.150 Y117.067 E0.58702
G1 X129.034 Y117.501 E0.01089
G1 X111.635 Y100.102 E0.59642
G1 X111.229 Y100.245 E0.01045
G1 X128.918 Y117.935 E0.60638
G1 X128.803 Y118.369 E0.01089
G1 X110.822 Y100.388 E0.61635
G1 X110.416 Y100.532 E0.01045
G1 X128.687 Y118.803 E0.62631
G1 X128.028 Y118.694 E0.01618
G1 X110.010 Y100.675 E0.61767
G1 X109.603 Y100.818 E0.01045
G1 X127.479 Y118.694 E0.61276
G1 X126.929 Y118.694 E0.01332
G1 X109.197 Y100.961 E0.60785
G1 X108.776 Y101.091 E0.01066
G1 X126.379 Y118.694 E0.60341
G1 X125.830 Y118.694 E0.01332
G1 X108.325 Y101.189 E0.60003
G1 X107.874 Y101.288 E0.01119
G1 X125.280 Y118.694 E0.59664
G1 X124.730 Y118.694 E0.01332
G1 X107.424 Y101.387 E0.59326
G1 X106.973 Y101.486 E0.01119
G1 X124.181 Y118.694 E0.58987
G1 X123.631 Y118.694 E0.01332
G1 X106.522 Y101.584 E0.58649
G1 X106.071 Y101.683 E0.01119
G1 X119.499 Y115.111 E0.46030
G1 X118.795 Y114.957 E0.01746
G1 X105.598 Y101.760 E0.45237
G1 X105.108 Y101.820 E0.01196
G1 X118.096 Y114.808 E0.44521
G1 X117.490 Y114.752 E0.01475
G1 X104.619 Y101.880 E0.44123
G1 X104.138 Y101.949 E0.01177
G1 X116.884 Y114.696 E0.43694
G1 X116.318 Y114.678 E0.01375
G1 X103.675 Y102.036 E0.43337
G1 X103.212 Y102.122 E0.01142
G1 X115.784 Y114.695 E0.43096
G1 X115.251 Y114.711 E0.01293
G1 X102.749 Y102.209 E0.42855
G1 X102.286 Y102.296 E0.01142
G1 X114.756 Y114.766 E0.42746
G1 X114.280 Y114.840 E0.01167
G1 X101.823 Y102.383 E0.42702
G1 X101.360 Y102.469 E0.01142
G1 X113.804 Y114.914 E0.42658
G1 X113.352 Y115.011 E0.01122
G1 X100.897 Y102.556 E0.42694
G1 X100.413 Y102.621 E0.01185
G1 X112.924 Y115.133 E0.42887
G1 X112.496 Y115.254 E0.01078
G1 X99.910 Y102.668 E0.43144
G1 X99.407 Y102.715 E0.01225
G1 X112.070 Y115.378 E0.43409
G1 X111.684 Y115.542 E0.01017
G1 X98.904 Y102.761 E0.43809
G1 X98.401 Y102.808 E0.01225
G1 X111.298 Y115.705 E0.44210
G1 X110.912 Y115.868 E0.01017
G1 X97.898 Y102.855 E0.44610
G1 X97.395 Y102.901 E0.01225
G1 X110.540 Y116.047 E0.45063
G1 X110.192 Y116.248 E0.00975
G1 X96.892 Y102.948 E0.45592
G1 X96.389 Y102.994 E0.01225
G1 X109.844 Y116.449 E0.46122
G1 X109.495 Y116.651 E0.00975
G1 X95.885 Y103.041 E0.46652
G1 X95.382 Y103.088 E0.01225
G1 X109.168 Y116.873 E0.47254
G1 X108.854 Y117.109 E0.00951
G1 X94.879 Y103.134 E0.47905
G1 X94.376 Y103.181 E0.01225
G1 X108.541 Y117.346 E0.48556
G1 X108.228 Y117.582 E0.00951
G1 X93.873 Y103.227 E0.49207
G1 X93.370 Y103.274 E0.01225
G1 X107.939 Y117.842 E0.49939
G1 X107.660 Y118.113 E0.00942
G1 X92.812 Y103.266 E0.50895
G1 X92.253 Y103.256 E0.01356
G1 X107.380 Y118.384 E0.51856
G1 X107.101 Y118.654 E0.00942
G1 X91.693 Y103.246 E0.52817
G1 X91.128 Y103.230 E0.01371
G1 X106.848 Y118.951 E0.53887
G1 X106.603 Y119.255 E0.00948
G1 X90.561 Y103.213 E0.54991
G1 X89.994 Y103.196 E0.01375
G1 X106.358 Y119.560 E0.56095
G1 X106.113 Y119.864 E0.00948
G1 X89.426 Y103.178 E0.57199
G1 X88.859 Y103.161 E0.01375
G1 X105.897 Y120.198 E0.58404
G1 X105.687 Y120.538 E0.00968
G1 X88.292 Y103.143 E0.59627
G1 X87.725 Y103.126 E0.01375
G1 X105.477 Y120.877 E0.60851
G1 X105.267 Y121.217 E0.00968
G1 X87.158 Y103.108 E0.62076
G1 X86.591 Y103.091 E0.01375
G1 X105.094 Y121.594 E0.63426
G1 X104.920 Y121.970 E0.01004
G1 X85.978 Y103.028 E0.64932
G1 X85.355 Y102.955 E0.01520
G1 X104.747 Y122.347 E0.66473
G1 X104.587 Y122.736 E0.01021
G1 X84.733 Y102.882 E0.68058
G1 X84.110 Y102.808 E0.01520
G1 X104.454 Y123.153 E0.69739
G1 X104.322 Y123.570 E0.01061
G1 X83.967 Y103.215 E0.69774
G1 X84.052 Y103.849 E0.01551
G1 X104.189 Y123.987 E0.69029
G1 X104.091 Y124.438 E0.01120
G1 X84.129 Y104.477 E0.68426
G1 X84.207 Y105.104 E0.01532
G1 X103.558 Y124.456 E0.66335
G1 X103.007 Y124.454 E0.01336
G1 X84.213 Y105.660 E0.64425
G1 X84.213 Y106.209 E0.01332
G1 X102.456 Y124.453 E0.62536
G1 X101.905 Y124.451 E0.01336
G1 X84.213 Y106.759 E0.60646
G1 X84.185 Y107.281 E0.01266
G1 X101.354 Y124.450 E0.58853
G1 X100.802 Y124.448 E0.01336
G1 X84.124 Y107.770 E0.57171
G1 X84.064 Y108.259 E0.01195
G1 X100.251 Y124.446 E0.55489
G1 X99.700 Y124.445 E0.01336
G1 X84.003 Y108.748 E0.53807
G1 X83.913 Y109.207 E0.01134
G1 X99.149 Y124.443 E0.52228
G1 X98.598 Y124.442 E0.01336
G1 X83.802 Y109.647 E0.50717
G1 X83.692 Y110.086 E0.01098
G1 X98.046 Y124.440 E0.49206
G1 X97.495 Y124.439 E0.01336
G1 X83.581 Y110.525 E0.47695
G1 X83.454 Y110.947 E0.01069
G1 X96.944 Y124.437 E0.46243
G1 X96.393 Y124.436 E0.01336
G1 X83.300 Y111.343 E0.44880
G1 X83.147 Y111.739 E0.01030
G1 X95.842 Y124.434 E0.43516
G1 X95.290 Y124.433 E0.01336
G1 X82.993 Y112.136 E0.42153
G1 X82.840 Y112.532 E0.01030
G1 X94.739 Y124.431 E0.40790
G1 X94.188 Y124.430 E0.01336
G1 X82.651 Y112.893 E0.39548
G1 X82.459 Y113.250 E0.00984
G1 X93.637 Y124.428 E0.38316
G1 X93.085 Y124.426 E0.01336
G1 X82.267 Y113.608 E0.37085
G1 X82.075 Y113.965 E0.00984
G1 X92.534 Y124.425 E0.35854
G1 X91.983 Y124.423 E0.01336
G1 X81.876 Y114.316 E0.34648
G1 X81.656 Y114.646 E0.00961
G1 X91.432 Y124.422 E0.33509
G1 X90.881 Y124.420 E0.01336
G1 X81.437 Y114.977 E0.32371
G1 X81.199 Y115.289 E0.00951
G1 X90.329 Y124.419 E0.31297
G1 X89.778 Y124.417 E0.01336
G1 X80.957 Y115.596 E0.30238
G1 X80.696 Y115.885 E0.00943
G1 X89.227 Y124.416 E0.29243
G1 X88.676 Y124.414 E0.01336
G1 X80.434 Y116.172 E0.28253
G1 X80.172 Y116.460 E0.00943
G1 X88.125 Y124.413 E0.27262
G1 X87.573 Y124.411 E0.01336
G1 X79.910 Y116.747 E0.26271
G1 X79.648 Y117.035 E0.00943
G1 X87.022 Y124.410 E0.25280
G1 X86.471 Y124.408 E0.01336
G1 X79.385 Y117.322 E0.24289
G1 X79.123 Y117.610 E0.00943
G1 X85.920 Y124.407 E0.23298
G1 X85.369 Y124.405 E0.01336
G1 X78.861 Y117.898 E0.22307
G1 X78.599 Y118.185 E0.00943
G1 X84.817 Y124.403 E0.21316
G1 X84.266 Y124.402 E0.01336
G1 X78.337 Y118.473 E0.20325
G1 X78.065 Y118.751 E0.00942
G1 X83.715 Y124.400 E0.19366
G1 X83.163 Y124.398 E0.01338
G1 X77.769 Y119.004 E0.18488
G1 X77.473 Y119.258 E0.00945
G1 X82.611 Y124.395 E0.17610
G1 X82.058 Y124.393 E0.01338
G1 X77.177 Y119.512 E0.16732
G1 X76.881 Y119.765 E0.00945
G1 X81.506 Y124.390 E0.15854
G1 X80.954 Y124.388 E0.01338
G1 X76.585 Y120.019 E0.14976
G1 X76.289 Y120.273 E0.00945
G1 X80.402 Y124.385 E0.14098
G1 X79.850 Y124.383 E0.01338
G1 X75.993 Y120.526 E0.13220
G1 X75.697 Y120.780 E0.00945
G1 X79.298 Y124.380 E0.12342
G1 X78.745 Y124.378 E0.01338
G1 X75.401 Y121.033 E0.11464
G1 X75.105 Y121.287 E0.00945
G1 X78.193 Y124.375 E0.10586
G1 X77.641 Y124.373 E0.01338
G1 X74.790 Y121.521 E0.09775
G1 X74.459 Y121.740 E0.00961
G1 X77.089 Y124.370 E0.09015
G1 X76.537 Y124.368 E0.01338
G1 X74.128 Y121.959 E0.08256
G1 X73.798 Y122.179 E0.00961
G1 X75.985 Y124.365 E0.07496
G1 X75.432 Y124.363 E0.01338
G1 X73.467 Y122.398 E0.06737
G1 X73.137 Y122.617 E0.00961
G1 X74.880 Y124.360 E0.05977
G1 X74.328 Y124.358 E0.01338
