; generated by Slic3r 1.30.0-prusa3d-release_candidate_1_3 on 2016-05-18 at 20:13:44

; external perimeters extrusion width = 0.45mm
; perimeters extrusion width = 0.45mm
; infill extrusion width = 0.45mm
; solid infill extrusion width = 0.45mm
; top infill extrusion width = 0.40mm

M107
M83  ; extruder relative mode
M104 S210 ; set extruder temp
M140 S55 ; set bed temp
M190 S55 ; wait for bed temp
M109 S210 ; wait for extruder temp
G28 W ; home all without mesh bed level
G80 ; mesh bed leveling
G1 Y-3.0 F1000.0 ; go outside pritn area
G1 X60.0 E9.0  F1000.0 ; intro line
G1 X100.0 E12.5  F1000.0 ; intro line
G21 ; set units to millimeters
G90 ; use absolute coordinates
M83 ; use relative distances for extrusion
G1 E-1.50000 F2100.00000
G1 Z0.150 F7200.000
G1 X107.891 Y96.358 F7200.000
G1 E1.50000 F2100.00000
M204 S1000
G1 F1800
G1 X108.569 Y95.645 E0.02381
G1 X109.522 Y94.789 E0.03097
G1 X110.318 Y94.188 E0.02413
G1 X111.363 Y93.527 E0.02991
G1 X112.457 Y92.970 E0.02969
G1 X112.703 Y92.863 E0.00648
G1 X113.847 Y92.440 E0.02949
G1 X115.029 Y92.128 E0.02957
G1 X116.227 Y91.932 E0.02937
G1 X117.453 Y91.851 E0.02972
G1 X118.671 Y91.888 E0.02946
G1 X119.639 Y91.999 E0.02358
G1 X120.870 Y92.249 E0.03038
G1 X121.984 Y92.578 E0.02810
G1 X122.918 Y92.938 E0.02420
G1 X124.128 Y93.524 E0.03250
G1 X125.246 Y94.204 E0.03164
G1 X144.257 Y108.035 E0.56860
G1 X145.177 Y109.191 E0.03571
G1 X145.400 Y110.280 E0.02689
G1 X145.400 Y115.374 E0.12321
G1 X145.007 Y116.798 E0.03571
G1 X143.940 Y117.818 E0.03571
G1 X142.624 Y118.150 E0.03281
G1 X117.766 Y118.150 E0.60118
G1 X116.366 Y118.078 E0.03390
G1 X115.378 Y117.941 E0.02414
G1 X114.174 Y117.671 E0.02983
G1 X113.921 Y117.599 E0.00637
G1 X112.759 Y117.194 E0.02975
G1 X111.640 Y116.680 E0.02978
G1 X110.812 Y116.208 E0.02304
G1 X109.812 Y115.520 E0.02935
G1 X108.874 Y114.732 E0.02963
G1 X108.015 Y113.857 E0.02966
G1 X107.237 Y112.896 E0.02991
G1 X106.429 Y111.657 E0.03578
G1 X105.992 Y110.833 E0.02256
G1 X105.673 Y110.136 E0.01853
G1 X105.165 Y108.723 E0.03632
G1 X104.861 Y107.509 E0.03027
G1 X104.670 Y106.273 E0.03023
G1 X104.606 Y105.308 E0.02340
G1 X104.626 Y104.093 E0.02939
G1 X104.764 Y102.879 E0.02955
G1 X105.021 Y101.680 E0.02964
G1 X105.388 Y100.521 E0.02942
G1 X105.482 Y100.273 E0.00640
G1 X105.987 Y99.151 E0.02976
G1 X106.595 Y98.084 E0.02970
G1 X107.290 Y97.086 E0.02942
G1 X107.851 Y96.404 E0.02136
G1 X108.174 Y96.623 F7200.000
G1 F1800
G1 X108.831 Y95.931 E0.02307
G1 X109.756 Y95.099 E0.03009
G1 X110.552 Y94.498 E0.02412
G1 X111.567 Y93.856 E0.02905
G1 X112.841 Y93.225 E0.03438
G1 X113.950 Y92.814 E0.02861
G1 X115.095 Y92.510 E0.02866
G1 X116.257 Y92.319 E0.02848
G1 X117.445 Y92.238 E0.02880
G1 X118.627 Y92.273 E0.02859
G1 X119.595 Y92.384 E0.02358
G1 X120.789 Y92.628 E0.02948
G1 X121.849 Y92.941 E0.02672
G1 X122.753 Y93.288 E0.02341
G1 X123.929 Y93.857 E0.03161
G1 X125.017 Y94.518 E0.03079
G1 X144.029 Y108.349 E0.56860
G1 X144.858 Y109.437 E0.03307
G1 X145.012 Y110.280 E0.02073
G1 X145.012 Y115.374 E0.12321
G1 X144.620 Y116.685 E0.03307
G1 X143.574 Y117.565 E0.03307
G1 X142.624 Y117.762 E0.02346
G1 X117.766 Y117.762 E0.60118
G1 X116.420 Y117.694 E0.03261
G1 X115.431 Y117.556 E0.02414
G1 X114.263 Y117.293 E0.02897
G1 X112.917 Y116.840 E0.03433
G1 X111.832 Y116.343 E0.02886
G1 X111.004 Y115.871 E0.02304
G1 X110.035 Y115.203 E0.02847
G1 X109.127 Y114.438 E0.02872
G1 X108.295 Y113.588 E0.02877
G1 X107.541 Y112.655 E0.02901
G1 X106.770 Y111.473 E0.03412
G1 X106.345 Y110.671 E0.02196
G1 X106.026 Y109.975 E0.01853
G1 X105.540 Y108.625 E0.03469
G1 X105.243 Y107.446 E0.02941
G1 X105.057 Y106.248 E0.02932
G1 X104.993 Y105.283 E0.02340
G1 X105.014 Y104.103 E0.02852
G1 X105.149 Y102.927 E0.02864
G1 X105.399 Y101.766 E0.02872
G1 X105.838 Y100.429 E0.03404
G1 X106.326 Y99.340 E0.02886
G1 X106.915 Y98.303 E0.02884
G1 X107.474 Y97.487 E0.02392
G1 X108.135 Y96.668 E0.02545
G1 F5760
G1 X108.695 Y96.065 E-0.28529
G1 F5760
G1 X108.695 Y96.065 E-0.00002
G1 F5760
G1 X108.698 Y96.062 E-0.00120
G1 F5760
G1 X108.831 Y95.931 E-0.06472
G1 F5760
G1 X109.579 Y95.246 E-0.35147
G1 F5760
G1 X109.579 Y95.246 E-0.00004
G1 F5760
G1 X109.583 Y95.243 E-0.00160
G1 F5760
G1 X109.756 Y95.099 E-0.07790
G1 F5760
G1 X110.548 Y94.501 E-0.34378
G1 F5760
G1 X110.548 Y94.500 E-0.00014
G1 F5760
G1 X110.552 Y94.498 E-0.00156
G1 F5760
G1 X110.732 Y94.374 E-0.07598
G1 F5760
G1 X111.276 Y94.037 E-0.22130
G1 E-0.07500 F2100.00000
G1 X142.026 Y114.777 F7200.000
G1 E1.50000 F2100.00000
G1 F1440
G1 X117.780 Y114.777 E0.58640
G1 X116.804 Y114.733 E0.02362
G1 X115.870 Y114.603 E0.02280
G1 X114.971 Y114.393 E0.02233
G1 X114.108 Y114.102 E0.02202
G1 X113.285 Y113.734 E0.02181
G1 X112.507 Y113.291 E0.02164
G1 X111.775 Y112.777 E0.02164
G1 X111.094 Y112.192 E0.02172
G1 X110.467 Y111.540 E0.02188
G1 X109.898 Y110.822 E0.02215
G1 X109.388 Y110.037 E0.02264
G1 X109.051 Y109.411 E0.01719
G1 X108.751 Y108.754 E0.01746
G1 X108.423 Y107.845 E0.02338
G1 X108.185 Y106.933 E0.02280
G1 X108.034 Y106.022 E0.02233
G1 X107.974 Y105.113 E0.02202
G1 X107.998 Y104.216 E0.02171
G1 X108.108 Y103.324 E0.02172
G1 X108.305 Y102.451 E0.02166
G1 X108.585 Y101.599 E0.02169
G1 X108.948 Y100.768 E0.02192
G1 X109.394 Y99.968 E0.02215
G1 X109.923 Y99.195 E0.02266
G1 X110.370 Y98.646 E0.01712
G1 X110.864 Y98.118 E0.01749
G1 X111.577 Y97.464 E0.02341
G1 X112.329 Y96.897 E0.02277
G1 X113.115 Y96.409 E0.02239
G1 X113.927 Y96.007 E0.02190
G1 X114.772 Y95.684 E0.02188
G1 X115.634 Y95.446 E0.02164
G1 X116.516 Y95.293 E0.02164
G1 X117.412 Y95.224 E0.02173
G1 X118.311 Y95.243 E0.02174
G1 X119.227 Y95.347 E0.02231
G1 X120.143 Y95.543 E0.02264
G1 X120.822 Y95.745 E0.01715
G1 X121.498 Y95.998 E0.01744
G1 X122.425 Y96.436 E0.02479
G1 X123.281 Y96.947 E0.02411
G1 X124.067 Y97.529 E0.02366
G1 X124.779 Y98.176 E0.02328
G1 X125.415 Y98.885 E0.02302
G1 X125.973 Y99.651 E0.02293
G1 X126.451 Y100.471 E0.02295
G1 X126.844 Y101.341 E0.02309
G1 X127.154 Y102.256 E0.02336
G1 X127.374 Y103.226 E0.02406
G1 X127.948 Y106.435 E0.07883
G1 X128.291 Y107.522 E0.02757
G1 X128.646 Y108.366 E0.02213
G1 X128.975 Y108.970 E0.01665
G1 X129.359 Y109.519 E0.01620
G1 X129.656 Y109.860 E0.01095
G1 X129.987 Y110.164 E0.01086
G1 X130.353 Y110.425 E0.01088
G1 X130.760 Y110.637 E0.01109
G1 X131.188 Y110.781 E0.01092
G1 X131.441 Y110.837 E0.00628
G1 X131.898 Y110.878 E0.01109
G1 X142.026 Y110.878 E0.24495
G1 X142.026 Y114.717 E0.09284
G1 X142.414 Y115.164 F7200.000
G1 F1080
G1 X117.771 Y115.164 E0.59599
G1 X116.768 Y115.120 E0.02427
G1 X115.799 Y114.985 E0.02367
G1 X114.865 Y114.766 E0.02321
G1 X113.967 Y114.463 E0.02291
G1 X113.109 Y114.081 E0.02272
G1 X112.299 Y113.619 E0.02255
G1 X111.537 Y113.083 E0.02253
G1 X110.827 Y112.474 E0.02263
G1 X110.175 Y111.795 E0.02277
G1 X109.583 Y111.049 E0.02304
G1 X109.054 Y110.235 E0.02347
G1 X108.704 Y109.584 E0.01788
G1 X108.391 Y108.901 E0.01815
G1 X108.052 Y107.960 E0.02420
G1 X107.805 Y107.013 E0.02366
G1 X107.649 Y106.066 E0.02322
G1 X107.586 Y105.121 E0.02291
G1 X107.611 Y104.187 E0.02260
G1 X107.726 Y103.258 E0.02264
G1 X107.931 Y102.348 E0.02256
G1 X108.222 Y101.460 E0.02259
G1 X108.600 Y100.596 E0.02282
G1 X109.064 Y99.764 E0.02304
G1 X109.612 Y98.963 E0.02347
G1 X110.077 Y98.391 E0.01783
G1 X110.590 Y97.842 E0.01818
G1 X111.329 Y97.166 E0.02422
G1 X112.109 Y96.577 E0.02364
G1 X112.927 Y96.070 E0.02326
G1 X113.771 Y95.651 E0.02279
G1 X114.651 Y95.316 E0.02277
G1 X115.550 Y95.067 E0.02255
G1 X116.468 Y94.908 E0.02254
G1 X117.401 Y94.836 E0.02264
G1 X118.337 Y94.855 E0.02264
G1 X119.290 Y94.964 E0.02320
G1 X120.239 Y95.167 E0.02346
G1 X120.946 Y95.377 E0.01784
G1 X121.649 Y95.640 E0.01816
G1 X122.607 Y96.094 E0.02564
G1 X123.496 Y96.624 E0.02503
G1 X124.313 Y97.229 E0.02460
G1 X125.055 Y97.903 E0.02423
G1 X125.717 Y98.640 E0.02398
G1 X126.299 Y99.439 E0.02389
G1 X126.796 Y100.293 E0.02391
G1 X127.206 Y101.199 E0.02403
G1 X127.528 Y102.151 E0.02430
G1 X127.754 Y103.149 E0.02476
G1 X128.325 Y106.342 E0.07844
G1 X128.656 Y107.388 E0.02654
G1 X128.996 Y108.197 E0.02123
G1 X129.305 Y108.766 E0.01565
G1 X129.664 Y109.280 E0.01516
G1 X129.935 Y109.589 E0.00993
G1 X130.231 Y109.863 E0.00976
G1 X130.556 Y110.094 E0.00964
G1 X130.912 Y110.279 E0.00971
G1 X131.291 Y110.407 E0.00967
G1 X131.500 Y110.453 E0.00517
G1 X131.916 Y110.490 E0.01008
G1 X142.414 Y110.490 E0.25391
G1 X142.414 Y115.104 E0.11160
G1 X142.018 Y115.109 F7200.000
G1 F5760
G1 X138.300 Y115.114 E-1.42500
G1 E-0.07500 F2100.00000
G1 X141.741 Y111.368 F7200.000
G1 E1.50000 F2100.00000
G1 F1440
G1 X141.536 Y111.163 E0.00704
G1 X140.984 Y111.163 E0.01345
G1 X141.741 Y111.920 E0.02606
G1 X141.741 Y112.472 E0.01345
G1 X140.432 Y111.163 E0.04507
G1 X139.880 Y111.163 E0.01345
G1 X141.741 Y113.024 E0.06409
G1 X141.741 Y113.577 E0.01345
G1 X139.328 Y111.163 E0.08310
G1 X138.775 Y111.163 E0.01345
G1 X141.741 Y114.129 E0.10212
G1 X141.551 Y114.491 E0.00996
G1 X138.223 Y111.163 E0.11459
G1 X137.671 Y111.163 E0.01345
G1 X140.999 Y114.491 E0.11459
G1 X140.447 Y114.491 E0.01345
G1 X137.119 Y111.163 E0.11459
G1 X136.567 Y111.163 E0.01345
G1 X139.894 Y114.491 E0.11459
G1 X139.342 Y114.491 E0.01345
G1 X136.014 Y111.163 E0.11459
G1 X135.462 Y111.163 E0.01345
G1 X138.790 Y114.491 E0.11459
G1 X138.238 Y114.491 E0.01345
G1 X134.910 Y111.163 E0.11459
G1 X134.358 Y111.163 E0.01345
G1 X137.686 Y114.491 E0.11459
G1 X137.134 Y114.491 E0.01345
G1 X133.806 Y111.163 E0.11459
G1 X133.254 Y111.163 E0.01345
G1 X136.581 Y114.491 E0.11459
G1 X136.029 Y114.491 E0.01345
G1 X132.701 Y111.163 E0.11459
G1 X132.149 Y111.163 E0.01345
G1 X135.477 Y114.491 E0.11459
G1 X134.925 Y114.491 E0.01345
G1 X131.577 Y111.143 E0.11528
G1 X130.899 Y111.018 E0.01679
G1 X134.373 Y114.491 E0.11961
G1 X133.820 Y114.491 E0.01345
G1 X129.761 Y110.431 E0.13980
G1 X129.134 Y109.805 F7200.000
G1 F1440
G1 X115.178 Y95.849 E0.48058
G1 X114.750 Y95.973 E0.01086
G1 X133.268 Y114.491 E0.63768
G1 X132.716 Y114.491 E0.01345
G1 X114.350 Y96.125 E0.63243
G1 X113.954 Y96.281 E0.01037
G1 X132.164 Y114.491 E0.62708
G1 X131.612 Y114.491 E0.01345
G1 X113.585 Y96.464 E0.62077
G1 X113.216 Y96.647 E0.01003
G1 X131.060 Y114.491 E0.61446
G1 X130.507 Y114.491 E0.01345
G1 X112.874 Y96.858 E0.60720
G1 X112.533 Y97.069 E0.00977
G1 X129.955 Y114.491 E0.59992
G1 X129.403 Y114.491 E0.01345
G1 X112.213 Y97.301 E0.59195
G1 X111.898 Y97.538 E0.00960
G1 X128.851 Y114.491 E0.58377
G1 X128.299 Y114.491 E0.01345
G1 X111.596 Y97.788 E0.57517
G1 X111.310 Y98.055 E0.00951
G1 X127.746 Y114.491 E0.56598
G1 X127.194 Y114.491 E0.01345
G1 X111.034 Y98.331 E0.55648
G1 X110.758 Y98.607 E0.00951
G1 X126.642 Y114.491 E0.54697
G1 X126.090 Y114.491 E0.01345
G1 X110.493 Y98.894 E0.53709
G1 X110.245 Y99.199 E0.00956
G1 X125.538 Y114.491 E0.52660
G1 X124.986 Y114.491 E0.01345
G1 X110.011 Y99.516 E0.51567
G1 X109.786 Y99.844 E0.00967
G1 X124.433 Y114.491 E0.50439
G1 X123.881 Y114.491 E0.01345
G1 X109.569 Y100.179 E0.49284
G1 X109.371 Y100.534 E0.00988
G1 X123.329 Y114.491 E0.48063
G1 X122.777 Y114.491 E0.01345
G1 X109.177 Y100.891 E0.46831
G1 X109.009 Y101.275 E0.01021
G1 X122.225 Y114.491 E0.45508
G1 X121.672 Y114.491 E0.01345
G1 X108.842 Y101.661 E0.44182
G1 X108.706 Y102.077 E0.01066
G1 X121.120 Y114.491 E0.42750
G1 X120.568 Y114.491 E0.01345
G1 X108.572 Y102.495 E0.41310
G1 X108.470 Y102.945 E0.01125
G1 X120.016 Y114.491 E0.39759
G1 X119.464 Y114.491 E0.01345
G1 X108.377 Y103.404 E0.38179
G1 X108.316 Y103.895 E0.01205
G1 X118.912 Y114.491 E0.36488
G1 X118.359 Y114.491 E0.01345
G1 X108.276 Y104.408 E0.34722
G1 X108.262 Y104.946 E0.01311
G1 X117.804 Y114.488 E0.32859
G1 X117.226 Y114.462 E0.01409
G1 X108.294 Y105.529 E0.30761
G1 X108.359 Y106.147 E0.01513
G1 X116.619 Y114.407 E0.28442
G1 X115.972 Y114.312 E0.01592
G1 X108.473 Y106.813 E0.25824
G1 X108.667 Y107.560 E0.01880
G1 X115.251 Y114.143 E0.22670
G1 X114.433 Y113.878 E0.02094
G1 X108.964 Y108.409 E0.18831
G1 F5760
G1 X111.874 Y111.318 E-1.42500
G1 E-0.07500 F2100.00000
G1 X109.450 Y109.447 F7200.000
G1 E1.50000 F2100.00000
G1 F1440
G1 X113.435 Y113.432 E0.13723
G1 F5760
G1 X110.526 Y110.523 E-1.42500
G1 E-0.07500 F2100.00000
G1 X111.629 Y112.178 F7200.000
G1 E1.50000 F2100.00000
G1 F1440
G1 X110.647 Y111.196 E0.03382
G1 F5760
G1 X111.629 Y112.178 E-0.48113
G1 E-1.01887 F2100.00000
G1 X115.611 Y95.729 F7200.000
G1 E1.50000 F2100.00000
G1 F1440
G1 X128.329 Y108.448 E0.43796
G1 X127.965 Y107.531 F7200.000
G1 F1440
G1 X116.080 Y95.646 E0.40927
G1 X116.556 Y95.570 E0.01175
G1 X127.709 Y106.723 E0.38405
G1 X127.569 Y106.031 E0.01719
G1 X117.069 Y95.531 E0.36159
G1 X117.606 Y95.515 E0.01307
G1 X127.449 Y105.359 E0.33897
G1 X127.329 Y104.687 E0.01663
G1 X118.170 Y95.527 E0.31541
G1 X118.789 Y95.595 E0.01518
G1 X127.209 Y104.014 E0.28993
G1 X127.086 Y103.339 E0.01670
G1 X119.454 Y95.707 E0.26283
G1 X120.178 Y95.879 E0.01813
G1 X126.924 Y102.625 E0.23230
G1 X126.673 Y101.822 E0.02049
G1 X121.006 Y96.155 E0.19516
G1 F5760
G1 X123.915 Y99.064 E-1.42500
G1 E-0.07500 F2100.00000
G1 X122.004 Y96.601 F7200.000
G1 E1.50000 F2100.00000
G1 F1440
G1 X126.273 Y100.869 E0.14699
G1 F5760
G1 X123.363 Y97.960 E-1.42500
G1 E-0.07500 F2100.00000
G1 X125.364 Y99.408 F7200.000
G1 E1.50000 F2100.00000
G1 F1440
G1 X123.503 Y97.548 E0.06407
M106 S252.45
G1 F5760
G1 X125.364 Y99.408 E-0.91140
G1 E-0.58860 F2100.00000
G1 Z0.350 F7200.000
G1 X141.992 Y114.742 F7200.000
G1 E1.50000 F2100.00000
M204 S800
G1 F2400
G1 X117.780 Y114.742 E0.81954
G1 X116.807 Y114.699 E0.03298
G1 X115.876 Y114.569 E0.03180
G1 X114.980 Y114.360 E0.03115
G1 X114.121 Y114.070 E0.03070
G1 X113.300 Y113.704 E0.03041
G1 X112.526 Y113.262 E0.03018
G1 X111.796 Y112.750 E0.03017
G1 X111.117 Y112.167 E0.03029
G1 X110.493 Y111.517 E0.03051
G1 X109.926 Y110.802 E0.03089
G1 X109.417 Y110.020 E0.03158
G1 X109.082 Y109.396 E0.02398
G1 X108.782 Y108.741 E0.02436
G1 X108.455 Y107.835 E0.03263
G1 X108.218 Y106.926 E0.03181
G1 X108.068 Y106.018 E0.03114
G1 X108.009 Y105.112 E0.03071
G1 X108.032 Y104.214 E0.03042
G1 X108.142 Y103.330 E0.03014
G1 X108.338 Y102.460 E0.03020
G1 X108.617 Y101.611 E0.03025
G1 X108.979 Y100.783 E0.03057
G1 X109.423 Y99.986 E0.03089
G1 X109.951 Y99.216 E0.03161
G1 X110.396 Y98.669 E0.02387
G1 X110.888 Y98.142 E0.02440
G1 X111.599 Y97.491 E0.03266
G1 X112.348 Y96.925 E0.03175
G1 X113.132 Y96.439 E0.03123
G1 X113.944 Y96.036 E0.03068
G1 X114.782 Y95.717 E0.03036
G1 X115.642 Y95.480 E0.03019
G1 X116.520 Y95.327 E0.03018
G1 X117.413 Y95.258 E0.03031
G1 X118.299 Y95.277 E0.02998
G1 X119.222 Y95.381 E0.03146
G1 X120.134 Y95.576 E0.03157
G1 X120.812 Y95.778 E0.02391
G1 X121.485 Y96.029 E0.02433
G1 X122.408 Y96.466 E0.03460
G1 X123.262 Y96.975 E0.03363
G1 X124.045 Y97.555 E0.03299
G1 X124.755 Y98.201 E0.03247
G1 X125.388 Y98.906 E0.03210
G1 X125.945 Y99.670 E0.03198
G1 X126.421 Y100.487 E0.03200
G1 X126.812 Y101.354 E0.03220
G1 X127.121 Y102.265 E0.03257
G1 X127.340 Y103.233 E0.03359
G1 X127.914 Y106.443 E0.11038
G1 X128.259 Y107.534 E0.03872
G1 X128.623 Y108.400 E0.03181
G1 X128.947 Y108.989 E0.02274
G1 X129.331 Y109.540 E0.02276
G1 X129.632 Y109.884 E0.01545
G1 X129.965 Y110.191 E0.01534
G1 X130.335 Y110.454 E0.01539
G1 X130.746 Y110.668 E0.01568
G1 X131.178 Y110.814 E0.01543
G1 X131.436 Y110.871 E0.00893
G1 X131.897 Y110.912 E0.01565
G1 X141.992 Y110.912 E0.34172
G1 X141.992 Y114.682 E0.12762
M204 S1000
G1 X142.399 Y115.149 F7200.000
M204 S800
G1 F1800
G1 X117.771 Y115.149 E0.83362
G1 X116.770 Y115.105 E0.03394
G1 X115.802 Y114.970 E0.03308
G1 X114.869 Y114.752 E0.03243
G1 X113.972 Y114.449 E0.03201
G1 X113.116 Y114.067 E0.03174
G1 X112.307 Y113.606 E0.03151
G1 X111.546 Y113.071 E0.03149
G1 X110.837 Y112.463 E0.03162
G1 X110.186 Y111.785 E0.03182
G1 X109.595 Y111.040 E0.03220
G1 X109.067 Y110.227 E0.03280
G1 X108.717 Y109.577 E0.02499
G1 X108.405 Y108.896 E0.02537
G1 X108.066 Y107.956 E0.03383
G1 X107.819 Y107.010 E0.03307
G1 X107.663 Y106.064 E0.03245
G1 X107.601 Y105.121 E0.03202
G1 X107.626 Y104.183 E0.03173
G1 X107.741 Y103.260 E0.03149
G1 X107.946 Y102.352 E0.03153
G1 X108.236 Y101.466 E0.03156
G1 X108.613 Y100.602 E0.03189
G1 X109.076 Y99.772 E0.03219
G1 X109.624 Y98.972 E0.03281
