; generated by Slic3r 1.30.0.25-prusa3d-release_candidate_1_3 on 2016-06-19 at 19:55:53

;

external perimeters extrusion width = 0.45mm
;
perimeters extrusion width = 0.45mm
;
infill extrusion width = 0.45mm
;
solid infill extrusion width = 0.45mm
;
top infill extrusion width = 0.40mm


M107
M83  ; extruder relative mode
M104 S210 ; set extruder temp
M140 S55 ; set bed temp
M190 S55 ; wait for bed temp
M109 S210 ; wait for extruder temp
G28 W ; home all without mesh bed level
G80 ; mesh bed leveling
G1 Y-3.0 F1000.0 ; go outside pritn area
G1 X60.0 E9.0  F1000.0 ; intro line
G1 X100.0 E12.5  F1000.0 ; intro line
G21 ; set units to millimeters

G90 ; use absolute coordinates

M83 ; use relative distances for extrusion

G1 E-0.80000 F2100.00000
G1 Z0.150 F7200.000
G1 X78.299 Y93.058 F7200.000
G1 E0.80000 F2100.00000
M204 S1000
G1 F1800
G1 X79.249 Y92.861 E0.02346
G1 X170.751 Y92.861 E2.21295
G1 X172.061 Y93.252 E0.03307
G1 X172.942 Y94.299 E0.03307
G1 X173.139 Y95.249 E0.02346
G1 X173.139 Y114.751 E0.47168
G1 X172.747 Y116.062 E0.03307
G1 X171.701 Y116.942 E0.03307
G1 X170.751 Y117.139 E0.02346
G1 X79.249 Y117.139 E2.21295
G1 X77.939 Y116.748 E0.03307
G1 X77.058 Y115.701 E0.03307
G1 X76.861 Y114.751 E0.02346
G1 X76.861 Y95.249 E0.47168
G1 X77.253 Y93.938 E0.03307
G1 X78.254 Y93.096 E0.03162
G1 F5760
G1 X79.249 Y92.861 E-0.35439
G1 F5760
G1 X80.420 Y92.861 E-0.40561
G1 E-0.04000 F2100.00000
G1 X170.153 Y114.154 F7200.000
G1 E0.80000 F2100.00000
G1 F1440
G1 X79.847 Y114.154 E2.18404
G1 X79.847 Y95.846 E0.44276
G1 X170.153 Y95.846 E2.18404
G1 X170.153 Y114.094 E0.44131
G1 X170.541 Y114.541 F7200.000
G1 F1080
G1 X79.459 Y114.541 E2.20280
G1 X79.459 Y95.458 E0.46152
G1 X170.541 Y95.458 E2.20280
G1 X170.541 Y114.481 E0.46007
G1 X170.142 Y114.514 F7200.000
G1 F5760
G1 X168.346 Y114.483 E-0.76000
G1 E-0.04000 F2100.00000
G1 X169.926 Y96.278 F7200.000
G1 E0.80000 F2100.00000
G1 F1440
G1 X169.721 Y96.074 E0.00702
G1 X169.171 Y96.074 E0.01335
G1 X169.926 Y96.828 E0.02590
G1 X169.926 Y97.379 E0.01335
G1 X168.621 Y96.074 E0.04478
G1 X168.070 Y96.074 E0.01335
G1 X169.926 Y97.929 E0.06366
G1 X169.926 Y98.479 E0.01335
G1 X167.520 Y96.074 E0.08254
G1 X166.970 Y96.074 E0.01335
G1 X169.926 Y99.029 E0.10142
G1 X169.926 Y99.580 E0.01335
G1 X166.420 Y96.074 E0.12030
G1 X165.869 Y96.074 E0.01335
G1 X169.926 Y100.130 E0.13918
G1 X169.926 Y100.680 E0.01335
G1 X165.319 Y96.074 E0.15806
G1 X164.769 Y96.074 E0.01335
G1 X169.926 Y101.230 E0.17694
G1 X169.926 Y101.780 E0.01335
G1 X164.219 Y96.074 E0.19582
G1 X163.669 Y96.074 E0.01335
G1 X169.926 Y102.331 E0.21470
G1 X169.926 Y102.881 E0.01335
G1 X163.118 Y96.074 E0.23359
G1 X162.568 Y96.074 E0.01335
G1 X169.926 Y103.431 E0.25247
G1 X169.926 Y103.981 E0.01335
G1 X162.018 Y96.074 E0.27135
G1 X161.468 Y96.074 E0.01335
G1 X169.926 Y104.532 E0.29023
G1 X169.926 Y105.082 E0.01335
G1 X160.917 Y96.074 E0.30911
G1 X160.367 Y96.074 E0.01335
G1 X169.926 Y105.632 E0.32799
G1 X169.926 Y106.182 E0.01335
G1 X159.817 Y96.074 E0.34687
G1 X159.267 Y96.074 E0.01335
G1 X169.926 Y106.733 E0.36575
G1 X169.926 Y107.283 E0.01335
G1 X158.716 Y96.074 E0.38463
G1 X158.166 Y96.074 E0.01335
G1 X169.926 Y107.833 E0.40351
G1 X169.926 Y108.383 E0.01335
G1 X157.616 Y96.074 E0.42239
G1 X157.066 Y96.074 E0.01335
G1 X169.926 Y108.933 E0.44127
G1 X169.926 Y109.484 E0.01335
G1 X156.516 Y96.074 E0.46015
G1 X155.965 Y96.074 E0.01335
G1 X169.926 Y110.034 E0.47903
G1 X169.926 Y110.584 E0.01335
G1 X155.415 Y96.074 E0.49791
G1 X154.865 Y96.074 E0.01335
G1 X169.926 Y111.134 E0.51679
G1 X169.926 Y111.685 E0.01335
G1 X154.315 Y96.074 E0.53567
G1 X153.764 Y96.074 E0.01335
G1 X169.926 Y112.235 E0.55455
G1 X169.926 Y112.785 E0.01335
G1 X153.214 Y96.074 E0.57344
G1 X152.664 Y96.074 E0.01335
G1 X169.926 Y113.335 E0.59232
G1 X169.926 Y113.886 E0.01335
G1 X152.114 Y96.074 E0.61120
G1 X151.563 Y96.074 E0.01335
G1 X169.416 Y113.926 E0.61260
G1 X168.866 Y113.926 E0.01335
G1 X151.013 Y96.074 E0.61260
G1 X150.463 Y96.074 E0.01335
G1 X168.316 Y113.926 E0.61260
G1 X167.765 Y113.926 E0.01335
G1 X149.913 Y96.074 E0.61260
G1 X149.363 Y96.074 E0.01335
G1 X167.215 Y113.926 E0.61260
G1 X166.665 Y113.926 E0.01335
G1 X148.812 Y96.074 E0.61260
G1 X148.262 Y96.074 E0.01335
G1 X166.115 Y113.926 E0.61260
G1 X165.565 Y113.926 E0.01335
G1 X147.712 Y96.074 E0.61260
G1 X147.162 Y96.074 E0.01335
G1 X165.014 Y113.926 E0.61260
G1 X164.464 Y113.926 E0.01335
G1 X146.611 Y96.074 E0.61260
G1 X146.061 Y96.074 E0.01335
G1 X163.914 Y113.926 E0.61260
G1 X163.364 Y113.926 E0.01335
G1 X145.511 Y96.074 E0.61260
G1 X144.961 Y96.074 E0.01335
G1 X162.813 Y113.926 E0.61260
G1 X162.263 Y113.926 E0.01335
G1 X144.410 Y96.074 E0.61260
G1 X143.860 Y96.074 E0.01335
G1 X161.713 Y113.926 E0.61260
G1 X161.163 Y113.926 E0.01335
G1 X143.310 Y96.074 E0.61260
G1 X142.760 Y96.074 E0.01335
G1 X160.612 Y113.926 E0.61260
G1 X160.062 Y113.926 E0.01335
G1 X142.210 Y96.074 E0.61260
G1 X141.659 Y96.074 E0.01335
G1 X159.512 Y113.926 E0.61260
G1 X158.962 Y113.926 E0.01335
G1 X141.109 Y96.074 E0.61260
G1 X140.559 Y96.074 E0.01335
G1 X158.412 Y113.926 E0.61260
G1 X157.861 Y113.926 E0.01335
G1 X140.009 Y96.074 E0.61260
G1 X139.458 Y96.074 E0.01335
G1 X157.311 Y113.926 E0.61260
G1 X156.761 Y113.926 E0.01335
G1 X138.908 Y96.074 E0.61260
G1 X138.358 Y96.074 E0.01335
G1 X156.211 Y113.926 E0.61260
G1 X155.660 Y113.926 E0.01335
G1 X137.808 Y96.074 E0.61260
G1 X137.257 Y96.074 E0.01335
G1 X155.110 Y113.926 E0.61260
G1 X154.560 Y113.926 E0.01335
G1 X136.707 Y96.074 E0.61260
G1 X136.157 Y96.074 E0.01335
G1 X154.010 Y113.926 E0.61260
G1 X153.459 Y113.926 E0.01335
G1 X135.607 Y96.074 E0.61260
G1 X135.057 Y96.074 E0.01335
G1 X152.909 Y113.926 E0.61260
G1 X152.359 Y113.926 E0.01335
G1 X134.506 Y96.074 E0.61260
G1 X133.956 Y96.074 E0.01335
G1 X151.809 Y113.926 E0.61260
G1 X151.259 Y113.926 E0.01335
G1 X133.406 Y96.074 E0.61260
G1 X132.856 Y96.074 E0.01335
G1 X150.708 Y113.926 E0.61260
G1 X150.158 Y113.926 E0.01335
G1 X132.305 Y96.074 E0.61260
G1 X131.755 Y96.074 E0.01335
G1 X149.608 Y113.926 E0.61260
G1 X149.058 Y113.926 E0.01335
G1 X131.205 Y96.074 E0.61260
G1 X130.655 Y96.074 E0.01335
G1 X148.507 Y113.926 E0.61260
G1 X147.957 Y113.926 E0.01335
G1 X130.104 Y96.074 E0.61260
G1 X129.554 Y96.074 E0.01335
G1 X147.407 Y113.926 E0.61260
G1 X146.857 Y113.926 E0.01335
G1 X129.004 Y96.074 E0.61260
G1 X128.454 Y96.074 E0.01335
G1 X146.306 Y113.926 E0.61260
G1 X145.756 Y113.926 E0.01335
G1 X127.904 Y96.074 E0.61260
G1 X127.353 Y96.074 E0.01335
G1 X145.206 Y113.926 E0.61260
G1 X144.656 Y113.926 E0.01335
G1 X126.803 Y96.074 E0.61260
G1 X126.253 Y96.074 E0.01335
G1 X144.106 Y113.926 E0.61260
G1 X143.555 Y113.926 E0.01335
G1 X125.703 Y96.074 E0.61260
G1 X125.152 Y96.074 E0.01335
G1 X143.005 Y113.926 E0.61260
G1 X142.455 Y113.926 E0.01335
G1 X124.602 Y96.074 E0.61260
G1 X124.052 Y96.074 E0.01335
G1 X141.905 Y113.926 E0.61260
G1 X141.354 Y113.926 E0.01335
G1 X123.502 Y96.074 E0.61260
G1 X122.951 Y96.074 E0.01335
G1 X140.804 Y113.926 E0.61260
G1 X140.254 Y113.926 E0.01335
G1 X122.401 Y96.074 E0.61260
G1 X121.851 Y96.074 E0.01335
G1 X139.704 Y113.926 E0.61260
G1 X139.153 Y113.926 E0.01335
G1 X121.301 Y96.074 E0.61260
G1 X120.751 Y96.074 E0.01335
G1 X138.603 Y113.926 E0.61260
G1 X138.053 Y113.926 E0.01335
G1 X120.200 Y96.074 E0.61260
G1 X119.650 Y96.074 E0.01335
G1 X137.503 Y113.926 E0.61260
G1 X136.953 Y113.926 E0.01335
G1 X119.100 Y96.074 E0.61260
G1 X118.550 Y96.074 E0.01335
G1 X136.402 Y113.926 E0.61260
G1 X135.852 Y113.926 E0.01335
G1 X117.999 Y96.074 E0.61260
G1 X117.449 Y96.074 E0.01335
G1 X135.302 Y113.926 E0.61260
G1 X134.752 Y113.926 E0.01335
G1 X116.899 Y96.074 E0.61260
G1 X116.349 Y96.074 E0.01335
G1 X134.201 Y113.926 E0.61260
G1 X133.651 Y113.926 E0.01335
G1 X115.798 Y96.074 E0.61260
G1 X115.248 Y96.074 E0.01335
G1 X133.101 Y113.926 E0.61260
G1 X132.551 Y113.926 E0.01335
G1 X114.698 Y96.074 E0.61260
G1 X114.148 Y96.074 E0.01335
G1 X132.000 Y113.926 E0.61260
G1 X131.450 Y113.926 E0.01335
G1 X113.598 Y96.074 E0.61260
G1 X113.047 Y96.074 E0.01335
G1 X130.900 Y113.926 E0.61260
G1 X130.350 Y113.926 E0.01335
G1 X112.497 Y96.074 E0.61260
G1 X111.947 Y96.074 E0.01335
G1 X129.800 Y113.926 E0.61260
G1 X129.249 Y113.926 E0.01335
G1 X111.397 Y96.074 E0.61260
G1 X110.846 Y96.074 E0.01335
G1 X128.699 Y113.926 E0.61260
G1 X128.149 Y113.926 E0.01335
G1 X110.296 Y96.074 E0.61260
G1 X109.746 Y96.074 E0.01335
G1 X127.599 Y113.926 E0.61260
G1 X127.048 Y113.926 E0.01335
G1 X109.196 Y96.074 E0.61260
G1 X108.645 Y96.074 E0.01335
G1 X126.498 Y113.926 E0.61260
G1 X125.948 Y113.926 E0.01335
G1 X108.095 Y96.074 E0.61260
G1 X107.545 Y96.074 E0.01335
G1 X125.398 Y113.926 E0.61260
G1 X124.847 Y113.926 E0.01335
G1 X106.995 Y96.074 E0.61260
G1 X106.445 Y96.074 E0.01335
G1 X124.297 Y113.926 E0.61260
G1 X123.747 Y113.926 E0.01335
G1 X105.894 Y96.074 E0.61260
G1 X105.344 Y96.074 E0.01335
G1 X123.197 Y113.926 E0.61260
G1 X122.647 Y113.926 E0.01335
G1 X104.794 Y96.074 E0.61260
G1 X104.244 Y96.074 E0.01335
G1 X122.096 Y113.926 E0.61260
G1 X121.546 Y113.926 E0.01335
G1 X103.693 Y96.074 E0.61260
G1 X103.143 Y96.074 E0.01335
G1 X120.996 Y113.926 E0.61260
G1 X120.446 Y113.926 E0.01335
G1 X102.593 Y96.074 E0.61260
G1 X102.043 Y96.074 E0.01335
G1 X119.895 Y113.926 E0.61260
G1 X119.345 Y113.926 E0.01335
G1 X101.492 Y96.074 E0.61260
G1 X100.942 Y96.074 E0.01335
G1 X118.795 Y113.926 E0.61260
G1 X118.245 Y113.926 E0.01335
G1 X100.392 Y96.074 E0.61260
G1 X99.842 Y96.074 E0.01335
G1 X117.694 Y113.926 E0.61260
G1 X117.144 Y113.926 E0.01335
G1 X99.292 Y96.074 E0.61260
G1 X98.741 Y96.074 E0.01335
G1 X116.594 Y113.926 E0.61260
G1 X116.044 Y113.926 E0.01335
G1 X98.191 Y96.074 E0.61260
G1 X97.641 Y96.074 E0.01335
G1 X115.494 Y113.926 E0.61260
G1 X114.943 Y113.926 E0.01335
G1 X97.091 Y96.074 E0.61260
G1 X96.540 Y96.074 E0.01335
G1 X114.393 Y113.926 E0.61260
G1 X113.843 Y113.926 E0.01335
G1 X95.990 Y96.074 E0.61260
G1 X95.440 Y96.074 E0.01335
G1 X113.293 Y113.926 E0.61260
G1 X112.742 Y113.926 E0.01335
G1 X94.890 Y96.074 E0.61260
G1 X94.339 Y96.074 E0.01335
G1 X112.192 Y113.926 E0.61260
G1 X111.642 Y113.926 E0.01335
G1 X93.789 Y96.074 E0.61260
G1 X93.239 Y96.074 E0.01335
G1 X111.092 Y113.926 E0.61260
G1 X110.541 Y113.926 E0.01335
G1 X92.689 Y96.074 E0.61260
G1 X92.139 Y96.074 E0.01335
G1 X109.991 Y113.926 E0.61260
G1 X109.441 Y113.926 E0.01335
G1 X91.588 Y96.074 E0.61260
G1 X91.038 Y96.074 E0.01335
G1 X108.891 Y113.926 E0.61260
G1 X108.341 Y113.926 E0.01335
G1 X90.488 Y96.074 E0.61260
G1 X89.938 Y96.074 E0.01335
G1 X107.790 Y113.926 E0.61260
G1 X107.240 Y113.926 E0.01335
G1 X89.387 Y96.074 E0.61260
G1 X88.837 Y96.074 E0.01335
G1 X106.690 Y113.926 E0.61260
G1 X106.140 Y113.926 E0.01335
G1 X88.287 Y96.074 E0.61260
G1 X87.737 Y96.074 E0.01335
G1 X105.589 Y113.926 E0.61260
G1 X105.039 Y113.926 E0.01335
G1 X87.186 Y96.074 E0.61260
G1 X86.636 Y96.074 E0.01335
G1 X104.489 Y113.926 E0.61260
G1 X103.939 Y113.926 E0.01335
G1 X86.086 Y96.074 E0.61260
G1 X85.536 Y96.074 E0.01335
G1 X103.388 Y113.926 E0.61260
G1 X102.838 Y113.926 E0.01335
G1 X84.986 Y96.074 E0.61260
G1 X84.435 Y96.074 E0.01335
G1 X102.288 Y113.926 E0.61260
G1 X101.738 Y113.926 E0.01335
G1 X83.885 Y96.074 E0.61260
G1 X83.335 Y96.074 E0.01335
G1 X101.188 Y113.926 E0.61260
G1 X100.637 Y113.926 E0.01335
G1 X82.785 Y96.074 E0.61260
G1 X82.234 Y96.074 E0.01335
G1 X100.087 Y113.926 E0.61260
G1 X99.537 Y113.926 E0.01335
G1 X81.684 Y96.074 E0.61260
G1 X81.134 Y96.074 E0.01335
G1 X98.987 Y113.926 E0.61260
G1 X98.436 Y113.926 E0.01335
G1 X80.584 Y96.074 E0.61260
G1 X80.074 Y96.115 E0.01240
G1 X97.886 Y113.926 E0.61119
G1 X97.336 Y113.926 E0.01335
G1 X80.074 Y96.665 E0.59231
G1 X80.074 Y97.215 E0.01335
G1 X96.786 Y113.926 E0.57343
G1 X96.235 Y113.926 E0.01335
G1 X80.074 Y97.765 E0.55455
G1 X80.074 Y98.316 E0.01335
G1 X95.685 Y113.926 E0.53567
G1 X95.135 Y113.926 E0.01335
G1 X80.074 Y98.866 E0.51679
G1 X80.074 Y99.416 E0.01335
G1 X94.585 Y113.926 E0.49791
G1 X94.035 Y113.926 E0.01335
G1 X80.074 Y99.966 E0.47903
G1 X80.074 Y100.516 E0.01335
G1 X93.484 Y113.926 E0.46015
G1 X92.934 Y113.926 E0.01335
G1 X80.074 Y101.067 E0.44126
G1 X80.074 Y101.617 E0.01335
G1 X92.384 Y113.926 E0.42238
G1 X91.834 Y113.926 E0.01335
G1 X80.074 Y102.167 E0.40350
G1 X80.074 Y102.717 E0.01335
G1 X91.283 Y113.926 E0.38462
G1 X90.733 Y113.926 E0.01335
G1 X80.074 Y103.268 E0.36574
G1 X80.074 Y103.818 E0.01335
G1 X90.183 Y113.926 E0.34686
G1 X89.633 Y113.926 E0.01335
G1 X80.074 Y104.368 E0.32798
G1 X80.074 Y104.918 E0.01335
G1 X89.082 Y113.926 E0.30910
G1 X88.532 Y113.926 E0.01335
G1 X80.074 Y105.469 E0.29022
G1 X80.074 Y106.019 E0.01335
G1 X87.982 Y113.926 E0.27134
G1 X87.432 Y113.926 E0.01335
G1 X80.074 Y106.569 E0.25246
G1 X80.074 Y107.119 E0.01335
G1 X86.882 Y113.926 E0.23358
G1 X86.331 Y113.926 E0.01335
G1 X80.074 Y107.669 E0.21470
G1 X80.074 Y108.220 E0.01335
G1 X85.781 Y113.926 E0.19582
G1 X85.231 Y113.926 E0.01335
G1 X80.074 Y108.770 E0.17694
G1 X80.074 Y109.320 E0.01335
G1 X84.681 Y113.926 E0.15806
G1 X84.130 Y113.926 E0.01335
G1 X80.074 Y109.870 E0.13918
G1 X80.074 Y110.421 E0.01335
G1 X83.580 Y113.926 E0.12029
G1 X83.030 Y113.926 E0.01335
G1 X80.074 Y110.971 E0.10141
G1 X80.074 Y111.521 E0.01335
G1 X82.480 Y113.926 E0.08253
G1 X81.929 Y113.926 E0.01335
G1 X80.074 Y112.071 E0.06365
G1 X80.074 Y112.622 E0.01335
G1 X81.379 Y113.926 E0.04477
G1 X80.829 Y113.926 E0.01335
G1 X80.074 Y113.172 E0.02589
M106 S216.75
G1 F5760
G1 X80.829 Y113.926 E-0.36960
G1 F5760
G1 X81.379 Y113.926 E-0.19057
G1 F5760
G1 X80.971 Y113.518 E-0.19983
G1 E-0.04000 F2100.00000
G1 Z0.350 F7200.000
G1 X170.119 Y114.119 F7200.000
G1 E0.80000 F2100.00000
M204 S800
G1 F2400
G1 X79.881 Y114.119 E3.05443
G1 X79.881 Y95.881 E0.61736
G1 X170.119 Y95.881 E3.05443
G1 X170.119 Y114.059 E0.61533
M204 S1000
G1 X170.526 Y114.526 F7200.000
M204 S800
G1 F1800
G1 X79.474 Y114.526 E3.08198
G1 X79.474 Y95.473 E0.64492
G1 X170.526 Y95.473 E3.08198
G1 X170.526 Y114.466 E0.64289
M204 S1000
G1 X170.127 Y114.499 F7200.000
G1 F5760
G1 X168.331 Y114.468 E-0.76000
G1 E-0.04000 F2100.00000
G1 X169.666 Y113.880 F7200.000
G1 E0.80000 F2100.00000
M204 S2000
G1 F2400
G1 X169.879 Y113.667 E0.01018
G1 X169.879 Y113.091 E0.01949
G1 X169.091 Y113.880 E0.03775
G1 X168.515 Y113.880 E0.01949
G1 X169.879 Y112.516 E0.06531
G1 X169.879 Y111.940 E0.01949
G1 X167.939 Y113.880 E0.09288
G1 X167.363 Y113.880 E0.01949
G1 X169.879 Y111.364 E0.12044
G1 X169.879 Y110.788 E0.01949
G1 X166.787 Y113.880 E0.14801
G1 X166.212 Y113.880 E0.01949
G1 X169.879 Y110.212 E0.17557
G1 X169.879 Y109.637 E0.01949
G1 X165.636 Y113.880 E0.20314
G1 X165.060 Y113.880 E0.01949
G1 X169.879 Y109.061 E0.23070
G1 X169.879 Y108.485 E0.01949
G1 X164.484 Y113.880 E0.25827
G1 X163.909 Y113.880 E0.01949
G1 X169.879 Y107.909 E0.28583
G1 X169.879 Y107.334 E0.01949
G1 X163.333 Y113.880 E0.31340
G1 X162.757 Y113.880 E0.01949
G1 X169.879 Y106.758 E0.34096
G1 X169.879 Y106.182 E0.01949
G1 X162.181 Y113.880 E0.36853
G1 X161.606 Y113.880 E0.01949
G1 X169.879 Y105.606 E0.39609
G1 X169.879 Y105.031 E0.01949
G1 X161.030 Y113.880 E0.42366
G1 X160.454 Y113.880 E0.01949
G1 X169.879 Y104.455 E0.45122
G1 X169.879 Y103.879 E0.01949
G1 X159.878 Y113.880 E0.47879
G1 X159.303 Y113.880 E0.01949
G1 X169.879 Y103.303 E0.50635
G1 X169.879 Y102.728 E0.01949
G1 X158.727 Y113.880 E0.53391
G1 X158.151 Y113.880 E0.01949
G1 X169.879 Y102.152 E0.56148
G1 X169.879 Y101.576 E0.01949
G1 X157.575 Y113.880 E0.58904
G1 X156.999 Y113.880 E0.01949
G1 X169.879 Y101.000 E0.61661
G1 X169.879 Y100.424 E0.01949
G1 X156.424 Y113.880 E0.64417
G1 X155.848 Y113.880 E0.01949
G1 X169.879 Y99.849 E0.67174
G1 X169.879 Y99.273 E0.01949
G1 X155.272 Y113.880 E0.69930
G1 X154.696 Y113.880 E0.01949
G1 X169.879 Y98.697 E0.72687
G1 X169.879 Y98.121 E0.01949
G1 X154.121 Y113.880 E0.75443
G1 X153.545 Y113.880 E0.01949
G1 X169.879 Y97.546 E0.78200
G1 X169.879 Y96.970 E0.01949
G1 X152.969 Y113.880 E0.80956
G1 X152.393 Y113.880 E0.01949
G1 X169.879 Y96.394 E0.83713
G1 X169.577 Y96.120 E0.01380
G1 X151.818 Y113.880 E0.85024
G1 X151.242 Y113.880 E0.01949
G1 X169.001 Y96.120 E0.85024
G1 X168.426 Y96.120 E0.01949
