; generated by Slic3r 1.2.9 on 2015-08-17 at 16:42:56

; external perimeters extrusion width = 0.45mm
; perimeters extrusion width = 0.45mm
; infill extrusion width = 0.45mm
; solid infill extrusion width = 0.45mm
; top infill extrusion width = 0.45mm

M190 S100 ; set bed temperature
M201 X1000 Y1000 E600
M109 S255
M92 E161.3
G28
G92 E0.0
G1 X8.0 F2000
G1 Y60.0 E4.0  F1000.0
G1 Y100.0 E8.5  F1000.0
G92 E0.0
G21 ; set units to millimeters
G90 ; use absolute coordinates
M83 ; use relative distances for extrusion
G1 E-1.50000 F1800.00000
G1 Z0.350 F6000.000
G1 X83.840 Y90.941 F6000.000
G1 E1.50000 F1800.00000
G1 E0.12746 F1800.000 ; pressure advance
G1 X84.592 Y90.252 E0.05561 F2100.000
G1 X85.559 Y89.508 E0.06659
G1 X86.769 Y88.759 E0.07764
G1 X87.635 Y88.329 E0.05275
G1 X88.740 Y87.897 E0.06473
G1 X89.872 Y87.573 E0.06420
G1 X91.036 Y87.360 E0.06458
G1 X92.445 Y87.251 E0.07710
G1 X93.626 Y87.286 E0.06441
G1 X94.820 Y87.434 E0.06566
G1 X95.969 Y87.687 E0.06415
G1 X96.844 Y87.954 E0.04994
G1 X97.747 Y88.300 E0.05275
G1 X98.923 Y88.868 E0.07123
G1 X100.010 Y89.528 E0.06938
G1 X119.021 Y103.360 E1.28253
G1 X119.847 Y104.445 E0.07440
G1 X119.999 Y105.280 E0.04631
G1 X119.999 Y110.375 E0.27791
G1 X119.608 Y111.681 E0.07440
G1 X118.562 Y112.556 E0.07440
G1 X117.624 Y112.749 E0.05222
G1 X92.661 Y112.747 E1.36179
G1 X91.422 Y112.681 E0.06769
G1 X90.433 Y112.544 E0.05445
G1 X89.266 Y112.281 E0.06528
G1 X87.923 Y111.828 E0.07731
G1 X87.046 Y111.437 E0.05235
G1 X86.011 Y110.860 E0.06467
G1 X84.861 Y110.051 E0.07670
G1 X83.971 Y109.273 E0.06449
G1 X83.156 Y108.409 E0.06479
G1 X82.551 Y107.647 E0.05306
G1 X81.882 Y106.636 E0.06613
G1 X81.424 Y105.802 E0.05188
G1 X81.038 Y104.970 E0.05010
G1 X80.617 Y103.828 E0.06634
G1 X80.256 Y102.444 E0.07806
G1 X80.070 Y101.247 E0.06606
G1 X80.006 Y100.282 E0.05277
G1 X80.027 Y99.104 E0.06424
G1 X80.162 Y97.928 E0.06457
G1 X80.412 Y96.769 E0.06469
G1 X80.769 Y95.646 E0.06430
G1 X81.236 Y94.551 E0.06493
G1 X81.926 Y93.311 E0.07742
G1 X82.602 Y92.339 E0.06456
G1 X83.184 Y91.632 E0.04995
G1 X83.797 Y90.983 E0.04872
G1 E-0.12746 F1800.000 ; pressure discharge
G1 E-1.50000 F1800.00000
G1 X117.024 Y109.775 F6000.000
G1 E1.50000 F1800.00000
G1 E0.08166 F1800.000 ; pressure advance
G1 X92.780 Y109.775 E1.32258 F1680.000
G1 X91.804 Y109.731 E0.05328
G1 X90.871 Y109.601 E0.05142
G1 X89.972 Y109.391 E0.05036
G1 X89.109 Y109.100 E0.04965
G1 X88.286 Y108.733 E0.04918
G1 X87.509 Y108.290 E0.04881
G1 X86.777 Y107.775 E0.04879
G1 X86.095 Y107.190 E0.04899
G1 X85.469 Y106.538 E0.04933
G1 X84.900 Y105.821 E0.04995
G1 X84.390 Y105.036 E0.05105
G1 X84.053 Y104.410 E0.03877
G1 X83.753 Y103.754 E0.03938
G1 X83.425 Y102.845 E0.05273
G1 X83.187 Y101.932 E0.05142
G1 X83.037 Y101.022 E0.05036
G1 X82.977 Y100.113 E0.04966
G1 X83.000 Y99.222 E0.04866
G1 X83.111 Y98.325 E0.04930
G1 X83.308 Y97.452 E0.04883
G1 X83.587 Y96.599 E0.04892
G1 X83.950 Y95.769 E0.04943
G1 X84.396 Y94.969 E0.04996
G1 X84.925 Y94.197 E0.05109
G1 X85.372 Y93.648 E0.03861
G1 X85.865 Y93.119 E0.03945
G1 X86.579 Y92.466 E0.05278
G1 X87.330 Y91.899 E0.05134
G1 X88.117 Y91.411 E0.05049
G1 X88.923 Y91.011 E0.04908
G1 X89.773 Y90.687 E0.04965
G1 X90.635 Y90.449 E0.04880
G1 X91.517 Y90.296 E0.04881
G1 X92.412 Y90.226 E0.04901
G1 X93.305 Y90.245 E0.04872
G1 X94.227 Y90.350 E0.05063
G1 X95.143 Y90.545 E0.05104
G1 X95.822 Y90.747 E0.03867
G1 X96.497 Y91.000 E0.03934
G1 X97.424 Y91.438 E0.05591
G1 X98.280 Y91.949 E0.05437
G1 X99.066 Y92.531 E0.05335
G1 X99.778 Y93.178 E0.05250
G1 X100.414 Y93.886 E0.05191
G1 X100.972 Y94.653 E0.05172
G1 X101.450 Y95.472 E0.05175
G1 X101.843 Y96.342 E0.05207
G1 X102.152 Y97.257 E0.05268
G1 X102.372 Y98.227 E0.05426
G1 X102.946 Y101.436 E0.17782
G1 X103.290 Y102.523 E0.06221
G1 X103.644 Y103.367 E0.04993
G1 X103.974 Y103.971 E0.03756
G1 X104.357 Y104.521 E0.03654
G1 X104.655 Y104.862 E0.02470
G1 X104.985 Y105.166 E0.02452
G1 X105.352 Y105.427 E0.02456
G1 X105.759 Y105.639 E0.02502
G1 X106.187 Y105.784 E0.02464
G1 X106.441 Y105.839 E0.01418
G1 X106.898 Y105.880 E0.02503
G1 X117.024 Y105.880 E0.55239
G1 X117.024 Y109.715 E0.20919
G1 X117.399 Y110.150 F6000.000
G1 X92.771 Y110.150 E1.34348 F1680.000
G1 X91.770 Y110.105 E0.05470
G1 X90.802 Y109.970 E0.05331
G1 X89.869 Y109.752 E0.05227
G1 X88.973 Y109.450 E0.05159
G1 X88.116 Y109.067 E0.05116
G1 X87.308 Y108.606 E0.05078
G1 X86.546 Y108.072 E0.05075
G1 X85.838 Y107.463 E0.05096
G1 X85.186 Y106.785 E0.05128
G1 X84.595 Y106.040 E0.05189
G1 X84.067 Y105.227 E0.05286
G1 X83.717 Y104.577 E0.04027
G1 X83.405 Y103.896 E0.04089
G1 X83.066 Y102.956 E0.05451
G1 X82.820 Y102.010 E0.05329
G1 X82.664 Y101.065 E0.05229
G1 X82.601 Y100.121 E0.05160
G1 X82.626 Y99.194 E0.05059
G1 X82.741 Y98.260 E0.05130
G1 X82.946 Y97.352 E0.05081
G1 X83.236 Y96.466 E0.05087
G1 X83.614 Y95.603 E0.05139
G1 X84.077 Y94.772 E0.05189
G1 X84.625 Y93.972 E0.05288
G1 X85.089 Y93.401 E0.04015
G1 X85.601 Y92.853 E0.04095
G1 X86.339 Y92.177 E0.05455
G1 X87.118 Y91.589 E0.05325
G1 X87.934 Y91.083 E0.05240
G1 X88.772 Y90.668 E0.05102
G1 X89.656 Y90.330 E0.05161
G1 X90.553 Y90.082 E0.05077
G1 X91.470 Y89.923 E0.05077
G1 X92.402 Y89.851 E0.05098
G1 X93.330 Y89.870 E0.05067
G1 X94.288 Y89.979 E0.05257
G1 X95.235 Y90.181 E0.05285
G1 X95.941 Y90.392 E0.04018
G1 X96.644 Y90.654 E0.04090
G1 X97.600 Y91.107 E0.05775
G1 X98.488 Y91.636 E0.05637
G1 X99.304 Y92.241 E0.05540
G1 X100.044 Y92.913 E0.05457
G1 X100.706 Y93.650 E0.05400
G1 X101.286 Y94.447 E0.05380
G1 X101.783 Y95.300 E0.05385
G1 X102.192 Y96.204 E0.05413
G1 X102.514 Y97.155 E0.05474
G1 X102.740 Y98.152 E0.05579
G1 X103.310 Y101.346 E0.17697
G1 X103.642 Y102.393 E0.05994
G1 X103.983 Y103.204 E0.04796
G1 X104.293 Y103.774 E0.03539
G1 X104.653 Y104.289 E0.03430
G1 X104.924 Y104.600 E0.02249
G1 X105.222 Y104.874 E0.02211
G1 X105.549 Y105.107 E0.02185
G1 X105.907 Y105.293 E0.02203
G1 X106.288 Y105.422 E0.02193
G1 X106.498 Y105.468 E0.01176
G1 X106.915 Y105.505 E0.02283
G1 X117.399 Y105.505 E0.57193
G1 X117.399 Y110.090 E0.25009
G1 X117.053 Y109.950 F6000.000
G1 E-0.08166 F1800.000 ; pressure discharge
G1 E-1.50000 F1800.00000
G1 X116.749 Y106.354 F6000.000
G1 E1.50000 F1800.00000
G1 X116.550 Y106.155 E0.01546 F1680.000
G1 X116.016 Y106.155 E0.02932
G1 X116.749 Y106.888 E0.05692
G1 X116.749 Y107.422 E0.02932
G1 X115.482 Y106.155 E0.09838
G1 X114.949 Y106.155 E0.02932
G1 X116.749 Y107.956 E0.13984
G1 X116.749 Y108.489 E0.02932
G1 X114.415 Y106.155 E0.18130
G1 X113.881 Y106.155 E0.02932
G1 X116.749 Y109.023 E0.22276
G1 X116.691 Y109.499 E0.02634
G1 X113.347 Y106.155 E0.25973
G1 X112.814 Y106.155 E0.02932
G1 X116.158 Y109.499 E0.25973
G1 X115.624 Y109.499 E0.02932
G1 X112.280 Y106.155 E0.25973
G1 X111.746 Y106.155 E0.02932
G1 X115.090 Y109.499 E0.25973
G1 X114.556 Y109.499 E0.02932
G1 X111.212 Y106.155 E0.25973
G1 X110.678 Y106.155 E0.02932
G1 X114.022 Y109.499 E0.25973
G1 X113.489 Y109.499 E0.02932
G1 X110.145 Y106.155 E0.25973
G1 X109.611 Y106.155 E0.02932
G1 X112.955 Y109.499 E0.25973
G1 X112.421 Y109.499 E0.02932
G1 X109.077 Y106.155 E0.25973
G1 X108.543 Y106.155 E0.02932
G1 X111.887 Y109.499 E0.25973
G1 X111.354 Y109.499 E0.02932
G1 X108.010 Y106.155 E0.25973
G1 X107.476 Y106.155 E0.02932
G1 X110.820 Y109.499 E0.25973
G1 X110.286 Y109.499 E0.02932
G1 X106.942 Y106.155 E0.25973
G1 X106.369 Y106.116 E0.03153
G1 X109.752 Y109.499 E0.26275
G1 X109.218 Y109.499 E0.02932
G1 X105.640 Y105.920 E0.27798
G1 E-1.50000 F1800.00000
G1 X103.505 Y103.785 F6000.000
G1 E1.50000 F1800.00000
G1 X90.478 Y90.759 E1.01180 F1680.000
G1 X90.059 Y90.874 E0.02383
G1 X108.685 Y109.499 E1.44665
G1 X108.151 Y109.499 E0.02932
G1 X89.654 Y91.002 E1.43671
G1 X89.267 Y91.150 E0.02271
G1 X107.617 Y109.499 E1.42525
G1 X107.083 Y109.499 E0.02932
G1 X88.889 Y91.305 E1.41317
G1 X88.532 Y91.482 E0.02187
G1 X106.550 Y109.499 E1.39942
G1 X106.016 Y109.499 E0.02932
G1 X88.178 Y91.662 E1.38547
G1 X87.849 Y91.866 E0.02129
G1 X105.482 Y109.499 E1.36961
G1 X104.948 Y109.499 E0.02932
G1 X87.519 Y92.070 E1.35374
G1 X87.210 Y92.295 E0.02099
G1 X104.414 Y109.499 E1.33631
G1 X103.881 Y109.499 E0.02932
G1 X86.906 Y92.524 E1.31847
G1 X86.612 Y92.764 E0.02083
G1 X103.347 Y109.499 E1.29982
G1 X102.813 Y109.499 E0.02932
G1 X86.335 Y93.021 E1.27989
G1 X86.068 Y93.288 E0.02073
G1 X102.279 Y109.499 E1.25916
G1 X101.746 Y109.499 E0.02932
G1 X85.801 Y93.555 E1.23843
G1 X85.539 Y93.827 E0.02073
G1 X101.212 Y109.499 E1.21732
G1 X100.678 Y109.499 E0.02932
G1 X85.300 Y94.121 E1.19445
G1 X85.067 Y94.422 E0.02090
G1 X100.144 Y109.499 E1.17108
G1 X99.611 Y109.499 E0.02932
G1 X84.850 Y94.739 E1.14648
G1 X84.633 Y95.055 E0.02109
G1 X99.077 Y109.499 E1.12188
G1 X98.543 Y109.499 E0.02932
G1 X84.440 Y95.396 E1.09539
G1 X84.249 Y95.739 E0.02155
G1 X98.009 Y109.499 E1.06877
G1 X97.475 Y109.499 E0.02932
G1 X84.078 Y96.102 E1.04063
G1 X83.915 Y96.473 E0.02226
G1 X96.942 Y109.499 E1.01178
G1 X96.408 Y109.499 E0.02932
G1 X83.769 Y96.861 E0.98167
G1 X83.637 Y97.263 E0.02323
G1 X95.874 Y109.499 E0.95044
G1 X95.340 Y109.499 E0.02932
G1 X83.522 Y97.681 E0.91794
G1 X83.424 Y98.117 E0.02452
G1 X94.807 Y109.499 E0.88411
G1 X94.273 Y109.499 E0.02932
G1 X83.348 Y98.575 E0.84854
G1 X83.289 Y99.050 E0.02630
G1 X93.739 Y109.499 E0.81164
G1 X93.205 Y109.499 E0.02932
G1 X83.264 Y99.559 E0.77211
G1 X83.256 Y100.084 E0.02885
G1 X92.662 Y109.490 E0.73060
G1 X92.104 Y109.465 E0.03071
G1 X83.294 Y100.655 E0.68428
G1 X83.370 Y101.265 E0.03377
G1 X91.504 Y109.400 E0.63179
G1 X90.868 Y109.297 E0.03540
G1 X83.492 Y101.921 E0.57291
G1 X83.680 Y102.643 E0.04099
G1 X90.171 Y109.134 E0.50414
G1 X89.369 Y108.866 F6000.000
G1 X83.979 Y103.476 E0.41868 F1680.000
G1 E-1.50000 F1800.00000
G1 X84.466 Y104.496 F6000.000
G1 E1.50000 F1800.00000
G1 X88.383 Y108.414 E0.30428 F1680.000
G1 E-1.50000 F1800.00000
G1 X86.619 Y107.184 F6000.000
G1 E1.50000 F1800.00000
G1 X85.642 Y106.206 E0.07594 F1680.000
G1 E-1.50000 F1800.00000
G1 X90.919 Y90.666 F6000.000
G1 E1.50000 F1800.00000
G1 X103.078 Y102.825 E0.94438 F1680.000
G1 X102.816 Y102.029 E0.04603
G1 X91.374 Y90.587 E0.88869
G1 X91.860 Y90.539 E0.02681
G1 X102.628 Y101.307 E0.83635
G1 X102.511 Y100.657 E0.03626
G1 X92.356 Y90.502 E0.78876
G1 X92.902 Y90.514 E0.02995
G1 X102.395 Y100.007 E0.73739
G1 X102.279 Y99.357 E0.03626
G1 X93.472 Y90.551 E0.68404
G1 X94.074 Y90.619 E0.03328
G1 X102.163 Y98.707 E0.62825
G1 X102.027 Y98.038 E0.03754
G1 X94.751 Y90.762 E0.56513
G1 X95.484 Y90.961 E0.04173
G1 X101.856 Y97.333 E0.49491
G1 X101.577 Y96.520 F6000.000
G1 X96.326 Y91.269 E0.40786 F1680.000
G1 E-1.50000 F1800.00000
G1 X97.389 Y91.799 F6000.000
G1 E1.50000 F1800.00000
G1 X101.085 Y95.494 E0.28702 F1680.000
G1 E-1.50000 F1800.00000
G1 Z0.550 F6000.000
G1 X116.992 Y109.742 F6000.000
G1 E1.50000 F1800.00000
G1 E0.06417 F1800.000 ; pressure advance
G1 X92.781 Y109.742 E0.81954 F2400.000
G1 X91.807 Y109.699 E0.03298
G1 X90.876 Y109.570 E0.03180
G1 X89.981 Y109.360 E0.03115
G1 X89.121 Y109.070 E0.03070
G1 X88.300 Y108.704 E0.03041
G1 X87.526 Y108.262 E0.03018
G1 X86.797 Y107.750 E0.03017
G1 X86.118 Y107.167 E0.03029
G1 X85.493 Y106.517 E0.03051
G1 X84.926 Y105.802 E0.03089
G1 X84.418 Y105.020 E0.03158
G1 X84.082 Y104.396 E0.02398
G1 X83.783 Y103.742 E0.02436
G1 X83.456 Y102.835 E0.03263
G1 X83.218 Y101.926 E0.03181
G1 X83.069 Y101.018 E0.03114
G1 X83.009 Y100.113 E0.03071
G1 X83.032 Y99.214 E0.03042
G1 X83.142 Y98.331 E0.03014
G1 X83.339 Y97.460 E0.03020
G1 X83.617 Y96.611 E0.03025
G1 X83.979 Y95.784 E0.03057
G1 X84.423 Y94.986 E0.03089
G1 X84.951 Y94.216 E0.03161
G1 X85.396 Y93.669 E0.02387
G1 X85.888 Y93.142 E0.02440
G1 X86.600 Y92.491 E0.03266
G1 X87.348 Y91.925 E0.03175
G1 X88.132 Y91.439 E0.03123
G1 X88.944 Y91.037 E0.03068
G1 X89.783 Y90.717 E0.03036
G1 X90.642 Y90.480 E0.03019
G1 X91.521 Y90.328 E0.03018
G1 X92.413 Y90.258 E0.03031
G1 X93.288 Y90.277 E0.02960
G1 X94.223 Y90.381 E0.03185
G1 X95.135 Y90.576 E0.03156
G1 X95.812 Y90.778 E0.02391
G1 X96.485 Y91.029 E0.02433
G1 X97.409 Y91.467 E0.03460
G1 X98.262 Y91.975 E0.03363
G1 X99.045 Y92.556 E0.03299
G1 X99.755 Y93.201 E0.03247
G1 X100.389 Y93.907 E0.03210
G1 X100.945 Y94.670 E0.03198
G1 X101.421 Y95.487 E0.03200
G1 X101.813 Y96.354 E0.03220
G1 X102.121 Y97.265 E0.03257
G1 X102.341 Y98.233 E0.03359
G1 X102.914 Y101.443 E0.11038
G1 X103.259 Y102.534 E0.03872
G1 X103.615 Y103.381 E0.03109
G1 X103.946 Y103.988 E0.02342
G1 X104.332 Y104.540 E0.02279
G1 X104.632 Y104.884 E0.01545
G1 X104.965 Y105.191 E0.01534
G1 X105.336 Y105.455 E0.01539
G1 X105.747 Y105.669 E0.01568
G1 X106.179 Y105.815 E0.01543
G1 X106.436 Y105.871 E0.00893
G1 X106.897 Y105.912 E0.01565
G1 X116.992 Y105.912 E0.34172
G1 X116.992 Y109.682 E0.12762
G1 X117.399 Y110.150 F6000.000
G1 X92.771 Y110.150 E0.83362 F2400.000
G1 X91.770 Y110.105 E0.03394
G1 X90.802 Y109.970 E0.03308
G1 X89.869 Y109.752 E0.03243
G1 X88.973 Y109.450 E0.03201
G1 X88.116 Y109.067 E0.03174
G1 X87.308 Y108.606 E0.03151
G1 X86.546 Y108.072 E0.03149
G1 X85.838 Y107.463 E0.03162
G1 X85.186 Y106.785 E0.03182
G1 X84.595 Y106.040 E0.03220
G1 X84.067 Y105.227 E0.03280
G1 X83.717 Y104.577 E0.02499
G1 X83.405 Y103.896 E0.02537
G1 X83.066 Y102.956 E0.03383
G1 X82.820 Y102.010 E0.03307
G1 X82.664 Y101.065 E0.03245
G1 X82.601 Y100.121 E0.03202
G1 X82.626 Y99.184 E0.03173
G1 X82.741 Y98.260 E0.03149
G1 X82.946 Y97.352 E0.03153
G1 X83.236 Y96.466 E0.03156
G1 X83.614 Y95.603 E0.03189
G1 X84.077 Y94.772 E0.03219
G1 X84.625 Y93.972 E0.03281
G1 X85.089 Y93.401 E0.02491
G1 X85.601 Y92.853 E0.02541
G1 X86.339 Y92.177 E0.03385
G1 X87.118 Y91.589 E0.03304
G1 X87.934 Y91.083 E0.03251
G1 X88.781 Y90.663 E0.03200
G1 X89.656 Y90.330 E0.03168
G1 X90.553 Y90.082 E0.03151
G1 X91.470 Y89.923 E0.03150
G1 X92.402 Y89.851 E0.03163
G1 X93.315 Y89.870 E0.03090
G1 X94.288 Y89.979 E0.03315
G1 X95.235 Y90.181 E0.03279
G1 X95.941 Y90.392 E0.02493
G1 X96.644 Y90.654 E0.02538
G1 X97.600 Y91.107 E0.03584
G1 X98.488 Y91.636 E0.03498
G1 X99.304 Y92.241 E0.03437
G1 X100.044 Y92.913 E0.03386
G1 X100.706 Y93.650 E0.03350
G1 X101.286 Y94.447 E0.03338
G1 X101.783 Y95.300 E0.03341
G1 X102.192 Y96.204 E0.03359
G1 X102.514 Y97.155 E0.03396
G1 X102.740 Y98.152 E0.03462
G1 X103.310 Y101.346 E0.10981
G1 X103.642 Y102.393 E0.03719
G1 X103.983 Y103.204 E0.02976
G1 X104.293 Y103.774 E0.02196
G1 X104.653 Y104.289 E0.02128
G1 X104.924 Y104.600 E0.01395
G1 X105.222 Y104.874 E0.01372
G1 X105.549 Y105.107 E0.01356
G1 X105.907 Y105.293 E0.01367
G1 X106.288 Y105.422 E0.01361
G1 X106.498 Y105.468 E0.00730
G1 X106.915 Y105.505 E0.01417
G1 X117.399 Y105.505 E0.35488
G1 X117.399 Y110.090 E0.15518
G1 X117.053 Y109.950 F6000.000
G1 E-0.06417 F1800.000 ; pressure discharge
G1 E-1.50000 F1800.00000
G1 X116.479 Y109.442 F6000.000
G1 E1.50000 F1800.00000
G1 X116.692 Y109.229 E0.01024 F2400.000
G1 X116.692 Y108.650 E0.01971
G1 X115.900 Y109.442 E0.03811
G1 X115.321 Y109.442 E0.01971
G1 X116.692 Y108.071 E0.06598
G1 X116.692 Y107.492 E0.01971
G1 X114.742 Y109.442 E0.09385
G1 X114.163 Y109.442 E0.01971
G1 X116.692 Y106.913 E0.12171
G1 X116.692 Y106.334 E0.01971
G1 X113.584 Y109.442 E0.14958
G1 X113.005 Y109.442 E0.01971
G1 X116.234 Y106.213 E0.15543
G1 X115.655 Y106.213 E0.01971
G1 X112.426 Y109.442 E0.15543
G1 X111.847 Y109.442 E0.01971
G1 X115.076 Y106.213 E0.15543
G1 X114.497 Y106.213 E0.01971
G1 X111.268 Y109.442 E0.15543
G1 X110.689 Y109.442 E0.01971
G1 X113.918 Y106.213 E0.15543
G1 X113.339 Y106.213 E0.01971
G1 X110.111 Y109.442 E0.15543
G1 X109.532 Y109.442 E0.01971
G1 X112.760 Y106.213 E0.15543
G1 X112.182 Y106.213 E0.01971
G1 X108.953 Y109.442 E0.15543
G1 X108.374 Y109.442 E0.01971
G1 X111.603 Y106.213 E0.15543
G1 X111.024 Y106.213 E0.01971
G1 X107.795 Y109.442 E0.15543
G1 X107.216 Y109.442 E0.01971
G1 X110.445 Y106.213 E0.15543
G1 X109.866 Y106.213 E0.01971
G1 X106.637 Y109.442 E0.15543
G1 X106.058 Y109.442 E0.01971
G1 X109.287 Y106.213 E0.15543
G1 X108.708 Y106.213 E0.01971
G1 X105.479 Y109.442 E0.15543
G1 X104.900 Y109.442 E0.01971
G1 X108.129 Y106.213 E0.15543
G1 X107.550 Y106.213 E0.01971
G1 X104.321 Y109.442 E0.15543
G1 X103.742 Y109.442 E0.01971
G1 X106.971 Y106.213 E0.15543
G1 X106.442 Y106.163 E0.01809
