; generated by Slic3r 1.2.9 on 2015-08-17 at 16:43:08

; external perimeters extrusion width = 0.45mm
; perimeters extrusion width = 0.45mm
; infill extrusion width = 0.45mm
; solid infill extrusion width = 0.45mm
; top infill extrusion width = 0.45mm

M190 S100 ; set bed temperature
M201 X1000 Y1000 E600
M109 S255
M92 E161.3
G28
G92 E0.0
G1 X8.0 F2000
G1 Y60.0 E4.0  F1000.0
G1 Y100.0 E8.5  F1000.0
G92 E0.0
G21 ; set units to millimeters
G90 ; use absolute coordinates
M83 ; use relative distances for extrusion
G1 E-1.50000 F1800.00000
G1 Z0.350 F6000.000
G1 X56.615 Y94.385 F6000.000
G1 E1.50000 F1800.00000
G1 E0.12759 F1800.000 ; pressure advance
G1 X99.127 Y77.584 E2.49367 F2100.000
G1 X100.873 Y77.584 E0.09523
G1 X143.386 Y94.385 E2.49366
G1 X144.449 Y95.219 E0.07371
G1 X161.330 Y118.987 E1.59033
G1 X161.767 Y120.279 E0.07440
G1 X161.421 Y121.599 E0.07440
G1 X160.407 Y122.510 E0.07440
G1 X159.399 Y122.737 E0.05635
G1 X120.102 Y122.835 E2.14374
G1 X79.899 Y122.835 E2.19313
G1 X40.601 Y122.737 E2.14374
G1 X39.296 Y122.343 E0.07440
G1 X38.423 Y121.295 E0.07440
G1 X38.270 Y119.940 E0.07440
G1 X38.671 Y118.987 E0.05635
G1 X55.551 Y95.219 E1.59033
G1 X56.567 Y94.422 E0.07043
G1 E-0.12759 F1800.000 ; pressure discharge
G1 E-1.50000 F1800.00000
G1 X97.096 Y114.096 F6000.000
G1 E1.50000 F1800.00000
G1 E0.08166 F1800.000 ; pressure advance
G1 X96.558 Y116.242 E0.12069 F1680.000
G1 X95.100 Y110.733 E0.31090
G1 X94.395 Y110.518 E0.04019
G1 X92.971 Y110.206 E0.07954
G1 X91.506 Y110.071 E0.08024
G1 X90.036 Y110.116 E0.08024
G1 X88.582 Y110.342 E0.08024
G1 X87.167 Y110.744 E0.08024
G1 X85.813 Y111.318 E0.08024
G1 X84.539 Y112.053 E0.08024
G1 X83.365 Y112.939 E0.08024
G1 X82.309 Y113.963 E0.08024
G1 X82.070 Y114.260 E0.02080
G1 X81.387 Y115.109 E0.05945
G1 X80.612 Y116.360 E0.08024
G1 X79.998 Y117.696 E0.08024
G1 X79.552 Y119.096 E0.08013
G1 X79.404 Y119.859 E0.04240
G1 X43.522 Y119.770 E1.95745
G1 X46.333 Y118.370 E0.17131
G1 X49.766 Y116.095 E0.22466
G1 X52.893 Y113.416 E0.22466
G1 X55.657 Y110.384 E0.22382
G1 X56.089 Y109.836 E0.03803
G1 X56.603 Y109.061 E0.05075
G1 X57.471 Y107.445 E0.10007
G1 X58.137 Y105.725 E0.10057
G1 X58.586 Y103.937 E0.10057
G1 X58.813 Y102.108 E0.10057
G1 X58.813 Y100.264 E0.10057
G1 X58.586 Y98.435 E0.10057
G1 X58.301 Y97.300 E0.06383
G1 X61.117 Y97.650 E0.15479
G1 X68.420 Y97.875 E0.39857
G1 X75.695 Y97.201 E0.39857
G1 X79.304 Y96.524 E0.20032
G1 X80.875 Y96.333 E0.08632
G1 X83.867 Y95.677 E0.16713
G1 X86.765 Y94.656 E0.16761
G1 X89.515 Y93.287 E0.16761
G1 X92.077 Y91.590 E0.16761
G1 X94.410 Y89.591 E0.16761
G1 X96.480 Y87.320 E0.16761
G1 X98.255 Y84.812 E0.16761
G1 X99.706 Y82.110 E0.16734
G1 X100.006 Y81.371 E0.04348
G1 X100.977 Y83.481 E0.12669
G1 X102.594 Y86.093 E0.16761
G1 X104.521 Y88.487 E0.16761
G1 X106.726 Y90.626 E0.16761
G1 X109.178 Y92.478 E0.16761
G1 X111.839 Y94.014 E0.16761
G1 X114.668 Y95.211 E0.16761
G1 X117.624 Y96.052 E0.16761
G1 X127.929 Y97.650 E0.56885
G1 X135.241 Y97.875 E0.39907
G1 X141.689 Y97.273 E0.35327
G1 X141.610 Y97.540 E0.01517
G1 X141.273 Y99.346 E0.10020
G1 X141.159 Y101.186 E0.10057
G1 X141.273 Y103.026 E0.10057
G1 X141.612 Y104.838 E0.10057
G1 X142.170 Y106.595 E0.10057
G1 X142.941 Y108.270 E0.10057
G1 X143.911 Y109.837 E0.10052
G1 X145.678 Y111.941 E0.14989
G1 X148.630 Y114.804 E0.22432
G1 X151.916 Y117.286 E0.22466
G1 X155.482 Y119.344 E0.22460
G1 X156.478 Y119.770 E0.05912
G1 X120.612 Y119.859 E1.95657
G1 X120.247 Y118.390 E0.08256
G1 X119.716 Y117.019 E0.08024
G1 X119.020 Y115.723 E0.08024
G1 X118.800 Y115.412 E0.02080
G1 X118.170 Y114.522 E0.05945
G1 X117.179 Y113.435 E0.08024
G1 X116.062 Y112.478 E0.08024
G1 X114.836 Y111.666 E0.08024
G1 X113.519 Y111.010 E0.08024
G1 X112.132 Y110.521 E0.08024
G1 X110.695 Y110.206 E0.08024
G1 X109.230 Y110.071 E0.08024
G1 X107.760 Y110.116 E0.08024
G1 X106.310 Y110.341 E0.08002
G1 X104.904 Y110.721 E0.07947
G1 X103.442 Y116.242 E0.31159
G1 X102.904 Y114.096 E0.12069
G1 X97.156 Y114.096 E0.31357
G1 X97.389 Y114.471 F6000.000
G1 X96.568 Y117.745 E0.18409 F1680.000
G1 X94.791 Y111.031 E0.37887
G1 X94.300 Y110.881 E0.02798
G1 X92.913 Y110.578 E0.07745
G1 X91.494 Y110.446 E0.07772
G1 X90.070 Y110.490 E0.07772
G1 X88.663 Y110.709 E0.07772
G1 X87.292 Y111.098 E0.07772
G1 X85.980 Y111.654 E0.07772
G1 X84.746 Y112.366 E0.07772
G1 X83.609 Y113.225 E0.07772
G1 X82.587 Y114.216 E0.07772
G1 X81.693 Y115.326 E0.07772
G1 X80.943 Y116.538 E0.07772
G1 X80.348 Y117.832 E0.07772
G1 X79.916 Y119.189 E0.07768
G1 X79.713 Y120.235 E0.05812
G1 X41.786 Y120.141 E2.06900
G1 X42.503 Y119.858 E0.04207
G1 X46.145 Y118.045 E0.22191
G1 X49.539 Y115.796 E0.22213
G1 X52.632 Y113.146 E0.22213
G1 X55.371 Y110.141 E0.22182
G1 X55.785 Y109.616 E0.03646
G1 X56.281 Y108.868 E0.04897
G1 X57.129 Y107.288 E0.09786
G1 X57.779 Y105.612 E0.09805
G1 X58.217 Y103.868 E0.09805
G1 X58.438 Y102.085 E0.09805
G1 X58.438 Y100.287 E0.09805
G1 X58.217 Y98.504 E0.09805
G1 X57.804 Y96.860 E0.09244
G1 X61.146 Y97.276 E0.18371
G1 X68.408 Y97.500 E0.39635
G1 X75.643 Y96.829 E0.39635
G1 X79.247 Y96.154 E0.20002
G1 X80.812 Y95.963 E0.08601
G1 X83.765 Y95.316 E0.16491
G1 X86.619 Y94.310 E0.16508
G1 X89.328 Y92.961 E0.16508
G1 X91.850 Y91.290 E0.16508
G1 X94.148 Y89.321 E0.16508
G1 X96.187 Y87.085 E0.16508
G1 X97.936 Y84.615 E0.16508
G1 X99.366 Y81.950 E0.16498
G1 X99.991 Y80.412 E0.09054
G1 X101.308 Y83.304 E0.17329
G1 X102.901 Y85.876 E0.16508
G1 X104.798 Y88.234 E0.16508
G1 X106.971 Y90.341 E0.16508
G1 X109.386 Y92.164 E0.16508
G1 X112.006 Y93.678 E0.16508
G1 X114.793 Y94.857 E0.16508
G1 X117.704 Y95.685 E0.16509
G1 X127.963 Y97.276 E0.56633
G1 X135.229 Y97.500 E0.39654
G1 X142.204 Y96.849 E0.38214
G1 X141.975 Y97.628 E0.04428
G1 X141.646 Y99.392 E0.09791
G1 X141.535 Y101.186 E0.09805
G1 X141.646 Y102.980 E0.09805
G1 X141.976 Y104.747 E0.09805
G1 X142.521 Y106.460 E0.09805
G1 X143.272 Y108.092 E0.09805
G1 X144.216 Y109.617 E0.09779
G1 X145.952 Y111.686 E0.14737
G1 X148.874 Y114.519 E0.22201
G1 X152.124 Y116.973 E0.22213
G1 X155.650 Y119.008 E0.22211
G1 X158.300 Y120.140 E0.15721
G1 X120.293 Y120.235 E2.07334
G1 X120.236 Y119.882 E0.01951
G1 X119.889 Y118.504 E0.07749
G1 X119.375 Y117.176 E0.07772
G1 X118.701 Y115.921 E0.07772
G1 X118.494 Y115.628 E0.01953
G1 X117.878 Y114.758 E0.05819
G1 X116.918 Y113.705 E0.07772
G1 X115.836 Y112.778 E0.07772
G1 X114.648 Y111.991 E0.07772
G1 X113.373 Y111.356 E0.07772
G1 X112.029 Y110.882 E0.07772
G1 X110.637 Y110.578 E0.07772
G1 X109.219 Y110.446 E0.07772
G1 X107.795 Y110.490 E0.07772
G1 X106.388 Y110.708 E0.07764
G1 X105.211 Y111.026 E0.06653
G1 X103.432 Y117.745 E0.37913
G1 X102.612 Y114.471 E0.18409
G1 X97.449 Y114.471 E0.28165
G1 X96.994 Y114.406 F6000.000
G1 X96.673 Y114.720 F6000.000
G1 X96.388 Y114.435 E0.02200 F1680.000
G1 X96.780 Y114.296 E0.02268
G1 X96.197 Y113.713 E0.04496
G1 X96.006 Y112.992 E0.04076
G1 X96.886 Y113.872 E0.06793
G1 X97.366 Y113.821 E0.02636
G1 X95.815 Y112.270 E0.11975
G1 X95.624 Y111.548 E0.04076
G1 X97.897 Y113.821 E0.17547
G1 X98.427 Y113.821 E0.02897
G1 X95.433 Y110.827 E0.23119
G1 X94.990 Y110.384 F6000.000
G1 X81.146 Y96.540 E1.06894 F1680.000
G1 X81.581 Y96.444 E0.02433
G1 X98.958 Y113.821 E1.34168
G1 X99.489 Y113.821 E0.02897
G1 X82.017 Y96.349 E1.34904
G1 X82.452 Y96.254 E0.02433
G1 X100.019 Y113.821 E1.35640
G1 X100.550 Y113.821 E0.02897
G1 X82.887 Y96.158 E1.36376
G1 X83.322 Y96.063 E0.02433
G1 X101.080 Y113.821 E1.37112
G1 X101.611 Y113.821 E0.02897
G1 X83.758 Y95.968 E1.37848
G1 X84.163 Y95.842 E0.02315
G1 X102.142 Y113.821 E1.38818
G1 X102.672 Y113.821 E0.02897
G1 X84.555 Y95.704 E1.39886
G1 X84.947 Y95.565 E0.02271
G1 X103.688 Y114.306 E1.44700
G1 X103.799 Y113.887 E0.02369
G1 X85.340 Y95.427 E1.42528
G1 X85.732 Y95.289 E0.02271
G1 X103.910 Y113.467 E1.40357
G1 X104.021 Y113.048 E0.02369
G1 X86.124 Y95.151 E1.38185
G1 X86.517 Y95.012 E0.02271
G1 X104.132 Y112.628 E1.36013
G1 X104.244 Y112.209 E0.02369
G1 X86.901 Y94.866 E1.33905
G1 X87.255 Y94.690 E0.02160
G1 X104.355 Y111.789 E1.32028
G1 X104.466 Y111.370 E0.02369
G1 X87.609 Y94.513 E1.30150
G1 X87.964 Y94.337 E0.02160
G1 X104.577 Y110.950 E1.28273
G1 X104.688 Y110.530 E0.02369
G1 X88.318 Y94.160 E1.26395
G1 X88.672 Y93.984 E0.02160
G1 X105.091 Y110.404 E1.26777
G1 X105.509 Y110.291 E0.02363
G1 X89.026 Y93.808 E1.27268
G1 X89.380 Y93.631 E0.02160
G1 X105.927 Y110.178 E1.27759
G1 X106.348 Y110.068 E0.02374
G1 X89.723 Y93.443 E1.28364
G1 X90.042 Y93.231 E0.02090
G1 X106.807 Y109.997 E1.29446
G1 X107.266 Y109.925 E0.02538
G1 X90.361 Y93.020 E1.30529
G1 X90.680 Y92.808 E0.02090
G1 X107.726 Y109.854 E1.31611
G1 X108.231 Y109.828 E0.02761
G1 X90.999 Y92.597 E1.33046
G1 X91.318 Y92.385 E0.02090
G1 X108.745 Y109.813 E1.34556
G1 X109.260 Y109.797 E0.02812
G1 X91.638 Y92.174 E1.36066
G1 X91.957 Y91.963 E0.02090
G1 X109.837 Y109.843 E1.38054
G1 X110.422 Y109.897 E0.03207
G1 X92.269 Y91.744 E1.40157
G1 X92.555 Y91.500 E0.02055
G1 X111.035 Y109.980 E1.42687
G1 X111.714 Y110.128 E0.03797
G1 X92.841 Y91.255 E1.45727
G1 X93.126 Y91.010 E0.02055
G1 X112.411 Y110.295 E1.48901
G1 X113.231 Y110.584 F6000.000
G1 X93.412 Y90.765 E1.53021 F1680.000
G1 X93.698 Y90.520 E0.02055
G1 X114.141 Y110.963 E1.57841
G1 E-0.08166 F1800.000 ; pressure discharge
G1 E-1.50000 F1800.00000
G1 X115.249 Y111.540 F6000.000
G1 E1.50000 F1800.00000
G1 X93.984 Y90.275 E1.64188 F1680.000
G1 X94.270 Y90.030 E0.02055
G1 X123.815 Y119.576 E2.28124
G1 X124.344 Y119.575 E0.02890
G1 X94.555 Y89.786 E2.30005
G1 X94.811 Y89.511 E0.02050
G1 X124.874 Y119.573 E2.32118
G1 X125.403 Y119.572 E0.02890
G1 X95.064 Y89.233 E2.34251
G1 X95.317 Y88.956 E0.02051
G1 X125.932 Y119.571 E2.36384
G1 X126.462 Y119.569 E0.02890
G1 X95.570 Y88.678 E2.38517
G1 X95.823 Y88.400 E0.02051
G1 X126.991 Y119.568 E2.40650
G1 X127.520 Y119.567 E0.02890
G1 X96.076 Y88.123 E2.42783
G1 X96.329 Y87.845 E0.02051
G1 X128.049 Y119.566 E2.44916
G1 X128.579 Y119.564 E0.02890
G1 X96.582 Y87.568 E2.47049
G1 X96.815 Y87.269 E0.02064
G1 X129.108 Y119.563 E2.49341
G1 X129.637 Y119.562 E0.02890
G1 X97.034 Y86.959 E2.51730
G1 X97.254 Y86.648 E0.02078
G1 X130.167 Y119.560 E2.54118
G1 X130.696 Y119.559 E0.02890
G1 X97.474 Y86.337 E2.56507
G1 X97.694 Y86.027 E0.02078
G1 X131.225 Y119.558 E2.58896
G1 X131.755 Y119.556 E0.02890
G1 X97.914 Y85.716 E2.61284
G1 X98.134 Y85.405 E0.02078
G1 X132.284 Y119.555 E2.63673
G1 X132.813 Y119.554 E0.02890
G1 X98.354 Y85.095 E2.66062
G1 X98.559 Y84.769 E0.02101
G1 X133.342 Y119.552 E2.68567
G1 X133.872 Y119.551 E0.02890
G1 X98.744 Y84.424 E2.71222
G1 X98.930 Y84.078 E0.02139
G1 X134.401 Y119.550 E2.73878
G1 X134.930 Y119.548 E0.02890
G1 X99.115 Y83.733 E2.76533
G1 E-1.50000 F1800.00000
G1 X100.326 Y82.821 F6000.000
G1 E1.50000 F1800.00000
G1 X99.857 Y82.352 E0.03622 F1680.000
G1 X99.671 Y82.697 E0.02139
G1 X100.809 Y83.836 E0.08787
G1 E-1.50000 F1800.00000
G1 X101.672 Y85.229 F6000.000
G1 E1.50000 F1800.00000
G1 X99.486 Y83.043 E0.16880 F1680.000
G1 X99.300 Y83.388 E0.02139
G1 X102.766 Y86.854 E0.26760
G1 E-1.50000 F1800.00000
G1 X107.696 Y91.783 F6000.000
G1 E1.50000 F1800.00000
G1 X135.460 Y119.547 E2.14367 F1680.000
G1 X135.989 Y119.546 E0.02890
G1 X109.459 Y93.016 E2.04841
G1 E-1.50000 F1800.00000
G1 X110.714 Y93.741 F6000.000
G1 E1.50000 F1800.00000
G1 X136.518 Y119.544 E1.99235 F1680.000
G1 X137.047 Y119.543 E0.02890
G1 X111.871 Y94.367 E1.94388
G1 X112.791 Y94.756 F6000.000
G1 X137.577 Y119.542 E1.91372 F1680.000
G1 X138.106 Y119.541 E0.02890
G1 X113.711 Y95.146 E1.88355
G1 X114.600 Y95.504 F6000.000
G1 X138.635 Y119.539 E1.85578 F1680.000
G1 X139.165 Y119.538 E0.02890
G1 X115.342 Y95.715 E1.83939
G1 X116.083 Y95.926 E0.04210
G1 X139.694 Y119.537 E1.82299
G1 X140.223 Y119.535 E0.02890
G1 X116.825 Y96.137 E1.80660
G1 X117.552 Y96.333 E0.04108
G1 X140.753 Y119.534 E1.79137
G1 X141.282 Y119.533 E0.02890
G1 X118.180 Y96.430 E1.78375
G1 X118.807 Y96.528 E0.03469
G1 X141.811 Y119.531 E1.77614
G1 X142.340 Y119.530 E0.02890
G1 X119.435 Y96.625 E1.76852
G1 X120.063 Y96.722 E0.03469
G1 X142.870 Y119.529 E1.76090
G1 X143.399 Y119.527 E0.02890
G1 X120.691 Y96.820 E1.75328
G1 X121.319 Y96.917 E0.03469
G1 X143.928 Y119.526 E1.74566
G1 X144.458 Y119.525 E0.02890
G1 X121.947 Y97.014 E1.73805
G1 X122.575 Y97.112 E0.03469
G1 X144.987 Y119.523 E1.73043
G1 X145.516 Y119.522 E0.02890
G1 X123.203 Y97.209 E1.72281
G1 X123.831 Y97.306 E0.03469
G1 X146.045 Y119.521 E1.71519
G1 X146.575 Y119.519 E0.02890
G1 X124.459 Y97.404 E1.70757
G1 X125.087 Y97.501 E0.03469
G1 X147.104 Y119.518 E1.69996
G1 X147.633 Y119.517 E0.02890
G1 X125.715 Y97.598 E1.69234
G1 X126.343 Y97.696 E0.03469
G1 X148.163 Y119.516 E1.68472
G1 X148.692 Y119.514 E0.02890
G1 X126.971 Y97.793 E1.67710
G1 X127.599 Y97.891 E0.03469
G1 X149.221 Y119.513 E1.66948
G1 X149.751 Y119.512 E0.02890
G1 X128.174 Y97.935 E1.66593
G1 X128.722 Y97.952 E0.02990
G1 X150.280 Y119.510 E1.66453
G1 X150.809 Y119.509 E0.02890
G1 X129.269 Y97.969 E1.66312
G1 X129.817 Y97.986 E0.02990
G1 X151.338 Y119.508 E1.66172
G1 X151.868 Y119.506 E0.02890
G1 X130.364 Y98.003 E1.66031
G1 X130.912 Y98.020 E0.02990
G1 X152.397 Y119.505 E1.65891
G1 X152.926 Y119.504 E0.02890
G1 X148.720 Y115.297 E0.32479
G1 E-1.50000 F1800.00000
G1 X150.887 Y116.934 F6000.000
G1 E1.50000 F1800.00000
G1 X153.456 Y119.502 E0.19832 F1680.000
G1 X153.985 Y119.501 E0.02890
G1 X152.459 Y117.976 E0.11779
G1 E-1.50000 F1800.00000
G1 X153.715 Y118.700 F6000.000
G1 E1.50000 F1800.00000
G1 X154.514 Y119.500 E0.06172 F1680.000
G1 E-1.50000 F1800.00000
G1 X144.511 Y111.088 F6000.000
G1 E1.50000 F1800.00000
G1 X131.459 Y98.036 E1.00775 F1680.000
G1 X132.007 Y98.053 E0.02990
G1 X143.091 Y109.138 E0.85585
G1 E-1.50000 F1800.00000
G1 X142.456 Y107.972 F6000.000
G1 E1.50000 F1800.00000
G1 X132.554 Y98.070 E0.76456 F1680.000
G1 X133.102 Y98.087 E0.02990
G1 X142.004 Y106.990 E0.68738
G1 X141.718 Y106.173 F6000.000
G1 X133.649 Y98.104 E0.62300 F1680.000
G1 X134.197 Y98.121 E0.02990
G1 X141.470 Y105.395 E0.56161
G1 X141.285 Y104.679 E0.04035
G1 X134.744 Y98.138 E0.50507
G1 X135.278 Y98.141 E0.02915
G1 X141.163 Y104.026 E0.45442
G1 X141.041 Y103.374 E0.03625
G1 X135.763 Y98.096 E0.40753
G1 X136.249 Y98.050 E0.02661
G1 X140.977 Y102.778 E0.36505
G1 X140.942 Y102.213 E0.03093
G1 X136.734 Y98.005 E0.32488
G1 X137.219 Y97.960 E0.02661
G1 X140.907 Y101.647 E0.28472
G1 X140.893 Y101.103 E0.02972
G1 X137.705 Y97.915 E0.24620
G1 X138.190 Y97.869 E0.02661
G1 X140.924 Y100.603 E0.21110
G1 X140.955 Y100.104 E0.02734
G1 X138.675 Y97.824 E0.17601
G1 X139.161 Y97.779 E0.02661
G1 X140.986 Y99.604 E0.14092
G1 X141.046 Y99.133 E0.02590
G1 X139.646 Y97.733 E0.10809
G1 X140.131 Y97.688 E0.02661
G1 X141.129 Y98.686 E0.07706
G1 X141.213 Y98.239 E0.02483
G1 X140.617 Y97.643 E0.04604
G1 X141.102 Y97.598 E0.02661
G1 X141.297 Y97.792 E0.01502
G1 E-1.50000 F1800.00000
G1 X119.334 Y115.625 F6000.000
G1 E1.50000 F1800.00000
G1 X123.286 Y119.577 E0.30515 F1680.000
G1 X122.756 Y119.579 E0.02890
G1 X119.949 Y116.771 E0.21677
G1 X120.289 Y117.642 F6000.000
G1 X122.227 Y119.580 E0.14963 F1680.000
G1 X121.698 Y119.581 E0.02890
G1 X120.568 Y118.452 E0.08721
G1 X120.744 Y119.158 E0.03971
G1 X121.169 Y119.583 E0.03281
G1 E-1.50000 F1800.00000
G1 X103.577 Y114.726 F6000.000
G1 E1.50000 F1800.00000
G1 X103.298 Y114.447 E0.02151 F1680.000
G1 E-1.50000 F1800.00000
G1 X94.264 Y110.189 F6000.000
G1 E1.50000 F1800.00000
G1 X80.698 Y96.623 E1.04744 F1680.000
G1 X80.225 Y96.680 E0.02601
G1 X93.585 Y110.040 E1.03150
G1 X92.933 Y109.919 E0.03619
G1 X79.752 Y96.738 E1.01770
G1 X79.280 Y96.796 E0.02601
G1 X92.348 Y109.864 E1.00906
G1 X91.764 Y109.810 E0.03207
G1 X78.833 Y96.879 E0.99841
G1 X78.386 Y96.963 E0.02482
G1 X91.229 Y109.806 E0.99162
G1 X90.714 Y109.822 E0.02812
G1 X77.939 Y97.047 E0.98638
G1 X77.492 Y97.131 E0.02482
G1 X90.199 Y109.838 E0.98114
G1 X89.727 Y109.897 E0.02596
G1 X77.045 Y97.214 E0.97921
G1 X76.598 Y97.298 E0.02482
G1 X89.268 Y109.968 E0.97825
G1 X88.809 Y110.039 E0.02538
G1 X76.151 Y97.382 E0.97729
G1 X75.705 Y97.466 E0.02482
G1 X88.373 Y110.134 E0.97816
G1 X87.960 Y110.252 E0.02345
G1 X75.222 Y97.514 E0.98349
G1 X74.737 Y97.559 E0.02663
