; generated by Slic3r 1.2.9 on 2015-09-17 at 19:08:57

; external perimeters extrusion width = 0.45mm
; perimeters extrusion width = 0.45mm
; infill extrusion width = 0.45mm
; solid infill extrusion width = 0.45mm
; top infill extrusion width = 0.45mm

M190 S100 ; set bed temperature
M201 X1000 Y1000 E600
M109 S255
M92 E161.3
G28
G92 E0.0
G1 X8.0 F2000
G1 Y60.0 E4.0  F1000.0
G1 Y100.0 E8.5  F1000.0
G92 E0.0
G21 ; set units to millimeters
G90 ; use absolute coordinates
M83 ; use relative distances for extrusion
G1 E-1.50000 F1800.00000
G1 Z0.350 F6000.000
G1 X78.728 Y92.786 F6000.000
G1 E1.50000 F1800.00000
G1 E0.12762 F1800.000 ; pressure advance
G1 X79.138 Y92.457 E0.02868 F2100.000
G1 X79.519 Y92.200 E0.02502
G1 X79.959 Y91.956 E0.02748
G1 X80.415 Y91.757 E0.02711
G1 X80.921 Y91.590 E0.02909
G1 X81.335 Y91.492 E0.02319
G1 X81.802 Y91.424 E0.02576
G1 X82.200 Y91.402 E0.02174
G1 X92.323 Y91.399 E0.55221
G1 X117.695 Y91.536 E1.38412
G1 X118.354 Y91.580 E0.03603
G1 X118.813 Y91.659 E0.02541
G1 X119.521 Y91.867 E0.04022
G1 X120.041 Y92.093 E0.03095
G1 X120.479 Y92.335 E0.02728
G1 X120.708 Y92.484 E0.01491
G1 X121.272 Y92.922 E0.03898
G1 X121.517 Y93.148 E0.01816
G1 X121.886 Y93.542 E0.02947
G1 X122.264 Y94.025 E0.03342
G1 X122.508 Y94.388 E0.02389
G1 X122.745 Y94.796 E0.02573
G1 X123.037 Y95.389 E0.03603
G1 X123.363 Y96.240 E0.04974
G1 X123.566 Y96.941 E0.03980
G1 X123.769 Y97.960 E0.05666
G1 X123.851 Y98.629 E0.03681
G1 X123.902 Y99.580 E0.05192
G1 X123.888 Y100.359 E0.04251
G1 X123.849 Y100.896 E0.02939
G1 X123.767 Y101.559 E0.03643
G1 X123.646 Y102.220 E0.03664
G1 X123.395 Y103.170 E0.05360
G1 X123.192 Y103.744 E0.03324
G1 X122.953 Y104.301 E0.03304
G1 X122.686 Y104.817 E0.03169
G1 X122.376 Y105.320 E0.03224
G1 X122.107 Y105.693 E0.02510
G1 X121.764 Y106.100 E0.02904
G1 X121.279 Y106.576 E0.03704
G1 X120.922 Y106.869 E0.02523
G1 X120.452 Y107.186 E0.03092
G1 X120.050 Y107.406 E0.02498
G1 X119.577 Y107.614 E0.02819
G1 X119.274 Y107.722 E0.01759
G1 X118.853 Y107.836 E0.02377
G1 X118.243 Y107.939 E0.03372
G1 X117.691 Y107.969 E0.03020
G1 X107.670 Y107.969 E0.54666
G1 X82.297 Y107.833 E1.38412
G1 X81.761 Y107.803 E0.02928
G1 X81.148 Y107.699 E0.03394
G1 X80.685 Y107.572 E0.02617
G1 X80.167 Y107.372 E0.03027
G1 X79.481 Y107.007 E0.04240
G1 X79.079 Y106.732 E0.02658
G1 X78.608 Y106.339 E0.03349
G1 X78.236 Y105.964 E0.02879
G1 X77.894 Y105.556 E0.02903
G1 X77.624 Y105.182 E0.02521
G1 X77.314 Y104.680 E0.03216
G1 X77.045 Y104.158 E0.03203
G1 X76.812 Y103.618 E0.03211
G1 X76.515 Y102.727 E0.05120
G1 X76.355 Y102.081 E0.03632
G1 X76.256 Y101.560 E0.02892
G1 X76.165 Y100.894 E0.03670
G1 X76.113 Y100.222 E0.03673
G1 X76.109 Y99.083 E0.06216
G1 X76.150 Y98.484 E0.03276
G1 X76.222 Y97.884 E0.03294
G1 X76.324 Y97.293 E0.03271
G1 X76.463 Y96.694 E0.03355
G1 X76.637 Y96.103 E0.03360
G1 X76.834 Y95.559 E0.03156
G1 X77.012 Y95.144 E0.02464
G1 X77.255 Y94.660 E0.02957
G1 X77.495 Y94.247 E0.02605
G1 X77.840 Y93.747 E0.03314
G1 X78.353 Y93.145 E0.04313
G1 X78.684 Y92.826 E0.02508
G1 E-0.12762 F1800.000 ; pressure discharge
G1 E-1.50000 F1800.00000
G1 X109.240 Y104.406 F6000.000
G1 E1.50000 F1800.00000
G1 E0.08151 F1800.000 ; pressure advance
G1 X108.858 Y104.672 E0.02537 F1680.000
G1 X108.647 Y104.781 E0.01294
G1 X108.287 Y104.912 E0.02092
G1 X108.078 Y104.958 E0.01166
G1 X107.674 Y104.993 E0.02217
G1 X107.227 Y104.946 E0.02449
G1 X107.003 Y104.887 E0.01263
G1 X106.691 Y104.764 E0.01831
G1 X106.480 Y104.652 E0.01303
G1 X106.232 Y104.485 E0.01630
G1 X106.012 Y104.302 E0.01563
G1 X105.814 Y104.103 E0.01534
G1 X105.472 Y103.668 E0.03016
G1 X105.284 Y103.366 E0.01938
G1 X105.107 Y103.023 E0.02108
G1 X104.950 Y102.655 E0.02182
G1 X104.763 Y102.103 E0.03178
G1 X104.645 Y101.639 E0.02612
G1 X104.554 Y101.159 E0.02665
G1 X104.490 Y100.665 E0.02720
G1 X104.454 Y100.161 E0.02755
G1 X104.445 Y99.655 E0.02761
G1 X104.485 Y98.896 E0.04146
G1 X104.537 Y98.457 E0.02413
G1 X104.706 Y97.609 E0.04715
G1 X104.819 Y97.217 E0.02227
G1 X104.953 Y96.840 E0.02181
G1 X105.219 Y96.257 E0.03498
G1 X105.558 Y95.715 E0.03484
G1 X105.912 Y95.299 E0.02979
G1 X106.094 Y95.131 E0.01355
G1 X106.477 Y94.855 E0.02576
G1 X106.746 Y94.717 E0.01649
G1 X107.128 Y94.582 E0.02207
G1 X107.455 Y94.523 E0.01814
G1 X107.690 Y94.511 E0.01284
G1 X108.152 Y94.560 E0.02535
G1 X108.602 Y94.703 E0.02578
G1 X108.820 Y94.811 E0.01326
G1 X109.074 Y94.971 E0.01635
G1 X109.292 Y95.142 E0.01515
G1 X109.492 Y95.330 E0.01496
G1 X109.716 Y95.585 E0.01854
G1 X109.912 Y95.852 E0.01805
G1 X110.097 Y96.153 E0.01924
G1 X110.265 Y96.479 E0.02005
G1 X110.424 Y96.852 E0.02209
G1 X110.599 Y97.366 E0.02962
G1 X110.714 Y97.802 E0.02462
G1 X110.808 Y98.279 E0.02653
G1 X110.877 Y98.787 E0.02793
G1 X110.915 Y99.265 E0.02620
G1 X110.927 Y99.876 E0.03330
G1 X110.907 Y100.377 E0.02734
G1 X110.796 Y101.295 E0.05047
G1 X110.625 Y102.050 E0.04222
G1 X110.487 Y102.478 E0.02456
G1 X110.225 Y103.109 E0.03723
G1 X110.061 Y103.414 E0.01893
G1 X109.847 Y103.746 E0.02154
G1 X109.473 Y104.193 E0.03180
G1 X109.284 Y104.365 E0.01394
G1 X109.481 Y104.693 F6000.000
G1 X109.046 Y104.998 E0.02897 F1680.000
G1 X108.798 Y105.125 E0.01521
G1 X108.393 Y105.272 E0.02351
G1 X108.136 Y105.330 E0.01436
G1 X107.679 Y105.369 E0.02500
G1 X107.406 Y105.353 E0.01493
G1 X107.150 Y105.313 E0.01410
G1 X106.887 Y105.244 E0.01486
G1 X106.533 Y105.105 E0.02071
G1 X106.287 Y104.974 E0.01527
G1 X106.007 Y104.785 E0.01839
G1 X105.759 Y104.579 E0.01761
G1 X105.533 Y104.352 E0.01748
G1 X105.165 Y103.883 E0.03249
G1 X104.958 Y103.552 E0.02131
G1 X104.768 Y103.183 E0.02263
G1 X104.599 Y102.789 E0.02337
G1 X104.404 Y102.210 E0.03337
G1 X104.279 Y101.721 E0.02753
G1 X104.184 Y101.218 E0.02788
G1 X104.117 Y100.703 E0.02838
G1 X104.079 Y100.178 E0.02870
G1 X104.070 Y99.649 E0.02887
G1 X104.111 Y98.864 E0.04285
G1 X104.167 Y98.398 E0.02561
G1 X104.342 Y97.521 E0.04880
G1 X104.462 Y97.103 E0.02374
G1 X104.605 Y96.700 E0.02333
G1 X104.886 Y96.085 E0.03684
G1 X105.066 Y95.773 E0.01968
G1 X105.259 Y95.488 E0.01878
G1 X105.641 Y95.039 E0.03213
G1 X105.856 Y94.840 E0.01603
G1 X106.281 Y94.534 E0.02853
G1 X106.588 Y94.376 E0.01882
G1 X107.040 Y94.217 E0.02614
G1 X107.412 Y94.150 E0.02065
G1 X107.690 Y94.136 E0.01519
G1 X107.962 Y94.150 E0.01484
G1 X108.229 Y94.192 E0.01474
G1 X108.476 Y94.257 E0.01393
G1 X108.750 Y94.358 E0.01595
G1 X109.003 Y94.483 E0.01540
G1 X109.290 Y94.664 E0.01848
G1 X109.537 Y94.858 E0.01713
G1 X109.762 Y95.069 E0.01684
G1 X110.009 Y95.350 E0.02040
G1 X110.223 Y95.643 E0.01978
G1 X110.423 Y95.968 E0.02085
G1 X110.604 Y96.319 E0.02156
G1 X110.775 Y96.717 E0.02361
G1 X110.958 Y97.258 E0.03113
G1 X111.079 Y97.718 E0.02597
G1 X111.178 Y98.218 E0.02778
G1 X111.250 Y98.746 E0.02911
G1 X111.290 Y99.247 E0.02738
G1 X111.302 Y99.880 E0.03454
G1 X111.281 Y100.402 E0.02850
G1 X111.237 Y100.878 E0.02610
G1 X111.165 Y101.364 E0.02680
G1 X110.987 Y102.149 E0.04390
G1 X110.839 Y102.608 E0.02631
G1 X110.564 Y103.269 E0.03908
G1 X110.384 Y103.605 E0.02075
G1 X110.153 Y103.963 E0.02322
G1 X109.955 Y104.220 E0.01773
G1 X109.739 Y104.459 E0.01757
G1 X109.525 Y104.653 E0.01574
G1 X109.111 Y104.539 F6000.000
G1 E-0.08151 F1800.000 ; pressure discharge
G1 E-1.50000 F1800.00000
G1 X106.502 Y104.261 F6000.000
G1 E1.50000 F1800.00000
G1 X105.898 Y103.657 E0.04763 F1680.000
G1 E-1.50000 F1800.00000
G1 X105.186 Y102.403 F6000.000
G1 E1.50000 F1800.00000
G1 X107.469 Y104.686 E0.18014 F1680.000
G1 X108.019 Y104.694 E0.03072
G1 X104.948 Y101.622 E0.24240
G1 X104.815 Y100.947 E0.03838
G1 X108.451 Y104.583 E0.28692
G1 X108.812 Y104.401 E0.02254
G1 X104.748 Y100.338 E0.32067
G1 X104.724 Y99.771 E0.03167
G1 X109.123 Y104.171 E0.34722
G1 X109.395 Y103.900 E0.02140
G1 X104.738 Y99.243 E0.36748
G1 X104.772 Y98.735 E0.02843
G1 X109.645 Y103.607 E0.38454
G1 X109.855 Y103.275 E0.02194
G1 X104.842 Y98.263 E0.39558
G1 X104.933 Y97.811 E0.02573
G1 X110.034 Y102.912 E0.40263
G1 X110.194 Y102.530 E0.02315
G1 X105.047 Y97.382 E0.40621
G1 X105.178 Y96.972 E0.02407
G1 X110.333 Y102.126 E0.40676
G1 X110.440 Y101.691 E0.02501
G1 X105.341 Y96.592 E0.40241
G1 X105.520 Y96.228 E0.02260
G1 X110.536 Y101.244 E0.39586
G1 X110.601 Y100.767 E0.02688
G1 X105.730 Y95.896 E0.38441
G1 X105.980 Y95.603 E0.02147
G1 X110.639 Y100.263 E0.36774
G1 X110.648 Y99.729 E0.02981
G1 X106.251 Y95.332 E0.34699
G1 X106.558 Y95.097 E0.02159
G1 X110.624 Y99.163 E0.32091
G1 X110.556 Y98.553 E0.03431
G1 X106.925 Y94.922 E0.28652
G1 X107.354 Y94.808 E0.02474
G1 X110.426 Y97.880 E0.24244
G1 X110.186 Y97.098 E0.04567
G1 X107.908 Y94.820 E0.17975
G1 E-1.50000 F1800.00000
G1 X108.959 Y95.329 F6000.000
G1 E1.50000 F1800.00000
G1 X109.521 Y95.891 E0.04436 F1680.000
G1 E-1.50000 F1800.00000
G1 X114.994 Y102.767 F6000.000
G1 E1.50000 F1800.00000
G1 X114.858 Y102.403 E0.02117 F1680.000
G1 X114.673 Y101.758 E0.03662
G1 X114.578 Y101.301 E0.02546
G1 X114.508 Y100.822 E0.02639
G1 X114.457 Y100.160 E0.03626
G1 X114.451 Y99.415 E0.04061
G1 X114.496 Y98.784 E0.03453
G1 X114.565 Y98.279 E0.02778
G1 X114.659 Y97.802 E0.02653
G1 X114.774 Y97.364 E0.02472
G1 X114.922 Y96.922 E0.02543
G1 X115.104 Y96.488 E0.02566
G1 X115.276 Y96.152 E0.02059
G1 X115.461 Y95.852 E0.01923
G1 X115.657 Y95.585 E0.01805
G1 X115.881 Y95.330 E0.01853
G1 X116.081 Y95.142 E0.01495
G1 X116.303 Y94.968 E0.01539
G1 X116.552 Y94.811 E0.01610
G1 X116.772 Y94.703 E0.01334
G1 X117.222 Y94.560 E0.02577
G1 X117.445 Y94.525 E0.01233
G1 X117.814 Y94.519 E0.02015
G1 X118.158 Y94.562 E0.01890
G1 X118.470 Y94.651 E0.01770
G1 X118.681 Y94.740 E0.01247
G1 X119.075 Y94.972 E0.02494
G1 X119.461 Y95.299 E0.02763
G1 X119.819 Y95.720 E0.03014
G1 X119.989 Y95.971 E0.01656
G1 X120.154 Y96.257 E0.01798
G1 X120.420 Y96.840 E0.03498
G1 X120.554 Y97.217 E0.02181
G1 X120.666 Y97.609 E0.02226
G1 X120.837 Y98.467 E0.04771
G1 X120.888 Y98.896 E0.02357
G1 X120.928 Y99.655 E0.04146
G1 X120.919 Y100.161 E0.02761
G1 X120.883 Y100.665 E0.02755
G1 X120.819 Y101.159 E0.02720
G1 X120.727 Y101.642 E0.02678
G1 X120.607 Y102.111 E0.02645
G1 X120.423 Y102.655 E0.03132
G1 X120.266 Y103.023 E0.02182
G1 X120.088 Y103.366 E0.02108
G1 X119.901 Y103.668 E0.01938
G1 X119.559 Y104.102 E0.03015
G1 X119.356 Y104.306 E0.01572
G1 X119.141 Y104.485 E0.01523
G1 X118.893 Y104.652 E0.01632
G1 X118.682 Y104.764 E0.01303
G1 X118.370 Y104.887 E0.01831
G1 X118.146 Y104.946 E0.01262
G1 X117.699 Y104.993 E0.02449
G1 X117.294 Y104.958 E0.02217
G1 X117.086 Y104.912 E0.01166
G1 X116.726 Y104.781 E0.02092
G1 X116.514 Y104.672 E0.01294
G1 X116.133 Y104.405 E0.02541
G1 X115.900 Y104.194 E0.01715
G1 X115.524 Y103.744 E0.03197
G1 X115.358 Y103.492 E0.01649
G1 X115.143 Y103.099 E0.02443
G1 X115.018 Y102.821 E0.01658
G1 X114.647 Y102.909 F6000.000
G1 X114.502 Y102.521 E0.02263 F1680.000
G1 X114.309 Y101.848 E0.03818
G1 X114.209 Y101.366 E0.02684
G1 X114.135 Y100.864 E0.02770
G1 X114.082 Y100.175 E0.03767
G1 X114.076 Y99.403 E0.04212
G1 X114.123 Y98.745 E0.03598
G1 X114.195 Y98.218 E0.02905
G1 X114.294 Y97.718 E0.02778
G1 X114.415 Y97.257 E0.02600
G1 X114.571 Y96.790 E0.02687
G1 X114.764 Y96.330 E0.02723
G1 X114.950 Y95.968 E0.02217
G1 X115.150 Y95.643 E0.02085
G1 X115.364 Y95.350 E0.01978
G1 X115.611 Y95.069 E0.02040
G1 X115.836 Y94.858 E0.01684
G1 X116.086 Y94.661 E0.01738
G1 X116.369 Y94.483 E0.01823
G1 X116.623 Y94.358 E0.01543
G1 X116.879 Y94.263 E0.01493
G1 X117.144 Y94.192 E0.01495
G1 X117.413 Y94.150 E0.01484
G1 X117.835 Y94.144 E0.02301
G1 X118.233 Y94.194 E0.02188
G1 X118.595 Y94.297 E0.02051
G1 X118.849 Y94.404 E0.01507
G1 X119.285 Y94.660 E0.02760
G1 X119.514 Y94.837 E0.01574
G1 X119.732 Y95.039 E0.01624
G1 X120.118 Y95.493 E0.03248
G1 X120.307 Y95.773 E0.01843
G1 X120.487 Y96.085 E0.01968
G1 X120.768 Y96.700 E0.03684
G1 X120.911 Y97.103 E0.02333
G1 X121.031 Y97.521 E0.02374
G1 X121.208 Y98.408 E0.04936
G1 X121.262 Y98.864 E0.02505
G1 X121.303 Y99.649 E0.04285
G1 X121.294 Y100.178 E0.02887
G1 X121.256 Y100.703 E0.02870
G1 X121.189 Y101.218 E0.02838
G1 X121.093 Y101.723 E0.02802
G1 X120.967 Y102.218 E0.02786
G1 X120.774 Y102.789 E0.03290
G1 X120.605 Y103.183 E0.02338
G1 X120.415 Y103.552 E0.02263
G1 X120.208 Y103.883 E0.02131
G1 X119.840 Y104.352 E0.03248
G1 X119.609 Y104.583 E0.01787
G1 X119.366 Y104.785 E0.01721
G1 X119.086 Y104.974 E0.01840
G1 X118.839 Y105.105 E0.01527
G1 X118.486 Y105.244 E0.02071
G1 X118.223 Y105.313 E0.01486
G1 X117.967 Y105.353 E0.01413
G1 X117.694 Y105.369 E0.01491
G1 X117.237 Y105.330 E0.02500
G1 X116.980 Y105.272 E0.01436
G1 X116.575 Y105.125 E0.02351
G1 X116.327 Y104.998 E0.01521
G1 X115.892 Y104.693 E0.02901
G1 X115.634 Y104.459 E0.01896
G1 X115.414 Y104.215 E0.01791
G1 X115.219 Y103.962 E0.01747
G1 X115.037 Y103.685 E0.01808
G1 X114.807 Y103.266 E0.02606
G1 X114.672 Y102.964 E0.01805
G1 X114.895 Y102.595 F6000.000
G1 X115.189 Y102.409 F6000.000
G1 X117.470 Y104.690 E0.18006 F1680.000
G1 X118.014 Y104.691 E0.03033
G1 X114.947 Y101.624 E0.24211
G1 X114.818 Y100.952 E0.03819
G1 X118.450 Y104.585 E0.28679
G1 X118.816 Y104.409 E0.02269
G1 X114.754 Y100.346 E0.32075
G1 X114.730 Y99.780 E0.03163
G1 X119.121 Y104.170 E0.34662
G1 X119.392 Y103.899 E0.02142
G1 X114.734 Y99.241 E0.36769
G1 X114.771 Y98.735 E0.02833
G1 X119.641 Y103.605 E0.38446
G1 X119.855 Y103.277 E0.02188
G1 X114.836 Y98.258 E0.39626
G1 X114.925 Y97.805 E0.02577
G1 X120.039 Y102.918 E0.40366
G1 X120.196 Y102.533 E0.02321
G1 X115.039 Y97.376 E0.40718
G1 X115.174 Y96.969 E0.02394
G1 X120.333 Y102.128 E0.40729
G1 X120.446 Y101.698 E0.02479
G1 X115.335 Y96.586 E0.40355
G1 X115.518 Y96.228 E0.02250
G1 X120.536 Y101.245 E0.39612
G1 X120.602 Y100.768 E0.02688
G1 X115.730 Y95.897 E0.38456
G1 X115.979 Y95.604 E0.02149
G1 X120.641 Y100.266 E0.36805
G1 X120.652 Y99.734 E0.02970
G1 X116.250 Y95.332 E0.34747
G1 X116.558 Y95.097 E0.02160
G1 X120.622 Y99.161 E0.32086
G1 X120.556 Y98.553 E0.03417
G1 X116.925 Y94.922 E0.28666
G1 X117.352 Y94.806 E0.02470
G1 X120.421 Y97.876 E0.24230
G1 X120.186 Y97.098 E0.04536
G1 X117.907 Y94.819 E0.17990
G1 E-1.50000 F1800.00000
G1 X118.890 Y95.260 F6000.000
G1 E1.50000 F1800.00000
G1 X119.445 Y95.814 E0.04381 F1680.000
G1 E-1.50000 F1800.00000
G1 X115.874 Y103.636 F6000.000
G1 E1.50000 F1800.00000
G1 X116.419 Y104.181 E0.04305 F1680.000
G1 E-1.50000 F1800.00000
G1 X85.252 Y101.913 F6000.000
G1 E1.50000 F1800.00000
G1 X85.114 Y102.342 E0.02456 F1680.000
G1 X84.852 Y102.972 E0.03723
G1 X84.688 Y103.278 E0.01893
G1 X84.474 Y103.610 E0.02154
G1 X84.295 Y103.843 E0.01606
G1 X84.101 Y104.057 E0.01576
G1 X83.699 Y104.399 E0.02877
G1 X83.275 Y104.644 E0.02672
G1 X82.915 Y104.775 E0.02092
G1 X82.706 Y104.822 E0.01166
G1 X82.301 Y104.856 E0.02217
G1 X82.073 Y104.844 E0.01247
G1 X81.631 Y104.751 E0.02465
G1 X81.318 Y104.628 E0.01831
G1 X81.108 Y104.516 E0.01303
G1 X80.860 Y104.349 E0.01630
G1 X80.640 Y104.165 E0.01563
G1 X80.441 Y103.966 E0.01534
G1 X80.100 Y103.532 E0.03016
G1 X79.912 Y103.230 E0.01938
G1 X79.734 Y102.887 E0.02108
G1 X79.577 Y102.519 E0.02182
G1 X79.391 Y101.967 E0.03178
G1 X79.273 Y101.503 E0.02612
G1 X79.182 Y101.023 E0.02665
G1 X79.118 Y100.528 E0.02720
G1 X79.081 Y100.025 E0.02755
G1 X79.073 Y99.519 E0.02761
G1 X79.112 Y98.760 E0.04146
G1 X79.165 Y98.321 E0.02413
G1 X79.334 Y97.473 E0.04715
G1 X79.447 Y97.081 E0.02227
G1 X79.580 Y96.704 E0.02181
G1 X79.847 Y96.121 E0.03498
G1 X80.185 Y95.579 E0.03484
G1 X80.539 Y95.163 E0.02979
G1 X80.722 Y94.994 E0.01355
G1 X81.105 Y94.718 E0.02576
G1 X81.535 Y94.513 E0.02602
G1 X81.755 Y94.445 E0.01255
G1 X82.082 Y94.387 E0.01814
G1 X82.550 Y94.387 E0.02551
G1 X82.991 Y94.479 E0.02455
G1 X83.230 Y94.567 E0.01390
G1 X83.448 Y94.674 E0.01326
G1 X83.701 Y94.834 E0.01635
G1 X83.920 Y95.006 E0.01515
G1 X84.119 Y95.194 E0.01496
G1 X84.344 Y95.449 E0.01854
G1 X84.539 Y95.716 E0.01805
G1 X84.724 Y96.016 E0.01924
G1 X84.893 Y96.343 E0.02005
G1 X85.052 Y96.715 E0.02209
G1 X85.226 Y97.229 E0.02962
G1 X85.341 Y97.666 E0.02462
G1 X85.436 Y98.143 E0.02653
G1 X85.504 Y98.650 E0.02793
G1 X85.543 Y99.129 E0.02620
G1 X85.555 Y99.739 E0.03330
G1 X85.535 Y100.240 E0.02734
G1 X85.423 Y101.159 E0.05047
G1 X85.265 Y101.855 E0.03895
G1 X85.614 Y102.012 F6000.000
