; generated by Slic3r 1.2.9 on 2015-09-22 at 15:28:55

; external perimeters extrusion width = 0.45mm
; perimeters extrusion width = 0.45mm
; infill extrusion width = 0.45mm
; solid infill extrusion width = 0.45mm
; top infill extrusion width = 0.45mm

M107
M190 S50 ; set bed temperature
M201 X1000 Y1000 E600
M109 S210
M92 E161.3
G28
G92 E0.0
G1 X8.0 F2000
G1 Y60.0 E4.0  F1000.0
G1 Y100.0 E8.5  F1000.0
G92 E0.0
G21 ; set units to millimeters
G90 ; use absolute coordinates
M83 ; use relative distances for extrusion
G1 E-1.50000 F1800.00000
G1 Z0.350 F6000.000
G1 X53.312 Y88.067 F6000.000
G1 E1.50000 F1800.00000
G1 E0.12775 F1800.000 ; pressure advance
G1 X54.249 Y87.874 E0.05222 F2100.000
G1 X145.751 Y87.874 E4.99153
G1 X147.057 Y88.265 E0.07440
G1 X147.933 Y89.311 E0.07440
G1 X148.126 Y90.249 E0.05222
G1 X148.126 Y109.752 E1.06391
G1 X147.734 Y111.058 E0.07440
G1 X146.689 Y111.934 E0.07440
G1 X145.751 Y112.127 E0.05222
G1 X54.249 Y112.127 E4.99153
G1 X52.943 Y111.735 E0.07440
G1 X52.068 Y110.689 E0.07440
G1 X51.875 Y109.752 E0.05222
G1 X51.875 Y90.249 E1.06391
G1 X52.266 Y88.942 E0.07440
G1 X53.266 Y88.105 E0.07112
G1 E-0.12775 F1800.000 ; pressure discharge
G1 E-1.50000 F1800.00000
G1 X145.151 Y109.152 F6000.000
G1 E1.50000 F1800.00000
G1 E0.08166 F1800.000 ; pressure advance
G1 X54.849 Y109.152 E4.92608 F1680.000
G1 X54.849 Y90.849 E0.99846
G1 X145.151 Y90.849 E4.92608
G1 X145.151 Y109.092 E0.99519
G1 X145.526 Y109.527 F6000.000
G1 X54.474 Y109.527 E4.96698 F1680.000
G1 X54.474 Y90.474 E1.03937
G1 X145.526 Y90.474 E4.96698
G1 X145.526 Y109.467 E1.03609
G1 X145.180 Y109.327 F6000.000
G1 E-0.08166 F1800.000 ; pressure discharge
G1 E-1.50000 F1800.00000
G1 X144.876 Y91.323 F6000.000
G1 E1.50000 F1800.00000
G1 X144.677 Y91.124 E0.01536 F1680.000
G1 X144.146 Y91.124 E0.02893
G1 X144.876 Y91.853 E0.05627
G1 X144.876 Y92.383 E0.02893
G1 X143.616 Y91.124 E0.09718
G1 X143.086 Y91.124 E0.02893
G1 X144.876 Y92.914 E0.13809
G1 X144.876 Y93.444 E0.02893
G1 X142.556 Y91.124 E0.17900
G1 X142.026 Y91.124 E0.02893
G1 X144.876 Y93.974 E0.21990
G1 X144.876 Y94.504 E0.02893
G1 X141.495 Y91.124 E0.26081
G1 X140.965 Y91.124 E0.02893
G1 X144.876 Y95.035 E0.30172
G1 X144.876 Y95.565 E0.02893
G1 X140.435 Y91.124 E0.34263
G1 X139.905 Y91.124 E0.02893
G1 X144.876 Y96.095 E0.38354
G1 X144.876 Y96.625 E0.02893
G1 X139.374 Y91.124 E0.42445
G1 X138.844 Y91.124 E0.02893
G1 X144.876 Y97.155 E0.46536
G1 X144.876 Y97.686 E0.02893
G1 X138.314 Y91.124 E0.50627
G1 X137.784 Y91.124 E0.02893
G1 X144.876 Y98.216 E0.54718
G1 X144.876 Y98.746 E0.02893
G1 X137.254 Y91.124 E0.58809
G1 X136.723 Y91.124 E0.02893
G1 X144.876 Y99.276 E0.62900
G1 X144.876 Y99.807 E0.02893
G1 X136.193 Y91.124 E0.66991
G1 X135.663 Y91.124 E0.02893
G1 X144.876 Y100.337 E0.71082
G1 X144.876 Y100.867 E0.02893
G1 X135.133 Y91.124 E0.75173
G1 X134.602 Y91.124 E0.02893
G1 X144.876 Y101.397 E0.79264
G1 X144.876 Y101.927 E0.02893
G1 X134.072 Y91.124 E0.83355
G1 X133.542 Y91.124 E0.02893
G1 X144.876 Y102.458 E0.87446
G1 X144.876 Y102.988 E0.02893
G1 X133.012 Y91.124 E0.91537
G1 X132.481 Y91.124 E0.02893
G1 X144.876 Y103.518 E0.95627
G1 X144.876 Y104.048 E0.02893
G1 X131.951 Y91.124 E0.99718
G1 X131.421 Y91.124 E0.02893
G1 X144.876 Y104.579 E1.03809
G1 X144.876 Y105.109 E0.02893
G1 X130.891 Y91.124 E1.07900
G1 X130.361 Y91.124 E0.02893
G1 X144.876 Y105.639 E1.11991
G1 X144.876 Y106.169 E0.02893
G1 X129.830 Y91.124 E1.16082
G1 X129.300 Y91.124 E0.02893
G1 X144.876 Y106.700 E1.20173
G1 X144.876 Y107.230 E0.02893
G1 X128.770 Y91.124 E1.24264
G1 X128.240 Y91.124 E0.02893
G1 X144.876 Y107.760 E1.28355
G1 X144.876 Y108.290 E0.02893
G1 X127.709 Y91.124 E1.32446
G1 X127.179 Y91.124 E0.02893
G1 X144.876 Y108.820 E1.36537
G1 X144.402 Y108.876 E0.02605
G1 X126.649 Y91.124 E1.36969
G1 X126.119 Y91.124 E0.02893
G1 X143.871 Y108.876 E1.36969
G1 X143.341 Y108.876 E0.02893
G1 X125.589 Y91.124 E1.36969
G1 X125.058 Y91.124 E0.02893
G1 X142.811 Y108.876 E1.36969
G1 X142.281 Y108.876 E0.02893
G1 X124.528 Y91.124 E1.36969
G1 X123.998 Y91.124 E0.02893
G1 X141.750 Y108.876 E1.36969
G1 X141.220 Y108.876 E0.02893
G1 X123.468 Y91.124 E1.36969
G1 X122.937 Y91.124 E0.02893
G1 X140.690 Y108.876 E1.36969
G1 X140.160 Y108.876 E0.02893
G1 X122.407 Y91.124 E1.36969
G1 X121.877 Y91.124 E0.02893
G1 X139.630 Y108.876 E1.36969
G1 X139.099 Y108.876 E0.02893
G1 X121.347 Y91.124 E1.36969
G1 X120.817 Y91.124 E0.02893
G1 X138.569 Y108.876 E1.36969
G1 X138.039 Y108.876 E0.02893
G1 X120.286 Y91.124 E1.36969
G1 X119.756 Y91.124 E0.02893
G1 X137.509 Y108.876 E1.36969
G1 X136.978 Y108.876 E0.02893
G1 X119.226 Y91.124 E1.36969
G1 X118.696 Y91.124 E0.02893
G1 X136.448 Y108.876 E1.36969
G1 X135.918 Y108.876 E0.02893
G1 X118.165 Y91.124 E1.36969
G1 X117.635 Y91.124 E0.02893
G1 X135.388 Y108.876 E1.36969
G1 X134.857 Y108.876 E0.02893
G1 X117.105 Y91.124 E1.36969
G1 X116.575 Y91.124 E0.02893
G1 X134.327 Y108.876 E1.36969
G1 X133.797 Y108.876 E0.02893
G1 X116.044 Y91.124 E1.36969
G1 X115.514 Y91.124 E0.02893
G1 X133.267 Y108.876 E1.36969
G1 X132.737 Y108.876 E0.02893
G1 X114.984 Y91.124 E1.36969
G1 X114.454 Y91.124 E0.02893
G1 X132.206 Y108.876 E1.36969
G1 X131.676 Y108.876 E0.02893
G1 X113.924 Y91.124 E1.36969
G1 X113.393 Y91.124 E0.02893
G1 X131.146 Y108.876 E1.36969
G1 X130.616 Y108.876 E0.02893
G1 X112.863 Y91.124 E1.36969
G1 X112.333 Y91.124 E0.02893
G1 X130.085 Y108.876 E1.36969
G1 X129.555 Y108.876 E0.02893
G1 X111.803 Y91.124 E1.36969
G1 X111.272 Y91.124 E0.02893
G1 X129.025 Y108.876 E1.36969
G1 X128.495 Y108.876 E0.02893
G1 X110.742 Y91.124 E1.36969
G1 X110.212 Y91.124 E0.02893
G1 X127.965 Y108.876 E1.36969
G1 X127.434 Y108.876 E0.02893
G1 X109.682 Y91.124 E1.36969
G1 X109.152 Y91.124 E0.02893
G1 X126.904 Y108.876 E1.36969
G1 X126.374 Y108.876 E0.02893
G1 X108.621 Y91.124 E1.36969
G1 X108.091 Y91.124 E0.02893
G1 X125.844 Y108.876 E1.36969
G1 X125.313 Y108.876 E0.02893
G1 X107.561 Y91.124 E1.36969
G1 X107.031 Y91.124 E0.02893
G1 X124.783 Y108.876 E1.36969
G1 X124.253 Y108.876 E0.02893
G1 X106.500 Y91.124 E1.36969
G1 X105.970 Y91.124 E0.02893
G1 X123.723 Y108.876 E1.36969
G1 X123.193 Y108.876 E0.02893
G1 X105.440 Y91.124 E1.36969
G1 X104.910 Y91.124 E0.02893
G1 X122.662 Y108.876 E1.36969
G1 X122.132 Y108.876 E0.02893
G1 X104.380 Y91.124 E1.36969
G1 X103.849 Y91.124 E0.02893
G1 X121.602 Y108.876 E1.36969
G1 X121.072 Y108.876 E0.02893
G1 X103.319 Y91.124 E1.36969
G1 X102.789 Y91.124 E0.02893
G1 X120.541 Y108.876 E1.36969
G1 X120.011 Y108.876 E0.02893
G1 X102.259 Y91.124 E1.36969
G1 X101.728 Y91.124 E0.02893
G1 X119.481 Y108.876 E1.36969
G1 X118.951 Y108.876 E0.02893
G1 X101.198 Y91.124 E1.36969
G1 X100.668 Y91.124 E0.02893
G1 X118.420 Y108.876 E1.36969
G1 X117.890 Y108.876 E0.02893
G1 X100.138 Y91.124 E1.36969
G1 X99.608 Y91.124 E0.02893
G1 X117.360 Y108.876 E1.36969
G1 X116.830 Y108.876 E0.02893
G1 X99.077 Y91.124 E1.36969
G1 X98.547 Y91.124 E0.02893
G1 X116.300 Y108.876 E1.36969
G1 X115.769 Y108.876 E0.02893
G1 X98.017 Y91.124 E1.36969
G1 X97.487 Y91.124 E0.02893
G1 X115.239 Y108.876 E1.36969
G1 X114.709 Y108.876 E0.02893
G1 X96.956 Y91.124 E1.36969
G1 X96.426 Y91.124 E0.02893
G1 X114.179 Y108.876 E1.36969
G1 X113.648 Y108.876 E0.02893
G1 X95.896 Y91.124 E1.36969
G1 X95.366 Y91.124 E0.02893
G1 X113.118 Y108.876 E1.36969
G1 X112.588 Y108.876 E0.02893
G1 X94.835 Y91.124 E1.36969
G1 X94.305 Y91.124 E0.02893
G1 X112.058 Y108.876 E1.36969
G1 X111.528 Y108.876 E0.02893
G1 X93.775 Y91.124 E1.36969
G1 X93.245 Y91.124 E0.02893
G1 X110.997 Y108.876 E1.36969
G1 X110.467 Y108.876 E0.02893
G1 X92.715 Y91.124 E1.36969
G1 X92.184 Y91.124 E0.02893
G1 X109.937 Y108.876 E1.36969
G1 X109.407 Y108.876 E0.02893
G1 X91.654 Y91.124 E1.36969
G1 X91.124 Y91.124 E0.02893
G1 X108.876 Y108.876 E1.36969
G1 X108.346 Y108.876 E0.02893
G1 X90.594 Y91.124 E1.36969
G1 X90.063 Y91.124 E0.02893
G1 X107.816 Y108.876 E1.36969
G1 X107.286 Y108.876 E0.02893
G1 X89.533 Y91.124 E1.36969
G1 X89.003 Y91.124 E0.02893
G1 X106.756 Y108.876 E1.36969
G1 X106.225 Y108.876 E0.02893
G1 X88.473 Y91.124 E1.36969
G1 X87.943 Y91.124 E0.02893
G1 X105.695 Y108.876 E1.36969
G1 X105.165 Y108.876 E0.02893
G1 X87.412 Y91.124 E1.36969
G1 X86.882 Y91.124 E0.02893
G1 X104.635 Y108.876 E1.36969
G1 X104.104 Y108.876 E0.02893
G1 X86.352 Y91.124 E1.36969
G1 X85.822 Y91.124 E0.02893
G1 X103.574 Y108.876 E1.36969
G1 X103.044 Y108.876 E0.02893
G1 X85.291 Y91.124 E1.36969
G1 X84.761 Y91.124 E0.02893
G1 X102.514 Y108.876 E1.36969
G1 X101.983 Y108.876 E0.02893
G1 X84.231 Y91.124 E1.36969
G1 X83.701 Y91.124 E0.02893
G1 X101.453 Y108.876 E1.36969
G1 X100.923 Y108.876 E0.02893
G1 X83.171 Y91.124 E1.36969
G1 X82.640 Y91.124 E0.02893
G1 X100.393 Y108.876 E1.36969
G1 X99.863 Y108.876 E0.02893
G1 X82.110 Y91.124 E1.36969
G1 X81.580 Y91.124 E0.02893
G1 X99.332 Y108.876 E1.36969
G1 X98.802 Y108.876 E0.02893
G1 X81.050 Y91.124 E1.36969
G1 X80.519 Y91.124 E0.02893
G1 X98.272 Y108.876 E1.36969
G1 X97.742 Y108.876 E0.02893
G1 X79.989 Y91.124 E1.36969
G1 X79.459 Y91.124 E0.02893
G1 X97.211 Y108.876 E1.36969
G1 X96.681 Y108.876 E0.02893
G1 X78.929 Y91.124 E1.36969
G1 X78.398 Y91.124 E0.02893
G1 X96.151 Y108.876 E1.36969
G1 X95.621 Y108.876 E0.02893
G1 X77.868 Y91.124 E1.36969
G1 X77.338 Y91.124 E0.02893
G1 X95.091 Y108.876 E1.36969
G1 X94.560 Y108.876 E0.02893
G1 X76.808 Y91.124 E1.36969
G1 X76.278 Y91.124 E0.02893
G1 X94.030 Y108.876 E1.36969
G1 X93.500 Y108.876 E0.02893
G1 X75.747 Y91.124 E1.36969
G1 X75.217 Y91.124 E0.02893
G1 X92.970 Y108.876 E1.36969
G1 X92.439 Y108.876 E0.02893
G1 X74.687 Y91.124 E1.36969
G1 X74.157 Y91.124 E0.02893
G1 X91.909 Y108.876 E1.36969
G1 X91.379 Y108.876 E0.02893
G1 X73.626 Y91.124 E1.36969
G1 X73.096 Y91.124 E0.02893
G1 X90.849 Y108.876 E1.36969
G1 X90.319 Y108.876 E0.02893
G1 X72.566 Y91.124 E1.36969
G1 X72.036 Y91.124 E0.02893
G1 X89.788 Y108.876 E1.36969
G1 X89.258 Y108.876 E0.02893
G1 X71.506 Y91.124 E1.36969
G1 X70.975 Y91.124 E0.02893
G1 X88.728 Y108.876 E1.36969
G1 X88.198 Y108.876 E0.02893
G1 X70.445 Y91.124 E1.36969
G1 X69.915 Y91.124 E0.02893
G1 X87.667 Y108.876 E1.36969
G1 X87.137 Y108.876 E0.02893
G1 X69.385 Y91.124 E1.36969
G1 X68.854 Y91.124 E0.02893
G1 X86.607 Y108.876 E1.36969
G1 X86.077 Y108.876 E0.02893
G1 X68.324 Y91.124 E1.36969
G1 X67.794 Y91.124 E0.02893
G1 X85.547 Y108.876 E1.36969
G1 X85.016 Y108.876 E0.02893
G1 X67.264 Y91.124 E1.36969
G1 X66.734 Y91.124 E0.02893
G1 X84.486 Y108.876 E1.36969
G1 X83.956 Y108.876 E0.02893
G1 X66.203 Y91.124 E1.36969
G1 X65.673 Y91.124 E0.02893
G1 X83.426 Y108.876 E1.36969
G1 X82.895 Y108.876 E0.02893
G1 X65.143 Y91.124 E1.36969
G1 X64.613 Y91.124 E0.02893
G1 X82.365 Y108.876 E1.36969
G1 X81.835 Y108.876 E0.02893
G1 X64.082 Y91.124 E1.36969
G1 X63.552 Y91.124 E0.02893
G1 X81.305 Y108.876 E1.36969
G1 X80.774 Y108.876 E0.02893
G1 X63.022 Y91.124 E1.36969
G1 X62.492 Y91.124 E0.02893
G1 X80.244 Y108.876 E1.36969
G1 X79.714 Y108.876 E0.02893
G1 X61.961 Y91.124 E1.36969
G1 X61.431 Y91.124 E0.02893
G1 X79.184 Y108.876 E1.36969
G1 X78.654 Y108.876 E0.02893
G1 X60.901 Y91.124 E1.36969
G1 X60.371 Y91.124 E0.02893
G1 X78.123 Y108.876 E1.36969
G1 X77.593 Y108.876 E0.02893
G1 X59.841 Y91.124 E1.36969
G1 X59.310 Y91.124 E0.02893
G1 X77.063 Y108.876 E1.36969
G1 X76.533 Y108.876 E0.02893
G1 X58.780 Y91.124 E1.36969
G1 X58.250 Y91.124 E0.02893
G1 X76.002 Y108.876 E1.36969
G1 X75.472 Y108.876 E0.02893
G1 X57.720 Y91.124 E1.36969
G1 X57.189 Y91.124 E0.02893
G1 X74.942 Y108.876 E1.36969
G1 X74.412 Y108.876 E0.02893
G1 X56.659 Y91.124 E1.36969
G1 X56.129 Y91.124 E0.02893
G1 X73.882 Y108.876 E1.36969
G1 X73.351 Y108.876 E0.02893
G1 X55.599 Y91.124 E1.36969
G1 X55.125 Y91.180 E0.02605
G1 X72.821 Y108.876 E1.36536
G1 X72.291 Y108.876 E0.02893
G1 X55.125 Y91.710 E1.32445
G1 X55.125 Y92.241 E0.02893
G1 X71.761 Y108.876 E1.28354
G1 X71.230 Y108.876 E0.02893
G1 X55.125 Y92.771 E1.24263
G1 X55.125 Y93.301 E0.02893
G1 X70.700 Y108.876 E1.20172
G1 X70.170 Y108.876 E0.02893
G1 X55.125 Y93.831 E1.16081
G1 X55.125 Y94.361 E0.02893
G1 X69.640 Y108.876 E1.11990
G1 X69.110 Y108.876 E0.02893
G1 X55.125 Y94.892 E1.07900
G1 X55.125 Y95.422 E0.02893
G1 X68.579 Y108.876 E1.03809
G1 X68.049 Y108.876 E0.02893
G1 X55.125 Y95.952 E0.99718
G1 X55.125 Y96.482 E0.02893
G1 X67.519 Y108.876 E0.95627
G1 X66.989 Y108.876 E0.02893
G1 X55.125 Y97.013 E0.91536
G1 X55.125 Y97.543 E0.02893
G1 X66.458 Y108.876 E0.87445
G1 X65.928 Y108.876 E0.02893
G1 X55.125 Y98.073 E0.83354
G1 X55.125 Y98.603 E0.02893
G1 X65.398 Y108.876 E0.79263
G1 X64.868 Y108.876 E0.02893
G1 X55.125 Y99.133 E0.75172
G1 X55.125 Y99.664 E0.02893
G1 X64.337 Y108.876 E0.71081
G1 X63.807 Y108.876 E0.02893
G1 X55.125 Y100.194 E0.66990
G1 X55.125 Y100.724 E0.02893
G1 X63.277 Y108.876 E0.62899
G1 X62.747 Y108.876 E0.02893
G1 X55.125 Y101.254 E0.58808
G1 X55.125 Y101.785 E0.02893
G1 X62.217 Y108.876 E0.54717
G1 X61.686 Y108.876 E0.02893
G1 X55.125 Y102.315 E0.50626
G1 X55.125 Y102.845 E0.02893
G1 X61.156 Y108.876 E0.46535
G1 X60.626 Y108.876 E0.02893
G1 X55.125 Y103.375 E0.42444
G1 X55.125 Y103.905 E0.02893
G1 X60.096 Y108.876 E0.38353
G1 X59.565 Y108.876 E0.02893
G1 X55.125 Y104.436 E0.34263
G1 X55.125 Y104.966 E0.02893
G1 X59.035 Y108.876 E0.30172
G1 X58.505 Y108.876 E0.02893
G1 X55.125 Y105.496 E0.26081
G1 X55.125 Y106.026 E0.02893
G1 X57.975 Y108.876 E0.21990
G1 X57.445 Y108.876 E0.02893
G1 X55.125 Y106.557 E0.17899
G1 X55.125 Y107.087 E0.02893
G1 X56.914 Y108.876 E0.13808
G1 X56.384 Y108.876 E0.02893
G1 X55.125 Y107.617 E0.09717
G1 X55.125 Y108.147 E0.02893
G1 X55.854 Y108.876 E0.05626
G1 X55.324 Y108.876 E0.02893
G1 X55.125 Y108.678 E0.01535
M106 S216.75
G1 E-1.50000 F1800.00000
G1 Z0.550 F6000.000
G1 X145.119 Y109.120 F6000.000
G1 E1.50000 F1800.00000
G1 E0.06416 F1800.000 ; pressure advance
G1 X54.882 Y109.120 E3.05443 F2400.000
G1 X54.882 Y90.881 E0.61736
G1 X145.119 Y90.881 E3.05443
G1 X145.119 Y109.060 E0.61533
G1 X145.526 Y109.527 F6000.000
G1 X54.474 Y109.527 E3.08198 F2400.000
G1 X54.474 Y90.474 E0.64492
G1 X145.526 Y90.474 E3.08198
G1 X145.526 Y109.467 E0.64289
G1 X145.180 Y109.327 F6000.000
G1 E-0.06416 F1800.000 ; pressure discharge
G1 E-1.50000 F1800.00000
G1 X144.605 Y108.819 F6000.000
G1 E1.50000 F1800.00000
G1 X144.818 Y108.606 E0.01022 F2400.000
G1 X144.818 Y108.029 E0.01961
G1 X144.028 Y108.819 E0.03795
G1 X143.450 Y108.819 E0.01961
G1 X144.818 Y107.451 E0.06569
G1 X144.818 Y106.874 E0.01961
G1 X142.873 Y108.819 E0.09343
G1 X142.295 Y108.819 E0.01961
G1 X144.818 Y106.296 E0.12116
G1 X144.818 Y105.718 E0.01961
G1 X141.718 Y108.819 E0.14890
G1 X141.140 Y108.819 E0.01961
G1 X144.818 Y105.141 E0.17664
G1 X144.818 Y104.563 E0.01961
G1 X140.563 Y108.819 E0.20437
G1 X139.985 Y108.819 E0.01961
G1 X144.818 Y103.986 E0.23211
G1 X144.818 Y103.408 E0.01961
G1 X139.407 Y108.819 E0.25985
G1 X138.830 Y108.819 E0.01961
G1 X144.818 Y102.831 E0.28758
G1 X144.818 Y102.253 E0.01961
G1 X138.252 Y108.819 E0.31532
G1 X137.675 Y108.819 E0.01961
G1 X144.818 Y101.676 E0.34306
G1 X144.818 Y101.098 E0.01961
G1 X137.097 Y108.819 E0.37079
G1 X136.520 Y108.819 E0.01961
G1 X144.818 Y100.520 E0.39853
G1 X144.818 Y99.943 E0.01961
G1 X135.942 Y108.819 E0.42627
G1 X135.365 Y108.819 E0.01961
G1 X144.818 Y99.365 E0.45400
G1 X144.818 Y98.788 E0.01961
G1 X134.787 Y108.819 E0.48174
G1 X134.209 Y108.819 E0.01961
G1 X144.818 Y98.210 E0.50948
G1 X144.818 Y97.633 E0.01961
G1 X133.632 Y108.819 E0.53721
G1 X133.054 Y108.819 E0.01961
G1 X144.818 Y97.055 E0.56495
G1 X144.818 Y96.477 E0.01961
G1 X132.477 Y108.819 E0.59269
G1 X131.899 Y108.819 E0.01961
G1 X144.818 Y95.900 E0.62042
G1 X144.818 Y95.322 E0.01961
G1 X131.322 Y108.819 E0.64816
G1 X130.744 Y108.819 E0.01961
G1 X144.818 Y94.745 E0.67590
G1 X144.818 Y94.167 E0.01961
G1 X130.167 Y108.819 E0.70363
G1 X129.589 Y108.819 E0.01961
G1 X144.818 Y93.590 E0.73137
G1 X144.818 Y93.012 E0.01961
G1 X129.011 Y108.819 E0.75911
G1 X128.434 Y108.819 E0.01961
G1 X144.818 Y92.435 E0.78684
G1 X144.818 Y91.857 E0.01961
G1 X127.856 Y108.819 E0.81458
G1 X127.279 Y108.819 E0.01961
G1 X144.818 Y91.279 E0.84231
G1 X144.339 Y91.181 E0.01662
G1 X126.701 Y108.819 E0.84702
G1 X126.124 Y108.819 E0.01961
