; generated by Slic3r 1.2.9 on 2015-09-13 at 14:17:08

; external perimeters extrusion width = 0.30mm
; perimeters extrusion width = 0.30mm
; infill extrusion width = 0.50mm
; solid infill extrusion width = 0.30mm
; top infill extrusion width = 0.30mm

M107
M190 S50 ; set bed temperature
M201 X1000 Y1000 E600
M109 S210
M92 E161.3
G28
G92 E0.0
G1 X8.0 F2000
G1 Y60.0 E4.0  F1000.0
G1 Y100.0 E8.5  F1000.0
G92 E0.0
G21 ; set units to millimeters
G90 ; use absolute coordinates
M83 ; use relative distances for extrusion
G1 E-1.50000 F1800.00000
G1 Z0.350 F6000.000
G1 X90.936 Y92.829 F6000.000
G1 E1.50000 F1800.00000
G1 E0.15294 F1800.000 ; pressure advance
G1 X91.364 Y92.447 E0.02998 F2400.000
G1 X91.795 Y92.125 E0.02811
G1 X92.173 Y91.889 E0.02331
G1 X92.692 Y91.624 E0.03040
G1 X93.219 Y91.418 E0.02959
G1 X93.803 Y91.255 E0.03166
G1 X94.458 Y91.151 E0.03465
G1 X94.869 Y91.127 E0.02154
G1 X104.996 Y91.124 E0.52908
G1 X105.449 Y91.144 E0.02366
G1 X106.205 Y91.256 E0.03992
G1 X106.958 Y91.478 E0.04102
G1 X107.514 Y91.720 E0.03168
G1 X107.977 Y91.977 E0.02768
G1 X108.209 Y92.128 E0.01446
G1 X108.819 Y92.602 E0.04037
G1 X109.065 Y92.829 E0.01748
G1 X109.460 Y93.250 E0.03014
G1 X109.862 Y93.764 E0.03411
G1 X110.112 Y94.136 E0.02342
G1 X110.357 Y94.557 E0.02543
G1 X110.610 Y95.062 E0.02955
G1 X110.797 Y95.495 E0.02462
G1 X111.051 Y96.214 E0.03984
G1 X111.182 Y96.669 E0.02471
G1 X111.316 Y97.246 E0.03096
G1 X111.434 Y97.916 E0.03554
G1 X111.506 Y98.521 E0.03185
G1 X111.549 Y99.144 E0.03261
G1 X111.550 Y100.165 E0.05334
G1 X111.489 Y101.006 E0.04407
G1 X111.396 Y101.693 E0.03621
G1 X111.296 Y102.217 E0.02786
G1 X111.098 Y103.001 E0.04228
G1 X110.821 Y103.813 E0.04483
G1 X110.579 Y104.374 E0.03187
G1 X110.343 Y104.835 E0.02709
G1 X109.977 Y105.440 E0.03693
G1 X109.693 Y105.833 E0.02536
G1 X109.407 Y106.178 E0.02338
G1 X108.996 Y106.603 E0.03090
G1 X108.441 Y107.076 E0.03810
G1 X107.951 Y107.407 E0.03092
G1 X107.365 Y107.720 E0.03466
G1 X106.826 Y107.936 E0.03035
G1 X106.251 Y108.100 E0.03125
G1 X105.583 Y108.213 E0.03542
G1 X105.004 Y108.244 E0.03026
G1 X94.996 Y108.244 E0.52288
G1 X94.562 Y108.225 E0.02270
G1 X93.996 Y108.151 E0.02984
G1 X93.262 Y107.966 E0.03952
G1 X92.635 Y107.720 E0.03518
G1 X91.978 Y107.361 E0.03912
G1 X91.560 Y107.076 E0.02645
G1 X91.187 Y106.771 E0.02514
G1 X90.668 Y106.263 E0.03797
G1 X90.310 Y105.836 E0.02907
G1 X90.093 Y105.539 E0.01923
G1 X89.657 Y104.835 E0.04325
G1 X89.421 Y104.373 E0.02713
G1 X89.179 Y103.812 E0.03191
G1 X88.900 Y102.993 E0.04522
G1 X88.739 Y102.370 E0.03361
G1 X88.605 Y101.693 E0.03608
G1 X88.496 Y100.853 E0.04425
G1 X88.450 Y100.165 E0.03602
G1 X88.441 Y99.620 E0.02848
G1 X88.494 Y98.521 E0.05747
G1 X88.568 Y97.903 E0.03252
G1 X88.674 Y97.292 E0.03242
G1 X88.819 Y96.669 E0.03336
G1 X88.950 Y96.213 E0.02479
G1 X89.148 Y95.638 E0.03180
G1 X89.326 Y95.203 E0.02457
G1 X89.571 Y94.693 E0.02955
G1 X89.824 Y94.244 E0.02694
G1 X90.257 Y93.603 E0.04040
G1 X90.541 Y93.249 E0.02369
G1 X90.894 Y92.872 E0.02698
G1 X91.181 Y93.092 F6000.000
G1 X91.584 Y92.731 E0.02824 F2400.000
G1 X91.991 Y92.426 E0.02658
G1 X92.345 Y92.204 E0.02187
G1 X92.830 Y91.955 E0.02847
G1 X93.324 Y91.761 E0.02773
G1 X93.883 Y91.604 E0.03033
G1 X94.490 Y91.508 E0.03207
G1 X94.887 Y91.486 E0.02080
G1 X104.996 Y91.483 E0.52815
G1 X105.429 Y91.502 E0.02264
G1 X106.124 Y91.606 E0.03669
G1 X106.829 Y91.814 E0.03841
G1 X107.348 Y92.039 E0.02955
G1 X107.785 Y92.280 E0.02608
G1 X108.013 Y92.429 E0.01424
G1 X108.575 Y92.866 E0.03719
G1 X108.819 Y93.092 E0.01739
G1 X109.191 Y93.488 E0.02839
G1 X109.564 Y93.966 E0.03166
G1 X109.808 Y94.328 E0.02283
G1 X110.045 Y94.736 E0.02463
G1 X110.288 Y95.220 E0.02828
G1 X110.466 Y95.634 E0.02355
G1 X110.706 Y96.313 E0.03764
G1 X110.836 Y96.765 E0.02456
G1 X110.966 Y97.325 E0.03003
G1 X111.086 Y98.023 E0.03701
G1 X111.149 Y98.554 E0.02790
G1 X111.190 Y99.158 E0.03165
G1 X111.191 Y100.159 E0.05228
G1 X111.133 Y100.960 E0.04196
G1 X111.065 Y101.489 E0.02786
G1 X110.944 Y102.149 E0.03507
G1 X110.754 Y102.897 E0.04033
G1 X110.487 Y103.681 E0.04326
G1 X110.255 Y104.220 E0.03067
G1 X110.024 Y104.670 E0.02643
G1 X109.677 Y105.241 E0.03489
G1 X109.410 Y105.612 E0.02389
G1 X109.131 Y105.947 E0.02276
G1 X108.742 Y106.350 E0.02924
G1 X108.226 Y106.788 E0.03539
G1 X107.762 Y107.102 E0.02929
G1 X107.218 Y107.392 E0.03221
G1 X106.712 Y107.596 E0.02848
G1 X106.163 Y107.752 E0.02983
G1 X105.544 Y107.856 E0.03276
G1 X105.004 Y107.885 E0.02826
G1 X94.996 Y107.885 E0.52288
G1 X94.581 Y107.866 E0.02170
G1 X94.051 Y107.796 E0.02792
G1 X93.376 Y107.626 E0.03638
G1 X92.783 Y107.392 E0.03331
G1 X92.176 Y107.062 E0.03609
G1 X91.775 Y106.788 E0.02541
G1 X91.417 Y106.495 E0.02415
G1 X90.934 Y106.021 E0.03534
G1 X90.593 Y105.615 E0.02770
G1 X90.384 Y105.329 E0.01853
G1 X89.976 Y104.670 E0.04045
G1 X89.745 Y104.220 E0.02646
G1 X89.513 Y103.680 E0.03070
G1 X89.244 Y102.889 E0.04366
G1 X89.087 Y102.282 E0.03276
G1 X88.957 Y101.626 E0.03494
G1 X88.854 Y100.827 E0.04208
G1 X88.809 Y100.159 E0.03498
G1 X88.800 Y99.614 E0.02847
G1 X88.852 Y98.554 E0.05546
G1 X88.924 Y97.955 E0.03152
G1 X89.026 Y97.365 E0.03127
G1 X89.164 Y96.766 E0.03212
G1 X89.295 Y96.313 E0.02463
G1 X89.487 Y95.758 E0.03067
G1 X89.657 Y95.342 E0.02351
G1 X89.892 Y94.854 E0.02828
G1 X90.135 Y94.422 E0.02587
G1 X90.539 Y93.825 E0.03769
G1 X90.809 Y93.488 E0.02257
G1 X91.139 Y93.134 E0.02524
G1 E-0.15294 F1800.000 ; pressure discharge
G1 E-1.50000 F1800.00000
G1 X96.787 Y104.125 F6000.000
G1 E1.50000 F1800.00000
G1 E0.01492 F1800.000 ; pressure advance
G1 X96.553 Y104.338 E0.01033 F1200.000
G1 X96.172 Y104.604 E0.01522
G1 X95.961 Y104.712 E0.00776
G1 X95.601 Y104.843 E0.01255
G1 X95.392 Y104.890 E0.00700
G1 X94.987 Y104.925 E0.01330
G1 X94.759 Y104.912 E0.00748
G1 X94.317 Y104.819 E0.01479
G1 X94.005 Y104.696 E0.01098
G1 X93.794 Y104.584 E0.00782
G1 X93.546 Y104.417 E0.00978
G1 X93.326 Y104.233 E0.00937
G1 X93.127 Y104.034 E0.00920
G1 X92.786 Y103.600 E0.01809
G1 X92.598 Y103.298 E0.01162
G1 X92.421 Y102.955 E0.01265
G1 X92.263 Y102.587 E0.01309
G1 X92.077 Y102.035 E0.01907
G1 X91.959 Y101.571 E0.01567
G1 X91.868 Y101.091 E0.01599
G1 X91.804 Y100.597 E0.01632
G1 X91.767 Y100.093 E0.01653
G1 X91.759 Y99.587 E0.01656
G1 X91.798 Y98.828 E0.02487
G1 X91.852 Y98.381 E0.01473
G1 X91.923 Y97.965 E0.01382
G1 X92.131 Y97.156 E0.02733
G1 X92.380 Y96.503 E0.02286
G1 X92.696 Y95.907 E0.02209
G1 X92.868 Y95.651 E0.01008
G1 X93.226 Y95.231 E0.01806
G1 X93.615 Y94.901 E0.01669
G1 X94.011 Y94.669 E0.01505
G1 X94.216 Y94.583 E0.00725
G1 X94.544 Y94.490 E0.01116
G1 X94.757 Y94.457 E0.00704
G1 X95.136 Y94.451 E0.01241
G1 X95.474 Y94.494 E0.01115
G1 X95.693 Y94.552 E0.00743
G1 X96.136 Y94.743 E0.01579
G1 X96.350 Y94.876 E0.00822
G1 X96.608 Y95.075 E0.01067
G1 X96.806 Y95.262 E0.00890
G1 X97.028 Y95.515 E0.01104
G1 X97.249 Y95.821 E0.01233
G1 X97.410 Y96.084 E0.01011
G1 X97.579 Y96.411 E0.01204
G1 X97.738 Y96.783 E0.01325
G1 X97.913 Y97.297 E0.01777
G1 X98.027 Y97.734 E0.01477
G1 X98.122 Y98.211 E0.01592
G1 X98.191 Y98.718 E0.01675
G1 X98.229 Y99.197 E0.01572
G1 X98.241 Y99.807 E0.01998
G1 X98.221 Y100.308 E0.01640
G1 X98.110 Y101.227 E0.03028
G1 X97.938 Y101.982 E0.02533
G1 X97.801 Y102.410 E0.01473
G1 X97.538 Y103.040 E0.02234
G1 X97.375 Y103.346 E0.01135
G1 X97.161 Y103.678 E0.01292
G1 X96.827 Y104.081 E0.01711
G1 X96.946 Y104.284 F6000.000
G1 X96.698 Y104.510 E0.01097 F1200.000
G1 X96.285 Y104.799 E0.01651
G1 X96.051 Y104.919 E0.00858
G1 X95.664 Y105.060 E0.01348
G1 X95.427 Y105.113 E0.00797
G1 X94.991 Y105.150 E0.01432
G1 X94.735 Y105.136 E0.00837
G1 X94.247 Y105.033 E0.01633
G1 X93.910 Y104.901 E0.01185
G1 X93.678 Y104.777 E0.00862
G1 X93.411 Y104.597 E0.01053
G1 X93.174 Y104.400 E0.01009
G1 X92.959 Y104.184 E0.00997
G1 X92.601 Y103.729 E0.01893
G1 X92.402 Y103.409 E0.01232
G1 X92.217 Y103.051 E0.01321
G1 X92.053 Y102.667 E0.01365
G1 X91.861 Y102.099 E0.01964
G1 X91.739 Y101.620 E0.01618
G1 X91.645 Y101.127 E0.01643
G1 X91.580 Y100.619 E0.01674
G1 X91.543 Y100.103 E0.01694
G1 X91.534 Y99.583 E0.01702
G1 X91.574 Y98.809 E0.02537
G1 X91.629 Y98.348 E0.01517
G1 X91.703 Y97.920 E0.01421
G1 X91.917 Y97.084 E0.02825
G1 X92.175 Y96.410 E0.02362
G1 X92.503 Y95.791 E0.02293
G1 X92.689 Y95.515 E0.01088
G1 X93.063 Y95.075 E0.01891
G1 X93.488 Y94.714 E0.01825
G1 X93.911 Y94.467 E0.01602
G1 X94.141 Y94.370 E0.00818
G1 X94.496 Y94.270 E0.01205
G1 X94.738 Y94.232 E0.00801
G1 X95.148 Y94.226 E0.01344
G1 X95.517 Y94.272 E0.01216
G1 X95.762 Y94.337 E0.00829
G1 X96.004 Y94.428 E0.00847
G1 X96.245 Y94.546 E0.00880
G1 X96.478 Y94.691 E0.00896
G1 X96.754 Y94.904 E0.01141
G1 X96.968 Y95.105 E0.00961
G1 X97.204 Y95.375 E0.01174
G1 X97.436 Y95.696 E0.01296
G1 X97.606 Y95.974 E0.01066
G1 X97.782 Y96.315 E0.01257
G1 X97.948 Y96.703 E0.01380
G1 X98.128 Y97.233 E0.01831
G1 X98.247 Y97.684 E0.01525
G1 X98.344 Y98.174 E0.01636
G1 X98.414 Y98.694 E0.01718
G1 X98.454 Y99.186 E0.01614
G1 X98.466 Y99.810 E0.02042
G1 X98.445 Y100.323 E0.01682
G1 X98.401 Y100.792 E0.01540
G1 X98.331 Y101.268 E0.01576
G1 X98.156 Y102.041 E0.02593
G1 X98.012 Y102.488 E0.01536
G1 X97.742 Y103.137 E0.02300
G1 X97.569 Y103.460 E0.01201
G1 X97.345 Y103.808 E0.01353
G1 X96.986 Y104.240 E0.01837
G1 X97.105 Y104.444 F6000.000
G1 X96.843 Y104.682 E0.01162 F1200.000
G1 X96.397 Y104.994 E0.01781
G1 X96.141 Y105.125 E0.00939
G1 X95.727 Y105.276 E0.01441
G1 X95.461 Y105.336 E0.00894
G1 X94.994 Y105.376 E0.01534
G1 X94.712 Y105.360 E0.00925
G1 X94.449 Y105.319 E0.00871
G1 X94.177 Y105.248 E0.00918
G1 X93.816 Y105.105 E0.01271
G1 X93.562 Y104.970 E0.00943
G1 X93.276 Y104.777 E0.01129
G1 X93.022 Y104.566 E0.01080
G1 X92.790 Y104.333 E0.01074
G1 X92.417 Y103.858 E0.01977
G1 X92.207 Y103.521 E0.01302
G1 X92.014 Y103.147 E0.01376
G1 X91.843 Y102.748 E0.01421
G1 X91.645 Y102.163 E0.02021
G1 X91.520 Y101.669 E0.01668
G1 X91.423 Y101.162 E0.01688
G1 X91.356 Y100.642 E0.01717
G1 X91.318 Y100.113 E0.01735
G1 X91.309 Y99.579 E0.01747
G1 X91.350 Y98.790 E0.02587
G1 X91.407 Y98.316 E0.01561
G1 X91.482 Y97.876 E0.01460
G1 X91.704 Y97.013 E0.02917
G1 X91.970 Y96.317 E0.02438
G1 X92.309 Y95.675 E0.02377
G1 X92.509 Y95.379 E0.01168
G1 X92.900 Y94.919 E0.01976
G1 X93.125 Y94.712 E0.01000
G1 X93.362 Y94.528 E0.00983
G1 X93.810 Y94.265 E0.01698
G1 X94.067 Y94.158 E0.00912
G1 X94.447 Y94.049 E0.01295
G1 X94.719 Y94.007 E0.00898
G1 X95.161 Y94.001 E0.01447
G1 X95.560 Y94.051 E0.01317
G1 X95.830 Y94.123 E0.00914
G1 X96.093 Y94.221 E0.00920
G1 X96.354 Y94.349 E0.00952
G1 X96.607 Y94.506 E0.00971
G1 X96.900 Y94.733 E0.01215
G1 X97.130 Y94.949 E0.01031
G1 X97.380 Y95.235 E0.01244
G1 X97.623 Y95.571 E0.01358
G1 X97.803 Y95.863 E0.01121
G1 X97.986 Y96.219 E0.01311
G1 X98.159 Y96.622 E0.01434
G1 X98.344 Y97.168 E0.01886
G1 X98.466 Y97.633 E0.01574
G1 X98.566 Y98.137 E0.01681
G1 X98.638 Y98.670 E0.01760
G1 X98.679 Y99.175 E0.01657
G1 X98.691 Y99.812 E0.02087
G1 X98.670 Y100.338 E0.01724
G1 X98.625 Y100.819 E0.01579
G1 X98.552 Y101.310 E0.01623
G1 X98.373 Y102.100 E0.02653
G1 X98.223 Y102.566 E0.01600
G1 X97.945 Y103.233 E0.02367
G1 X97.763 Y103.575 E0.01266
G1 X97.528 Y103.938 E0.01413
G1 X97.146 Y104.399 E0.01962
G1 X96.763 Y104.351 F6000.000
G1 E-0.01492 F1800.000 ; pressure discharge
G1 E-1.50000 F1800.00000
G1 X93.679 Y104.275 F6000.000
G1 E1.50000 F1800.00000
G1 E0.03880 F1800.000 ; pressure advance
G1 X93.128 Y103.724 E0.02564 F1920.000
G1 E-0.03880 F1800.000 ; pressure discharge
G1 E-1.50000 F1800.00000
G1 X92.564 Y102.840 F6000.000
G1 E1.50000 F1800.00000
G1 X94.382 Y104.659 E0.08460 F1920.000
G1 X94.796 Y104.753 E0.01396
G1 X92.348 Y102.304 E0.11391
G1 X92.197 Y101.834 E0.01624
G1 X95.127 Y104.764 E0.13628
G1 X95.420 Y104.737 E0.00969
G1 X92.094 Y101.411 E0.15473
G1 X92.019 Y101.016 E0.01321
G1 X95.672 Y104.669 E0.16993
G1 X95.906 Y104.584 E0.00820
G1 X91.971 Y100.649 E0.18306
G1 X91.939 Y100.297 E0.01163
G1 X96.119 Y104.478 E0.19448
G1 X96.308 Y104.346 E0.00755
G1 X91.918 Y99.957 E0.20416
G1 X91.913 Y99.632 E0.01069
G1 X96.488 Y104.207 E0.21282
G1 X96.648 Y104.047 E0.00743
G1 X91.923 Y99.322 E0.21979
G1 X91.939 Y99.018 E0.01001
G1 X96.808 Y103.887 E0.22649
G1 X96.956 Y103.716 E0.00746
G1 X91.962 Y98.721 E0.23231
G1 X92.002 Y98.442 E0.00928
G1 X97.094 Y103.534 E0.23684
G1 X97.219 Y103.339 E0.00761
G1 X92.043 Y98.163 E0.24079
G1 X92.089 Y97.890 E0.00910
G1 X97.334 Y103.135 E0.24395
G1 X97.439 Y102.920 E0.00786
G1 X92.155 Y97.636 E0.24581
G1 X92.220 Y97.381 E0.00864
G1 X97.533 Y102.694 E0.24714
G1 X97.627 Y102.469 E0.00804
G1 X92.289 Y97.131 E0.24830
G1 X92.377 Y96.899 E0.00815
G1 X97.710 Y102.233 E0.24808
G1 X97.788 Y101.991 E0.00836
G1 X92.466 Y96.668 E0.24759
G1 X92.564 Y96.446 E0.00797
G1 X97.848 Y101.731 E0.24583
G1 X97.908 Y101.471 E0.00879
G1 X92.674 Y96.237 E0.24343
G1 X92.785 Y96.028 E0.00778
G1 X97.964 Y101.207 E0.24090
G1 X97.998 Y100.922 E0.00945
G1 X92.908 Y95.832 E0.23678
G1 X93.045 Y95.649 E0.00751
G1 X98.033 Y100.637 E0.23203
G1 X98.067 Y100.352 E0.00945
G1 X93.194 Y95.479 E0.22667
G1 X93.354 Y95.319 E0.00743
G1 X98.081 Y100.045 E0.21986
G1 X98.086 Y99.731 E0.01034
G1 X93.514 Y95.159 E0.21268
G1 X93.689 Y95.014 E0.00747
G1 X98.080 Y99.405 E0.20425
G1 X98.062 Y99.067 E0.01112
G1 X93.890 Y94.896 E0.19404
G1 X94.096 Y94.782 E0.00774
G1 X98.029 Y98.715 E0.18295
G1 X97.979 Y98.346 E0.01228
G1 X94.331 Y94.697 E0.16971
G1 X94.584 Y94.631 E0.00862
G1 X97.904 Y97.951 E0.15444
G1 X97.801 Y97.529 E0.01431
G1 X94.880 Y94.607 E0.13591
G1 X95.214 Y94.621 E0.01100
G1 X97.652 Y97.059 E0.11341
G1 X97.433 Y96.521 F6000.000
G1 X95.635 Y94.723 E0.08362 F1920.000
G1 X96.351 Y95.119 F6000.000
G1 X96.913 Y95.681 E0.02614 F1920.000
G1 E-1.50000 F1800.00000
G1 X102.307 Y102.698 F6000.000
G1 E1.50000 F1800.00000
G1 E0.01505 F1800.000 ; pressure advance
G1 X102.172 Y102.335 E0.01270 F1200.000
G1 X101.986 Y101.690 E0.02197
G1 X101.892 Y101.233 E0.01528
G1 X101.821 Y100.754 E0.01583
G1 X101.770 Y100.091 E0.02175
G1 X101.765 Y99.347 E0.02436
G1 X101.810 Y98.716 E0.02071
G1 X101.878 Y98.211 E0.01667
G1 X101.973 Y97.734 E0.01592
G1 X102.088 Y97.296 E0.01483
G1 X102.235 Y96.854 E0.01525
G1 X102.418 Y96.420 E0.01540
G1 X102.590 Y96.084 E0.01235
G1 X102.775 Y95.784 E0.01153
G1 X102.971 Y95.517 E0.01083
G1 X103.195 Y95.262 E0.01112
G1 X103.394 Y95.074 E0.00897
G1 X103.616 Y94.900 E0.00923
G1 X103.866 Y94.742 E0.00966
G1 X104.085 Y94.635 E0.00800
G1 X104.536 Y94.491 E0.01546
G1 X104.759 Y94.456 E0.00740
G1 X105.128 Y94.451 E0.01209
G1 X105.472 Y94.494 E0.01134
G1 X105.784 Y94.583 E0.01062
G1 X105.995 Y94.671 E0.00748
G1 X106.389 Y94.903 E0.01496
G1 X106.775 Y95.231 E0.01658
G1 X107.133 Y95.652 E0.01808
G1 X107.303 Y95.903 E0.00994
G1 X107.467 Y96.189 E0.01079
G1 X107.734 Y96.772 E0.02099
G1 X107.867 Y97.149 E0.01308
G1 X107.980 Y97.541 E0.01335
G1 X108.151 Y98.399 E0.02862
G1 X108.202 Y98.828 E0.01414
G1 X108.242 Y99.587 E0.02487
G1 X108.233 Y100.093 E0.01656
G1 X108.197 Y100.597 E0.01653
G1 X108.133 Y101.091 E0.01632
G1 X108.041 Y101.573 E0.01606
G1 X107.921 Y102.043 E0.01587
G1 X107.737 Y102.587 E0.01879
G1 X107.580 Y102.955 E0.01309
G1 X107.402 Y103.298 E0.01265
G1 X107.215 Y103.600 E0.01162
G1 X106.873 Y104.034 E0.01809
G1 X106.670 Y104.238 E0.00943
G1 X106.455 Y104.417 E0.00914
G1 X106.207 Y104.584 E0.00979
G1 X105.996 Y104.696 E0.00782
G1 X105.683 Y104.819 E0.01098
G1 X105.460 Y104.878 E0.00757
G1 X105.013 Y104.925 E0.01469
G1 X104.608 Y104.890 E0.01330
G1 X104.400 Y104.843 E0.00700
G1 X104.039 Y104.712 E0.01255
G1 X103.828 Y104.604 E0.00776
G1 X103.447 Y104.337 E0.01524
G1 X103.214 Y104.126 E0.01029
G1 X102.838 Y103.676 E0.01918
G1 X102.672 Y103.423 E0.00989
G1 X102.457 Y103.030 E0.01466
G1 X102.332 Y102.753 E0.00995
G1 X102.099 Y102.784 F6000.000
G1 X101.958 Y102.405 E0.01323 F1200.000
G1 X101.768 Y101.744 E0.02253
G1 X101.670 Y101.272 E0.01577
G1 X101.598 Y100.779 E0.01630
G1 X101.546 Y100.101 E0.02226
G1 X101.540 Y99.340 E0.02491
G1 X101.586 Y98.693 E0.02123
G1 X101.657 Y98.174 E0.01712
G1 X101.754 Y97.684 E0.01636
G1 X101.872 Y97.232 E0.01529
G1 X102.025 Y96.774 E0.01577
G1 X102.214 Y96.325 E0.01596
G1 X102.394 Y95.974 E0.01292
